( pcb2gcode 2.5.0 )
( Software-independent Gcode )

G94 ( Millimeters per minute feed rate. )
G21 ( Units == Millimeters. )

G90 ( Absolute coordinates. )
G00 S10000 ( RPM spindle speed. )
G64 P0.01016 ( set maximum deviation from commanded toolpath )
G01 F200.00000 ( Feedrate. )


G00 Z10.00000 (Retract to tool change height)
T0
M5      (Spindle stop.)
G04 P1.00000 (Wait for spindle to stop)
(MSG, Change tool bit to mill diameter 0.40000mm)
M6      (Tool change.)
M0      (Temporary machine stop.)
M3 ( Spindle on clockwise. )
G04 P1.00000 (Wait for spindle to get up to speed)
G04 P0 ( dwell for no time -- G64 should not smooth over this point )
G00 Z5.00000 ( retract )

G00 X1.94054 Y34.63633 ( rapid move to begin. )
G01 F100.00000
( Mill infeed pass 1/1 )
G01 Z-0.20000
G04 P0 ( dwell for no time -- G64 should not smooth over this point )
G01 F200.00000
G01 X1.94054 Y34.63633
G01 X1.95705 Y34.83541
G01 X2.00607 Y35.02904
G01 X2.08631 Y35.21197
G01 X2.19558 Y35.37920
G01 X2.33086 Y35.52617
G01 X2.48847 Y35.64882
G01 X2.66416 Y35.74390
G01 X2.85306 Y35.80877
G01 X3.05011 Y35.84164
G01 X3.24986 Y35.84164
G01 X3.44689 Y35.80877
G01 X3.63576 Y35.74392
G01 X3.81148 Y35.64882
G01 X3.96911 Y35.52614
G01 X4.10436 Y35.37920
G01 X4.21364 Y35.21197
G01 X4.29387 Y35.02904
G01 X4.34290 Y34.83541
G01 X4.35941 Y34.63633
G01 X4.34290 Y34.43727
G01 X4.29387 Y34.24365
G01 X4.21364 Y34.06071
G01 X4.10436 Y33.89348
G01 X3.96908 Y33.74652
G01 X3.81148 Y33.62386
G01 X3.63579 Y33.52879
G01 X3.44689 Y33.46392
G01 X3.24986 Y33.43105
G01 X3.05011 Y33.43105
G01 X2.85306 Y33.46392
G01 X2.66416 Y33.52879
G01 X2.48847 Y33.62386
G01 X2.33086 Y33.74652
G01 X2.19558 Y33.89348
G01 X2.08631 Y34.06071
G01 X2.00607 Y34.24365
G01 X1.95705 Y34.43727
G01 X1.94054 Y34.63633
G01 X2.04999 Y34.63633
G01 X2.07292 Y34.86528
G01 X2.14407 Y35.08421
G01 X2.25916 Y35.28355
G01 X2.41318 Y35.45462
G01 X2.59944 Y35.58992
G01 X2.80970 Y35.68355
G01 X3.03487 Y35.73142
G01 X3.26507 Y35.73142
G01 X3.49024 Y35.68355
G01 X3.70053 Y35.58992
G01 X3.88676 Y35.45462
G01 X4.04079 Y35.28355
G01 X4.15588 Y35.08421
G01 X4.22702 Y34.86528
G01 X4.25107 Y34.63633
G01 X4.22702 Y34.40740
G01 X4.15588 Y34.18848
G01 X4.04079 Y33.98914
G01 X3.88676 Y33.81807
G01 X3.70053 Y33.68276
G01 X3.49024 Y33.58914
G01 X3.26507 Y33.54126
G01 X3.03487 Y33.54126
G01 X2.80970 Y33.58914
G01 X2.59944 Y33.68276
G01 X2.41318 Y33.81807
G01 X2.25916 Y33.98914
G01 X2.14407 Y34.18848
G01 X2.07292 Y34.40740
G01 X2.04999 Y34.63633
G04 P0 ( dwell for no time -- G64 should not smooth over this point )
G00 Z5.00000 ( retract )

G00 X19.94053 Y45.02864 ( rapid move to begin. )
G01 F100.00000
( Mill infeed pass 1/1 )
G01 Z-0.20000
G04 P0 ( dwell for no time -- G64 should not smooth over this point )
G01 F200.00000
G01 X19.94053 Y45.02864
G01 X19.95704 Y45.22770
G01 X20.00606 Y45.42135
G01 X20.08630 Y45.60428
G01 X20.19557 Y45.77151
G01 X20.33085 Y45.91845
G01 X20.48848 Y46.04113
G01 X20.66415 Y46.13620
G01 X20.85307 Y46.20105
G01 X21.05010 Y46.23394
G01 X21.24985 Y46.23394
G01 X21.44687 Y46.20105
G01 X21.63580 Y46.13620
G01 X21.81147 Y46.04113
G01 X21.96910 Y45.91845
G01 X22.10438 Y45.77151
G01 X22.21365 Y45.60428
G01 X22.29389 Y45.42135
G01 X22.34291 Y45.22772
G01 X22.35942 Y45.02864
G01 X22.34291 Y44.82958
G01 X22.29389 Y44.63595
G01 X22.21365 Y44.45302
G01 X22.10438 Y44.28579
G01 X21.96910 Y44.13882
G01 X21.81147 Y44.01614
G01 X21.63580 Y43.92107
G01 X21.44687 Y43.85622
G01 X21.24985 Y43.82336
G01 X21.05010 Y43.82336
G01 X20.85307 Y43.85622
G01 X20.66417 Y43.92107
G01 X20.48848 Y44.01617
G01 X20.33085 Y44.13885
G01 X20.19557 Y44.28579
G01 X20.08630 Y44.45302
G01 X20.00606 Y44.63595
G01 X19.95704 Y44.82958
G01 X19.94053 Y45.02864
G01 X20.04998 Y45.02864
G01 X20.07294 Y45.25759
G01 X20.14408 Y45.47649
G01 X20.25915 Y45.67585
G01 X20.41317 Y45.84692
G01 X20.59943 Y45.98223
G01 X20.80972 Y46.07585
G01 X21.03489 Y46.12373
G01 X21.26506 Y46.12373
G01 X21.49023 Y46.07585
G01 X21.70052 Y45.98223
G01 X21.88678 Y45.84692
G01 X22.04080 Y45.67585
G01 X22.15589 Y45.47649
G01 X22.22701 Y45.25759
G01 X22.25109 Y45.02864
G01 X22.22701 Y44.79971
G01 X22.15589 Y44.58078
G01 X22.04080 Y44.38145
G01 X21.88678 Y44.21035
G01 X21.70052 Y44.07507
G01 X21.49023 Y43.98142
G01 X21.26506 Y43.93357
G01 X21.03489 Y43.93357
G01 X20.80972 Y43.98142
G01 X20.59943 Y44.07507
G01 X20.41317 Y44.21035
G01 X20.25915 Y44.38145
G01 X20.14408 Y44.58078
G01 X20.07294 Y44.79971
G01 X20.04998 Y45.02864
G04 P0 ( dwell for no time -- G64 should not smooth over this point )
G00 Z5.00000 ( retract )

G00 X37.94054 Y34.63633 ( rapid move to begin. )
G01 F100.00000
( Mill infeed pass 1/1 )
G01 Z-0.20000
G04 P0 ( dwell for no time -- G64 should not smooth over this point )
G01 F200.00000
G01 X37.94054 Y34.63633
G01 X37.95705 Y34.83541
G01 X38.00607 Y35.02904
G01 X38.08631 Y35.21197
G01 X38.19558 Y35.37920
G01 X38.33086 Y35.52617
G01 X38.48847 Y35.64882
G01 X38.66416 Y35.74390
G01 X38.85306 Y35.80877
G01 X39.05009 Y35.84164
G01 X39.24984 Y35.84164
G01 X39.44689 Y35.80877
G01 X39.63576 Y35.74392
G01 X39.81148 Y35.64882
G01 X39.96911 Y35.52614
G01 X40.10437 Y35.37920
G01 X40.21364 Y35.21197
G01 X40.29388 Y35.02904
G01 X40.34290 Y34.83541
G01 X40.35941 Y34.63633
G01 X40.34290 Y34.43727
G01 X40.29388 Y34.24365
G01 X40.21364 Y34.06071
G01 X40.10437 Y33.89348
G01 X39.96909 Y33.74652
G01 X39.81148 Y33.62386
G01 X39.63581 Y33.52879
G01 X39.44686 Y33.46392
G01 X39.24984 Y33.43105
G01 X39.05009 Y33.43105
G01 X38.85306 Y33.46392
G01 X38.66416 Y33.52879
G01 X38.48847 Y33.62386
G01 X38.33086 Y33.74652
G01 X38.19558 Y33.89348
G01 X38.08631 Y34.06071
G01 X38.00607 Y34.24365
G01 X37.95705 Y34.43727
G01 X37.94054 Y34.63633
G01 X38.04999 Y34.63633
G01 X38.07293 Y34.86528
G01 X38.14407 Y35.08421
G01 X38.25916 Y35.28355
G01 X38.41319 Y35.45462
G01 X38.59942 Y35.58992
G01 X38.80971 Y35.68355
G01 X39.03488 Y35.73142
G01 X39.26508 Y35.73142
G01 X39.49025 Y35.68355
G01 X39.70051 Y35.58992
G01 X39.88677 Y35.45462
G01 X40.04079 Y35.28355
G01 X40.15588 Y35.08421
G01 X40.22702 Y34.86528
G01 X40.25108 Y34.63633
G01 X40.22702 Y34.40740
G01 X40.15588 Y34.18848
G01 X40.04079 Y33.98914
G01 X39.88677 Y33.81807
G01 X39.70051 Y33.68276
G01 X39.49025 Y33.58914
G01 X39.26508 Y33.54126
G01 X39.03488 Y33.54126
G01 X38.80971 Y33.58914
G01 X38.59942 Y33.68276
G01 X38.41319 Y33.81807
G01 X38.25916 Y33.98914
G01 X38.14407 Y34.18848
G01 X38.07293 Y34.40740
G01 X38.04999 Y34.63633
G04 P0 ( dwell for no time -- G64 should not smooth over this point )
G00 Z5.00000 ( retract )

G00 X44.81396 Y30.15000 ( rapid move to begin. )
G01 F100.00000
( Mill infeed pass 1/1 )
G01 Z-0.20000
G04 P0 ( dwell for no time -- G64 should not smooth over this point )
G01 F200.00000
G01 X44.81396 Y30.15000
G01 X44.80393 Y30.00997
G01 X44.68259 Y29.45224
G01 X44.66291 Y29.38521
G01 X44.38051 Y28.67975
G01 X43.96979 Y28.04043
G01 X43.44559 Y27.49032
G01 X43.39280 Y27.44455
G01 X42.85486 Y27.05148
G01 X42.25913 Y26.75316
G01 X41.62215 Y26.55788
G01 X41.14998 Y26.47853
G01 X41.14998 Y26.68085
G01 X41.57965 Y26.75331
G01 X42.18478 Y26.93883
G01 X42.75072 Y27.22222
G01 X43.26177 Y27.59563
G01 X43.31455 Y27.64140
G01 X43.81254 Y28.16403
G01 X44.20273 Y28.77137
G01 X44.47101 Y29.44157
G01 X44.49069 Y29.50860
G01 X44.60599 Y30.03845
G01 X44.61396 Y30.15000
G01 X44.41396 Y30.15000
G01 X44.40802 Y30.06692
G01 X44.29880 Y29.56494
G01 X44.27911 Y29.49791
G01 X44.02496 Y28.86301
G01 X43.65531 Y28.28760
G01 X43.18353 Y27.79250
G01 X43.13075 Y27.74673
G01 X42.64660 Y27.39299
G01 X42.11044 Y27.12451
G01 X41.53716 Y26.94874
G01 X41.14998 Y26.88316
G01 X41.14998 Y27.08547
G01 X41.49466 Y27.14417
G01 X42.03609 Y27.31018
G01 X42.54246 Y27.56375
G01 X42.99971 Y27.89784
G01 X43.05250 Y27.94361
G01 X43.49806 Y28.41120
G01 X43.84719 Y28.95463
G01 X44.08722 Y29.55427
G01 X44.10690 Y29.62130
G01 X44.21005 Y30.09539
G01 X44.21396 Y30.15000
G01 X44.01396 Y30.15000
G01 X44.01208 Y30.12384
G01 X43.91500 Y29.67766
G01 X43.89532 Y29.61063
G01 X43.66941 Y29.04625
G01 X43.34084 Y28.53479
G01 X42.92146 Y28.09471
G01 X42.86868 Y28.04894
G01 X42.43832 Y27.73449
G01 X41.96174 Y27.49583
G01 X41.45217 Y27.33959
G01 X41.14998 Y27.28780
G01 X41.14998 Y27.49012
G01 X41.40967 Y27.53505
G01 X41.88740 Y27.68150
G01 X42.33418 Y27.90525
G01 X42.73766 Y28.20005
G01 X42.79044 Y28.24582
G01 X43.18359 Y28.65839
G01 X43.49164 Y29.13789
G01 X43.70342 Y29.66697
G01 X43.72311 Y29.73400
G01 X43.81361 Y30.15000
G01 X43.60947 Y30.15000
G01 X43.53121 Y29.79036
G01 X43.51152 Y29.72333
G01 X43.31384 Y29.22951
G01 X43.02636 Y28.78198
G01 X42.65941 Y28.39690
G01 X42.60662 Y28.35112
G01 X42.23007 Y28.07599
G01 X41.81305 Y27.86718
G01 X41.36718 Y27.73048
G01 X41.14998 Y27.69243
G01 X41.14998 Y27.89474
G01 X41.32466 Y27.92590
G01 X41.73871 Y28.05285
G01 X42.12593 Y28.24676
G01 X42.47559 Y28.50223
G01 X42.52837 Y28.54800
G01 X42.86911 Y28.90558
G01 X43.13606 Y29.32115
G01 X43.31963 Y29.77970
G01 X43.33931 Y29.84673
G01 X43.40530 Y30.15000
G01 X42.99700 Y30.15000
G01 X43.20114 Y30.15000
G01 X43.14742 Y29.90306
G01 X43.12773 Y29.83603
G01 X42.95829 Y29.41277
G01 X42.71186 Y29.02918
G01 X42.39735 Y28.69910
G01 X42.34457 Y28.65333
G01 X42.02179 Y28.41749
G01 X41.66436 Y28.23850
G01 X41.28217 Y28.12133
G01 X41.14998 Y28.09707
G01 X41.14998 Y28.29938
G01 X41.23967 Y28.31676
G01 X41.59001 Y28.42417
G01 X41.91765 Y28.58826
G01 X42.21353 Y28.80444
G01 X42.26631 Y28.85021
G01 X42.55463 Y29.15277
G01 X42.78051 Y29.50439
G01 X42.93583 Y29.89240
G01 X42.95552 Y29.95943
G01 X42.99700 Y30.15000
G01 X42.79283 Y30.15000
G01 X42.76362 Y30.01579
G01 X42.74394 Y29.94876
G01 X42.60274 Y29.59603
G01 X42.39738 Y29.27637
G01 X42.13528 Y29.00131
G01 X42.08250 Y28.95554
G01 X41.81353 Y28.75900
G01 X41.51567 Y28.60985
G01 X41.19718 Y28.51221
G01 X41.14998 Y28.50192
G01 X41.14998 Y28.70660
G01 X41.44132 Y28.79552
G01 X41.70939 Y28.92976
G01 X41.95148 Y29.10662
G01 X42.00426 Y29.15239
G01 X42.24015 Y29.39994
G01 X42.42496 Y29.68765
G01 X42.55204 Y30.00510
G01 X42.57172 Y30.07213
G01 X42.58867 Y30.15000
G01 X42.38453 Y30.15000
G01 X42.36014 Y30.06146
G01 X42.24719 Y29.77926
G01 X42.08290 Y29.52354
G01 X41.87322 Y29.30350
G01 X41.82044 Y29.25773
G01 X41.60525 Y29.10050
G01 X41.36698 Y28.98117
G01 X41.14998 Y28.91465
G01 X41.14998 Y29.33156
G01 X41.14998 Y29.12311
G01 X41.29263 Y29.16685
G01 X41.50114 Y29.27126
G01 X41.68940 Y29.40883
G01 X41.74219 Y29.45460
G01 X41.92568 Y29.64713
G01 X42.06941 Y29.87091
G01 X42.16825 Y30.11782
G01 X42.17772 Y30.15000
G01 X41.96670 Y30.15000
G01 X41.89164 Y29.96253
G01 X41.76842 Y29.77073
G01 X41.61117 Y29.60571
G01 X41.55839 Y29.55994
G01 X41.39700 Y29.44200
G01 X41.21829 Y29.35252
G01 X41.14998 Y29.33156
G01 X41.14998 Y29.54122
G01 X41.29286 Y29.61277
G01 X41.42735 Y29.71104
G01 X41.48013 Y29.75681
G01 X41.61117 Y29.89433
G01 X41.71386 Y30.05417
G01 X41.75224 Y30.15000
G01 X41.53777 Y30.15000
G01 X41.45395 Y30.01792
G01 X41.34910 Y29.90789
G01 X41.29631 Y29.86212
G01 X41.18872 Y29.78351
G01 X41.14998 Y29.76410
G01 X41.14998 Y30.00205
G01 X41.21808 Y30.05900
G01 X41.30216 Y30.15000
G01 X41.21808 Y30.05900
G01 X41.14998 Y30.00205
G01 X41.14998 Y30.28147
G01 X41.13947 Y30.26512
G01 X41.08704 Y30.21010
G01 X41.01468 Y30.15000
G01 X41.08704 Y30.21010
G01 X41.13947 Y30.26512
G01 X41.14998 Y30.28147
G01 X41.14998 Y35.79104
G01 X21.15000 Y47.33803
G01 X1.14999 Y35.79104
G01 X1.14999 Y12.69703
G01 X1.25527 Y12.94488
G01 X1.26091 Y12.89779
G01 X1.27468 Y12.84097
G01 X1.28583 Y12.80792
G01 X1.30254 Y12.77729
G01 X1.37257 Y12.69947
G01 X1.41727 Y12.66429
G01 X20.98797 Y1.36515
G01 X21.03158 Y1.34648
G01 X21.08767 Y1.32999
G01 X21.12188 Y1.32311
G01 X21.15676 Y1.32227
G01 X21.25914 Y1.34402
G01 X21.31198 Y1.36515
G01 X40.88268 Y12.66429
G01 X40.92065 Y12.69274
G01 X40.96296 Y12.73307
G01 X40.98603 Y12.75923
G01 X41.00419 Y12.78903
G01 X41.03657 Y12.88857
G01 X41.04468 Y12.94488
G01 X41.04468 Y17.72072
G01 X41.02890 Y17.81475
G01 X41.01915 Y17.84655
G01 X41.00424 Y17.87632
G01 X40.93889 Y17.95602
G01 X40.91138 Y17.98223
G01 X40.87937 Y18.00283
G01 X40.84407 Y18.01693
G01 X40.77704 Y18.03662
G01 X40.72070 Y18.04474
G01 X34.73610 Y18.04474
G01 X34.70931 Y18.05191
G01 X34.68530 Y18.06578
G01 X34.66572 Y18.08536
G01 X34.65185 Y18.10936
G01 X34.64469 Y18.13616
G01 X34.64469 Y30.16390
G01 X34.65185 Y30.19067
G01 X34.66570 Y30.21467
G01 X34.68533 Y30.23428
G01 X34.70933 Y30.24815
G01 X34.73610 Y30.25531
G01 X40.72070 Y30.25531
G01 X40.76319 Y30.25988
G01 X40.84656 Y30.28086
G01 X40.87633 Y30.29577
G01 X40.90322 Y30.31543
G01 X40.95601 Y30.36120
G01 X40.98222 Y30.38871
G01 X41.00277 Y30.42067
G01 X41.03655 Y30.52298
G01 X41.04468 Y30.57931
G01 X41.04468 Y35.54319
G01 X41.03904 Y35.59030
G01 X41.02527 Y35.64712
G01 X41.01412 Y35.68019
G01 X40.99738 Y35.71083
G01 X40.92735 Y35.78863
G01 X40.88268 Y35.82378
G01 X21.31198 Y47.12294
G01 X21.26829 Y47.14164
G01 X21.17804 Y47.16496
G01 X21.14322 Y47.16579
G01 X21.10875 Y47.16056
G01 X21.01368 Y47.13542
G01 X1.41727 Y35.82378
G01 X1.37930 Y35.79533
G01 X1.33698 Y35.75500
G01 X1.31392 Y35.72883
G01 X1.29578 Y35.69907
G01 X1.26340 Y35.59955
G01 X1.25527 Y35.54319
G01 X1.25527 Y12.94488
G01 X1.14999 Y12.69703
G01 X21.15000 Y1.15001
G01 X41.14998 Y12.69703
G01 X41.14998 Y22.01403
G01 X41.31849 Y22.00196
G01 X41.90414 Y21.87458
G01 X41.97117 Y21.85490
G01 X42.71254 Y21.55802
G01 X43.38432 Y21.12622
G01 X43.96222 Y20.57507
G01 X44.00797 Y20.52226
G01 X44.42001 Y19.95782
G01 X44.73276 Y19.33285
G01 X44.81498 Y19.06466
G01 X44.81498 Y18.15003
G01 X41.53589 Y18.15003
G01 X41.75877 Y18.15003
G01 X41.68740 Y18.29262
G01 X41.58930 Y18.42701
G01 X41.54356 Y18.47982
G01 X41.40597 Y18.61104
G01 X41.24600 Y18.71386
G01 X41.14998 Y18.75231
G01 X41.14998 Y18.96676
G01 X41.33767 Y18.89163
G01 X41.52961 Y18.76824
G01 X41.69471 Y18.61076
G01 X41.74046 Y18.55795
G01 X41.85819 Y18.39669
G01 X41.94754 Y18.21815
G01 X41.96842 Y18.15003
G01 X42.17688 Y18.15003
G01 X42.13322 Y18.29245
G01 X42.02898 Y18.50075
G01 X41.89164 Y18.68894
G01 X41.84589 Y18.74172
G01 X41.65326 Y18.92544
G01 X41.42933 Y19.06938
G01 X41.18219 Y19.16831
G01 X41.14998 Y19.17781
G01 X41.14998 Y19.38459
G01 X41.23855 Y19.36021
G01 X41.52098 Y19.24713
G01 X41.77691 Y19.08264
G01 X41.99705 Y18.87268
G01 X42.04279 Y18.81988
G01 X42.19977 Y18.60484
G01 X42.31892 Y18.36679
G01 X42.38534 Y18.15003
G01 X43.40525 Y18.15003
G01 X43.37408 Y18.32470
G01 X43.24731 Y18.73834
G01 X43.05371 Y19.12521
G01 X42.79862 Y19.47464
G01 X42.75288 Y19.52744
G01 X42.39514 Y19.86862
G01 X41.97927 Y20.13593
G01 X41.52032 Y20.31970
G01 X41.45329 Y20.33938
G01 X41.14998 Y20.40539
G01 X41.14998 Y20.60956
G01 X41.50965 Y20.53128
G01 X41.57668 Y20.51159
G01 X42.07094 Y20.31373
G01 X42.51879 Y20.02582
G01 X42.90406 Y19.65838
G01 X42.94980 Y19.60557
G01 X43.22448 Y19.22930
G01 X43.43299 Y18.81266
G01 X43.56951 Y18.36725
G01 X43.60756 Y18.15003
G01 X43.80987 Y18.15003
G01 X43.76494 Y18.40972
G01 X43.61866 Y18.88698
G01 X43.39527 Y19.33339
G01 X43.10096 Y19.73656
G01 X43.05521 Y19.78934
G01 X42.64244 Y20.18302
G01 X42.16258 Y20.49145
G01 X41.63304 Y20.70349
G01 X41.56601 Y20.72317
G01 X41.14998 Y20.81373
G01 X41.14998 Y21.81405
G01 X41.29004 Y21.80400
G01 X41.84777 Y21.68268
G01 X41.91480 Y21.66300
G01 X42.62087 Y21.38027
G01 X43.26067 Y20.96902
G01 X43.81104 Y20.44413
G01 X43.85679 Y20.39130
G01 X44.24922 Y19.85373
G01 X44.54708 Y19.25853
G01 X44.74210 Y18.62219
G01 X44.81498 Y18.19013
G01 X44.81498 Y18.15003
G01 X44.41683 Y18.15003
G01 X44.61914 Y18.15003
G01 X44.54668 Y18.57969
G01 X44.36138 Y19.18424
G01 X44.07843 Y19.74967
G01 X43.70563 Y20.26034
G01 X43.65989 Y20.31314
G01 X43.13703 Y20.81182
G01 X42.52920 Y21.20252
G01 X41.85844 Y21.47110
G01 X41.79141 Y21.49079
G01 X41.26157 Y21.60605
G01 X41.14998 Y21.61403
G01 X41.14998 Y21.41403
G01 X41.23309 Y21.40809
G01 X41.73507 Y21.29889
G01 X41.80210 Y21.27921
G01 X42.43756 Y21.02475
G01 X43.01338 Y20.65462
G01 X43.50870 Y20.18220
G01 X43.55445 Y20.12940
G01 X43.90764 Y19.64558
G01 X44.17571 Y19.10992
G01 X44.35125 Y18.53722
G01 X44.41683 Y18.15003
G01 X44.01218 Y18.15003
G01 X44.21452 Y18.15003
G01 X44.15582 Y18.49471
G01 X43.99004 Y19.03562
G01 X43.73685 Y19.54152
G01 X43.40330 Y19.99844
G01 X43.35755 Y20.05127
G01 X42.88973 Y20.49742
G01 X42.34589 Y20.84697
G01 X41.74574 Y21.08728
G01 X41.67871 Y21.10699
G01 X41.20462 Y21.21012
G01 X41.14998 Y21.21403
G01 X41.14998 Y21.01403
G01 X41.17617 Y21.01215
G01 X41.62235 Y20.91510
G01 X41.68938 Y20.89539
G01 X42.25425 Y20.66922
G01 X42.76609 Y20.34022
G01 X43.20639 Y19.92031
G01 X43.25214 Y19.86750
G01 X43.56606 Y19.43743
G01 X43.80436 Y18.96128
G01 X43.96039 Y18.45221
G01 X44.01218 Y18.15003
G01 X43.00060 Y18.15003
G01 X43.20291 Y18.15003
G01 X43.17866 Y18.28221
G01 X43.06164 Y18.66402
G01 X42.88293 Y19.02115
G01 X42.64747 Y19.34370
G01 X42.60172 Y19.39651
G01 X42.27150 Y19.71142
G01 X41.88760 Y19.95818
G01 X41.46398 Y20.12780
G01 X41.39695 Y20.14748
G01 X41.14998 Y20.20123
G01 X41.14998 Y19.99706
G01 X41.34059 Y19.95559
G01 X41.40762 Y19.93590
G01 X41.79596 Y19.78040
G01 X42.14785 Y19.55424
G01 X42.45054 Y19.26552
G01 X42.49629 Y19.21271
G01 X42.71214 Y18.91706
G01 X42.87594 Y18.58970
G01 X42.98323 Y18.23971
G01 X43.00060 Y18.15003
G01 X42.59339 Y18.15003
G01 X42.79806 Y18.15003
G01 X42.78778 Y18.19722
G01 X42.69027 Y18.51538
G01 X42.54135 Y18.81299
G01 X42.34513 Y19.08178
G01 X42.29939 Y19.13458
G01 X42.02420 Y19.39704
G01 X41.70429 Y19.60265
G01 X41.35125 Y19.74400
G01 X41.28422 Y19.76369
G01 X41.14998 Y19.79290
G01 X41.14998 Y19.58876
G01 X41.22789 Y19.57179
G01 X41.29492 Y19.55211
G01 X41.61265 Y19.42490
G01 X41.90055 Y19.23984
G01 X42.14820 Y19.00365
G01 X42.19395 Y18.95081
G01 X42.37056 Y18.70893
G01 X42.50459 Y18.44109
G01 X42.59339 Y18.15003
G01 X41.53589 Y18.15003
G01 X41.51661 Y18.18853
G01 X41.43812 Y18.29608
G01 X41.39238 Y18.34888
G01 X41.28232 Y18.45384
G01 X41.14998 Y18.53786
G01 X41.28232 Y18.45384
G01 X41.39238 Y18.34888
G01 X41.43812 Y18.29608
G01 X41.51661 Y18.18853
G01 X41.53589 Y18.15003
G01 X41.29797 Y18.15003
G01 X41.24122 Y18.21790
G01 X41.14998 Y18.30222
G01 X41.24122 Y18.21790
G01 X41.29797 Y18.15003
G01 X41.01857 Y18.15003
G01 X41.03502 Y18.13944
G01 X41.09004 Y18.08696
G01 X41.14998 Y18.01472
G01 X41.09004 Y18.08696
G01 X41.03502 Y18.13944
G01 X41.01857 Y18.15003
G01 X34.75000 Y18.15003
G01 X34.69140 Y18.09145
G01 X34.75000 Y18.15003
G01 X34.75000 Y30.15000
G01 X34.69140 Y30.20860
G01 X34.75000 Y30.15000
G01 X44.81498 Y30.15000
G01 X44.81498 Y29.22933
G01 X44.55828 Y28.58813
G01 X44.12704 Y27.91684
G01 X43.57662 Y27.33921
G01 X43.52384 Y27.29344
G01 X42.95900 Y26.88072
G01 X42.33347 Y26.56751
G01 X41.66467 Y26.36243
G01 X41.61315 Y26.35123
G01 X41.14998 Y26.27833
G01 X41.14998 Y29.76410
G01 X41.29286 Y29.61277
G01 X42.95900 Y26.88072
G04 P0 ( dwell for no time -- G64 should not smooth over this point )
G00 Z5.00000 ( retract )

G00 X37.94054 Y13.85174 ( rapid move to begin. )
G01 F100.00000
( Mill infeed pass 1/1 )
G01 Z-0.20000
G04 P0 ( dwell for no time -- G64 should not smooth over this point )
G01 F200.00000
G01 X37.94054 Y13.85174
G01 X37.95705 Y14.05080
G01 X38.00607 Y14.24442
G01 X38.08631 Y14.42735
G01 X38.19558 Y14.59459
G01 X38.33086 Y14.74155
G01 X38.48847 Y14.86423
G01 X38.66414 Y14.95930
G01 X38.85306 Y15.02415
G01 X39.05009 Y15.05702
G01 X39.24984 Y15.05702
G01 X39.44689 Y15.02415
G01 X39.63579 Y14.95930
G01 X39.81148 Y14.86423
G01 X39.96909 Y14.74155
G01 X40.10437 Y14.59459
G01 X40.21364 Y14.42735
G01 X40.29388 Y14.24442
G01 X40.34290 Y14.05080
G01 X40.35941 Y13.85174
G01 X40.34290 Y13.65268
G01 X40.29388 Y13.45903
G01 X40.21364 Y13.27610
G01 X40.10439 Y13.10889
G01 X39.96909 Y12.96192
G01 X39.81148 Y12.83924
G01 X39.63581 Y12.74417
G01 X39.44686 Y12.67932
G01 X39.24984 Y12.64643
G01 X39.05009 Y12.64643
G01 X38.85306 Y12.67932
G01 X38.66414 Y12.74417
G01 X38.48847 Y12.83924
G01 X38.33086 Y12.96192
G01 X38.19556 Y13.10891
G01 X38.08631 Y13.27610
G01 X38.00607 Y13.45903
G01 X37.95705 Y13.65268
G01 X37.94054 Y13.85174
G01 X38.04999 Y13.85171
G01 X38.07293 Y14.08067
G01 X38.14407 Y14.29959
G01 X38.25916 Y14.49896
G01 X38.41319 Y14.67002
G01 X38.59942 Y14.80530
G01 X38.80971 Y14.89895
G01 X39.03488 Y14.94681
G01 X39.26508 Y14.94681
G01 X39.49025 Y14.89895
G01 X39.70051 Y14.80530
G01 X39.88677 Y14.67002
G01 X40.04079 Y14.49896
G01 X40.15588 Y14.29959
G01 X40.22702 Y14.08067
G01 X40.25108 Y13.85171
G01 X40.22702 Y13.62278
G01 X40.15588 Y13.40388
G01 X40.04079 Y13.20452
G01 X39.88677 Y13.03345
G01 X39.70051 Y12.89815
G01 X39.49025 Y12.80452
G01 X39.26508 Y12.75664
G01 X39.03488 Y12.75664
G01 X38.80971 Y12.80452
G01 X38.59942 Y12.89815
G01 X38.41319 Y13.03345
G01 X38.25916 Y13.20452
G01 X38.14407 Y13.40388
G01 X38.07293 Y13.62278
G01 X38.04999 Y13.85171
G04 P0 ( dwell for no time -- G64 should not smooth over this point )
G00 Z5.00000 ( retract )

G00 X32.39999 Y20.77004 ( rapid move to begin. )
G01 F100.00000
( Mill infeed pass 1/1 )
G01 Z-0.20000
G04 P0 ( dwell for no time -- G64 should not smooth over this point )
G01 F200.00000
G01 X32.39999 Y20.77004
G01 X32.39999 Y20.87004
G01 X33.19999 Y20.87004
G01 X33.23900 Y20.87385
G01 X33.27652 Y20.88523
G01 X33.31111 Y20.90372
G01 X33.34142 Y20.92858
G01 X33.36628 Y20.95889
G01 X33.38477 Y20.99351
G01 X33.39615 Y21.03100
G01 X33.39999 Y21.12005
G01 X33.49996 Y21.12005
G01 X33.49740 Y21.00903
G01 X33.46600 Y20.92477
G01 X33.41429 Y20.85571
G01 X33.34523 Y20.80405
G01 X33.26100 Y20.77260
G01 X32.39999 Y20.77004
G04 P0 ( dwell for no time -- G64 should not smooth over this point )
G00 Z5.00000 ( retract )

G00 X32.39999 Y22.27001 ( rapid move to begin. )
G01 F100.00000
( Mill infeed pass 1/1 )
G01 Z-0.20000
G04 P0 ( dwell for no time -- G64 should not smooth over this point )
G01 F200.00000
G01 X32.39999 Y22.27001
G01 X32.39999 Y22.37001
G01 X33.26097 Y22.36744
G01 X33.34523 Y22.33602
G01 X33.41429 Y22.28436
G01 X33.46600 Y22.21530
G01 X33.49740 Y22.13105
G01 X33.49996 Y22.02005
G01 X33.39999 Y22.02005
G01 X33.39615 Y22.10902
G01 X33.38477 Y22.14654
G01 X33.36628 Y22.18113
G01 X33.34142 Y22.21144
G01 X33.31111 Y22.23630
G01 X33.27652 Y22.25482
G01 X33.23900 Y22.26617
G01 X33.19999 Y22.27001
G01 X32.39999 Y22.27001
G04 P0 ( dwell for no time -- G64 should not smooth over this point )
G00 Z5.00000 ( retract )

G00 X30.39999 Y21.03290 ( rapid move to begin. )
G01 F100.00000
( Mill infeed pass 1/1 )
G01 Z-0.20000
G04 P0 ( dwell for no time -- G64 should not smooth over this point )
G01 F200.00000
G01 X30.39999 Y21.03290
G01 X30.40256 Y21.00903
G01 X30.43398 Y20.92477
G01 X30.48567 Y20.85571
G01 X30.55473 Y20.80402
G01 X30.63896 Y20.77260
G01 X31.49997 Y20.77004
G01 X31.49997 Y20.87004
G01 X30.69999 Y20.87004
G01 X30.66098 Y20.87385
G01 X30.62346 Y20.88523
G01 X30.58887 Y20.90372
G01 X30.55857 Y20.92858
G01 X30.53370 Y20.95889
G01 X30.51521 Y20.99351
G01 X30.50383 Y21.03100
G01 X30.49999 Y21.12005
G01 X30.39999 Y21.12005
G01 X30.39999 Y21.03290
G04 P0 ( dwell for no time -- G64 should not smooth over this point )
G00 Z5.00000 ( retract )

G00 X30.39999 Y22.02005 ( rapid move to begin. )
G01 F100.00000
( Mill infeed pass 1/1 )
G01 Z-0.20000
G04 P0 ( dwell for no time -- G64 should not smooth over this point )
G01 F200.00000
G01 X30.39999 Y22.02005
G01 X30.49999 Y22.02005
G01 X30.50383 Y22.10902
G01 X30.51521 Y22.14654
G01 X30.53370 Y22.18113
G01 X30.55857 Y22.21144
G01 X30.58887 Y22.23630
G01 X30.62346 Y22.25482
G01 X30.66098 Y22.26617
G01 X30.69999 Y22.27001
G01 X31.49997 Y22.27001
G01 X31.49997 Y22.37001
G01 X30.63896 Y22.36744
G01 X30.55473 Y22.33602
G01 X30.48567 Y22.28436
G01 X30.43398 Y22.21530
G01 X30.40256 Y22.13105
G01 X30.39999 Y22.02005
G04 P0 ( dwell for no time -- G64 should not smooth over this point )
G00 Z5.00000 ( retract )

G00 X27.17351 Y23.52502 ( rapid move to begin. )
G01 F100.00000
( Mill infeed pass 1/1 )
G01 Z-0.20000
G04 P0 ( dwell for no time -- G64 should not smooth over this point )
G01 F200.00000
G01 X27.17351 Y23.52502
G01 X27.17351 Y24.77503
G01 X27.17917 Y24.83503
G01 X27.18824 Y24.87630
G01 X27.23015 Y24.96101
G01 X27.28738 Y25.02319
G01 X27.32964 Y25.05390
G01 X27.39848 Y25.08743
G01 X27.45791 Y25.09865
G01 X28.29987 Y25.10147
G01 X28.33012 Y25.10038
G01 X28.40147 Y25.08743
G01 X28.47028 Y25.05390
G01 X28.51257 Y25.02319
G01 X28.56571 Y24.96810
G01 X28.59474 Y24.91509
G01 X28.61171 Y24.87630
G01 X28.61783 Y24.85085
G01 X28.63297 Y24.69878
G01 X28.64343 Y24.65522
G01 X28.66266 Y24.60371
G01 X28.73502 Y24.57910
G01 X28.80490 Y24.56906
G01 X30.48816 Y24.56828
G01 X30.53873 Y24.57348
G01 X30.60060 Y24.59040
G01 X30.62623 Y24.63841
G01 X30.64538 Y24.66459
G01 X30.67045 Y24.68133
G01 X30.69999 Y24.68646
G01 X33.20751 Y24.68629
G01 X33.22950 Y24.68133
G01 X33.25455 Y24.66462
G01 X33.27129 Y24.63955
G01 X33.27624 Y24.61753
G01 X33.27624 Y23.60252
G01 X33.27129 Y23.58050
G01 X33.25455 Y23.55545
G01 X33.22950 Y23.53871
G01 X33.20748 Y23.53376
G01 X30.69247 Y23.53376
G01 X30.67045 Y23.53871
G01 X30.64538 Y23.55545
G01 X30.62997 Y23.57643
G01 X30.60228 Y23.63132
G01 X30.56431 Y23.64095
G01 X30.47243 Y23.65256
G01 X28.82192 Y23.65256
G01 X28.77800 Y23.64994
G01 X28.74363 Y23.64387
G01 X28.65964 Y23.61936
G01 X28.64419 Y23.57501
G01 X28.61171 Y23.42375
G01 X28.56571 Y23.33196
G01 X28.52425 Y23.28794
G01 X28.49263 Y23.25985
G01 X28.40147 Y23.21263
G01 X28.32560 Y23.19927
G01 X27.47435 Y23.19927
G01 X27.39848 Y23.21263
G01 X27.30729 Y23.25985
G01 X27.23424 Y23.33196
G01 X27.18824 Y23.42375
G01 X27.17917 Y23.46503
G01 X27.17351 Y23.52502
G04 P0 ( dwell for no time -- G64 should not smooth over this point )
G00 Z5.00000 ( retract )

G00 X27.17351 Y26.02502 ( rapid move to begin. )
G01 F100.00000
( Mill infeed pass 1/1 )
G01 Z-0.20000
G04 P0 ( dwell for no time -- G64 should not smooth over this point )
G01 F200.00000
G01 X27.17351 Y26.02502
G01 X27.17351 Y27.27500
G01 X27.17917 Y27.33502
G01 X27.18824 Y27.37630
G01 X27.19827 Y27.40055
G01 X27.23424 Y27.46809
G01 X27.30729 Y27.54020
G01 X27.34379 Y27.56157
G01 X27.40650 Y27.58912
G01 X27.47435 Y27.60081
G01 X28.29987 Y27.60147
G01 X28.33012 Y27.60038
G01 X28.40147 Y27.58742
G01 X28.49263 Y27.54020
G01 X28.56571 Y27.46809
G01 X28.61166 Y27.37645
G01 X28.62065 Y27.33500
G01 X28.63314 Y27.23716
G01 X28.64343 Y27.19522
G01 X28.66263 Y27.14371
G01 X28.73502 Y27.11912
G01 X28.80490 Y27.10906
G01 X30.48816 Y27.10830
G01 X30.53873 Y27.11348
G01 X30.60060 Y27.13043
G01 X30.62623 Y27.17841
G01 X30.64538 Y27.20459
G01 X30.67045 Y27.22133
G01 X30.69999 Y27.22649
G01 X33.19999 Y27.22649
G01 X33.22950 Y27.22133
G01 X33.25455 Y27.20462
G01 X33.27129 Y27.17955
G01 X33.27624 Y27.15753
G01 X33.27624 Y26.14252
G01 X33.27129 Y26.12050
G01 X33.25455 Y26.09545
G01 X33.22950 Y26.07871
G01 X33.20748 Y26.07376
G01 X30.69999 Y26.07356
G01 X30.67045 Y26.07871
G01 X30.64538 Y26.09545
G01 X30.62997 Y26.11643
G01 X30.60228 Y26.17132
G01 X30.56431 Y26.18095
G01 X30.47243 Y26.19258
G01 X28.81046 Y26.19169
G01 X28.75773 Y26.18603
G01 X28.71417 Y26.17556
G01 X28.66266 Y26.15634
G01 X28.63833 Y26.08583
G01 X28.61166 Y25.92360
G01 X28.56571 Y25.83195
G01 X28.52428 Y25.78796
G01 X28.49263 Y25.75984
G01 X28.40147 Y25.71262
G01 X28.33012 Y25.69967
G01 X28.29987 Y25.69858
G01 X27.47432 Y25.69926
G01 X27.39848 Y25.71262
G01 X27.30729 Y25.75984
G01 X27.23424 Y25.83195
G01 X27.18824 Y25.92375
G01 X27.17917 Y25.96502
G01 X27.17351 Y26.02502
G04 P0 ( dwell for no time -- G64 should not smooth over this point )
G00 Z5.00000 ( retract )

G00 X20.94853 Y26.02502 ( rapid move to begin. )
G01 F100.00000
( Mill infeed pass 1/1 )
G01 Z-0.20000
G04 P0 ( dwell for no time -- G64 should not smooth over this point )
G01 F200.00000
G01 X20.94853 Y26.02502
G01 X20.94853 Y27.27500
G01 X20.95419 Y27.33502
G01 X20.96323 Y27.37632
G01 X21.00923 Y27.46809
G01 X21.08231 Y27.54020
G01 X21.17347 Y27.58742
G01 X21.24936 Y27.60081
G01 X22.22561 Y27.60081
G01 X22.30148 Y27.58742
G01 X22.39264 Y27.54020
G01 X22.46572 Y27.46809
G01 X22.51167 Y27.37645
G01 X22.52066 Y27.33500
G01 X22.53316 Y27.23716
G01 X22.54344 Y27.19522
G01 X22.56265 Y27.14371
G01 X22.63504 Y27.11912
G01 X22.72686 Y27.10749
G01 X23.87308 Y27.10749
G01 X23.94222 Y27.11404
G01 X23.98576 Y27.12451
G01 X24.03732 Y27.14371
G01 X24.04568 Y27.16205
G01 X24.06163 Y27.21422
G01 X24.08830 Y27.37645
G01 X24.13425 Y27.46809
G01 X24.18738 Y27.52319
G01 X24.22967 Y27.55392
G01 X24.29848 Y27.58742
G01 X24.37435 Y27.60086
G01 X25.19995 Y27.60149
G01 X25.23013 Y27.60038
G01 X25.29345 Y27.58912
G01 X25.37031 Y27.55389
G01 X25.39264 Y27.54020
G01 X25.42424 Y27.51214
G01 X25.46571 Y27.46809
G01 X25.51171 Y27.37630
G01 X25.52078 Y27.33502
G01 X25.52642 Y27.27500
G01 X25.52530 Y25.99941
G01 X25.51171 Y25.92375
G01 X25.46571 Y25.83195
G01 X25.39264 Y25.75984
G01 X25.30148 Y25.71262
G01 X25.22563 Y25.69926
G01 X24.37433 Y25.69926
G01 X24.29846 Y25.71262
G01 X24.20730 Y25.75984
G01 X24.13425 Y25.83195
G01 X24.08830 Y25.92360
G01 X24.07928 Y25.96505
G01 X24.06681 Y26.06289
G01 X24.05650 Y26.10488
G01 X24.03729 Y26.15634
G01 X23.96493 Y26.18095
G01 X23.87308 Y26.19258
G01 X22.72686 Y26.19258
G01 X22.65772 Y26.18603
G01 X22.61416 Y26.17556
G01 X22.56265 Y26.15636
G01 X22.55426 Y26.13800
G01 X22.53834 Y26.08583
G01 X22.51167 Y25.92360
G01 X22.46572 Y25.83195
G01 X22.41256 Y25.77683
G01 X22.37027 Y25.74613
G01 X22.30148 Y25.71262
G01 X22.22561 Y25.69919
G01 X21.27098 Y25.69863
G01 X21.24482 Y25.69967
G01 X21.17347 Y25.71262
G01 X21.08231 Y25.75984
G01 X21.00923 Y25.83195
G01 X20.96323 Y25.92372
G01 X20.95419 Y25.96502
G01 X20.94853 Y26.02502
G04 P0 ( dwell for no time -- G64 should not smooth over this point )
G00 Z5.00000 ( retract )

G00 X19.21249 Y27.72501 ( rapid move to begin. )
G01 F100.00000
( Mill infeed pass 1/1 )
G01 Z-0.20000
G04 P0 ( dwell for no time -- G64 should not smooth over this point )
G01 F200.00000
G01 X19.21249 Y27.72501
G01 X19.21249 Y27.82501
G01 X19.26476 Y27.82501
G01 X19.33558 Y27.81780
G01 X19.45899 Y27.77691
G01 X19.56842 Y27.70939
G01 X19.65935 Y27.61849
G01 X19.72681 Y27.50906
G01 X19.76773 Y27.38559
G01 X19.77497 Y27.31480
G01 X19.77497 Y27.10005
G01 X19.67500 Y27.10005
G01 X19.67390 Y27.29591
G01 X19.65973 Y27.38879
G01 X19.62658 Y27.47670
G01 X19.58904 Y27.53952
G01 X19.54091 Y27.59464
G01 X19.50982 Y27.62260
G01 X19.44998 Y27.66471
G01 X19.38358 Y27.69547
G01 X19.29270 Y27.71927
G01 X19.21249 Y27.72501
G04 P0 ( dwell for no time -- G64 should not smooth over this point )
G00 Z5.00000 ( retract )

G00 X17.74998 Y27.10005 ( rapid move to begin. )
G01 F100.00000
( Mill infeed pass 1/1 )
G01 Z-0.20000
G04 P0 ( dwell for no time -- G64 should not smooth over this point )
G01 F200.00000
G01 X17.74998 Y27.10005
G01 X17.74998 Y27.31480
G01 X17.75719 Y27.38559
G01 X17.79811 Y27.50904
G01 X17.86560 Y27.61849
G01 X17.95653 Y27.70939
G01 X18.06596 Y27.77691
G01 X18.18938 Y27.81780
G01 X18.26019 Y27.82501
G01 X18.31246 Y27.82501
G01 X18.31246 Y27.72501
G01 X18.26339 Y27.72336
G01 X18.18115 Y27.70840
G01 X18.09364 Y27.67424
G01 X18.05742 Y27.65331
G01 X17.99888 Y27.60942
G01 X17.93593 Y27.53952
G01 X17.88889 Y27.45804
G01 X17.85981 Y27.36858
G01 X17.84998 Y27.27500
G01 X17.84998 Y27.10005
G01 X17.74998 Y27.10005
G04 P0 ( dwell for no time -- G64 should not smooth over this point )
G00 Z5.00000 ( retract )

G00 X20.94853 Y23.52502 ( rapid move to begin. )
G01 F100.00000
( Mill infeed pass 1/1 )
G01 Z-0.20000
G04 P0 ( dwell for no time -- G64 should not smooth over this point )
G01 F200.00000
G01 X20.94853 Y23.52502
G01 X20.94853 Y24.77503
G01 X20.95419 Y24.83503
G01 X20.96323 Y24.87633
G01 X21.00923 Y24.96810
G01 X21.08231 Y25.04021
G01 X21.17347 Y25.08743
G01 X21.24934 Y25.10079
G01 X22.22564 Y25.10079
G01 X22.30148 Y25.08743
G01 X22.39264 Y25.04021
G01 X22.46572 Y24.96810
G01 X22.51167 Y24.87646
G01 X22.52066 Y24.83500
G01 X22.53316 Y24.73714
G01 X22.54344 Y24.69518
G01 X22.56267 Y24.64372
G01 X22.63501 Y24.61910
G01 X22.72686 Y24.60747
G01 X23.87308 Y24.60747
G01 X23.94222 Y24.61402
G01 X23.98578 Y24.62449
G01 X24.03729 Y24.64372
G01 X24.04568 Y24.66205
G01 X24.06163 Y24.71423
G01 X24.08830 Y24.87646
G01 X24.13425 Y24.96810
G01 X24.18738 Y25.02319
G01 X24.22967 Y25.05393
G01 X24.29848 Y25.08743
G01 X24.37433 Y25.10086
G01 X25.20397 Y25.10142
G01 X25.29345 Y25.08913
G01 X25.37031 Y25.05390
G01 X25.39264 Y25.04021
G01 X25.42424 Y25.01212
G01 X25.46571 Y24.96810
G01 X25.51171 Y24.87630
G01 X25.52078 Y24.83503
G01 X25.52642 Y24.77503
G01 X25.52530 Y23.49942
G01 X25.51171 Y23.42375
G01 X25.46571 Y23.33196
G01 X25.39264 Y23.25985
G01 X25.30148 Y23.21263
G01 X25.22561 Y23.19924
G01 X24.37435 Y23.19924
G01 X24.29846 Y23.21263
G01 X24.20730 Y23.25985
G01 X24.13425 Y23.33196
G01 X24.08830 Y23.42360
G01 X24.07928 Y23.46505
G01 X24.06681 Y23.56289
G01 X24.05652 Y23.60483
G01 X24.03729 Y23.65634
G01 X23.96493 Y23.68095
G01 X23.89505 Y23.69099
G01 X22.72686 Y23.69256
G01 X22.65772 Y23.68603
G01 X22.61416 Y23.67557
G01 X22.56265 Y23.65637
G01 X22.55426 Y23.63800
G01 X22.53834 Y23.58583
G01 X22.51167 Y23.42360
G01 X22.46572 Y23.33196
G01 X22.41256 Y23.27684
G01 X22.37027 Y23.24613
G01 X22.30148 Y23.21263
G01 X22.22559 Y23.19919
G01 X21.27499 Y23.19856
G01 X21.24482 Y23.19967
G01 X21.17347 Y23.21263
G01 X21.08231 Y23.25985
G01 X21.00923 Y23.33196
G01 X20.96323 Y23.42373
G01 X20.95419 Y23.46503
G01 X20.94853 Y23.52502
G04 P0 ( dwell for no time -- G64 should not smooth over this point )
G00 Z5.00000 ( retract )

G00 X19.21249 Y22.97504 ( rapid move to begin. )
G01 F100.00000
( Mill infeed pass 1/1 )
G01 Z-0.20000
G04 P0 ( dwell for no time -- G64 should not smooth over this point )
G01 F200.00000
G01 X19.21249 Y22.97504
G01 X19.21249 Y23.07501
G01 X19.26159 Y23.07666
G01 X19.34383 Y23.09162
G01 X19.43133 Y23.12579
G01 X19.46755 Y23.14672
G01 X19.52610 Y23.19061
G01 X19.58904 Y23.26051
G01 X19.63608 Y23.34199
G01 X19.66517 Y23.43145
G01 X19.67500 Y23.52502
G01 X19.67500 Y23.70000
G01 X19.77497 Y23.70000
G01 X19.77497 Y23.48525
G01 X19.76773 Y23.41446
G01 X19.72681 Y23.29099
G01 X19.65935 Y23.18156
G01 X19.56842 Y23.09066
G01 X19.45899 Y23.02314
G01 X19.33558 Y22.98225
G01 X19.26476 Y22.97504
G01 X19.21249 Y22.97504
G04 P0 ( dwell for no time -- G64 should not smooth over this point )
G00 Z5.00000 ( retract )

G00 X19.21249 Y25.22502 ( rapid move to begin. )
G01 F100.00000
( Mill infeed pass 1/1 )
G01 Z-0.20000
G04 P0 ( dwell for no time -- G64 should not smooth over this point )
G01 F200.00000
G01 X19.21249 Y25.22502
G01 X19.29270 Y25.21928
G01 X19.38358 Y25.19548
G01 X19.44998 Y25.16472
G01 X19.50982 Y25.12261
G01 X19.54091 Y25.09462
G01 X19.58904 Y25.03952
G01 X19.62658 Y24.97668
G01 X19.65973 Y24.88880
G01 X19.67390 Y24.79591
G01 X19.67500 Y24.60003
G01 X19.77497 Y24.60003
G01 X19.77497 Y24.81481
G01 X19.76773 Y24.88560
G01 X19.72681 Y25.00907
G01 X19.65935 Y25.11847
G01 X19.58820 Y25.19248
G01 X19.53928 Y25.27785
G01 X19.52432 Y25.31280
G01 X19.51625 Y25.34994
G01 X19.51533 Y25.38794
G01 X19.52031 Y25.45763
G01 X19.52544 Y25.49050
G01 X19.53596 Y25.52210
G01 X19.59260 Y25.61323
G01 X19.65935 Y25.68158
G01 X19.72681 Y25.79098
G01 X19.76773 Y25.91445
G01 X19.77497 Y25.98524
G01 X19.77497 Y26.20002
G01 X19.67500 Y26.20002
G01 X19.67390 Y26.00411
G01 X19.65973 Y25.91123
G01 X19.62658 Y25.82334
G01 X19.58904 Y25.76050
G01 X19.54091 Y25.70541
G01 X19.50982 Y25.67742
G01 X19.44998 Y25.63531
G01 X19.38358 Y25.60455
G01 X19.29270 Y25.58075
G01 X19.21249 Y25.57501
G01 X19.21249 Y25.22502
G04 P0 ( dwell for no time -- G64 should not smooth over this point )
G00 Z5.00000 ( retract )

G00 X17.74998 Y24.60003 ( rapid move to begin. )
G01 F100.00000
( Mill infeed pass 1/1 )
G01 Z-0.20000
G04 P0 ( dwell for no time -- G64 should not smooth over this point )
G01 F200.00000
G01 X17.74998 Y24.60003
G01 X17.84998 Y24.60003
G01 X17.85107 Y24.79591
G01 X17.86525 Y24.88880
G01 X17.89839 Y24.97668
G01 X17.93593 Y25.03952
G01 X17.98407 Y25.09462
G01 X18.01516 Y25.12261
G01 X18.07500 Y25.16472
G01 X18.14139 Y25.19548
G01 X18.23228 Y25.21928
G01 X18.31246 Y25.22502
G01 X18.31246 Y25.57501
G01 X18.26339 Y25.57666
G01 X18.18115 Y25.59162
G01 X18.09364 Y25.62581
G01 X18.05742 Y25.64671
G01 X17.99888 Y25.69060
G01 X17.93593 Y25.76050
G01 X17.88889 Y25.84199
G01 X17.85981 Y25.93144
G01 X17.84998 Y26.02502
G01 X17.84998 Y26.20002
G01 X17.74998 Y26.20002
G01 X17.74998 Y25.98524
G01 X17.75719 Y25.91445
G01 X17.79811 Y25.79101
G01 X17.86560 Y25.68158
G01 X17.93675 Y25.60757
G01 X17.98567 Y25.52220
G01 X18.00063 Y25.48725
G01 X18.00871 Y25.45011
G01 X18.00962 Y25.41212
G01 X18.00464 Y25.34242
G01 X17.99951 Y25.30955
G01 X17.98899 Y25.27795
G01 X17.93235 Y25.18682
G01 X17.86560 Y25.11847
G01 X17.79811 Y25.00904
G01 X17.75719 Y24.88560
G01 X17.74998 Y24.81481
G01 X17.74998 Y24.60003
G04 P0 ( dwell for no time -- G64 should not smooth over this point )
G00 Z5.00000 ( retract )

G00 X17.74998 Y23.48525 ( rapid move to begin. )
G01 F100.00000
( Mill infeed pass 1/1 )
G01 Z-0.20000
G04 P0 ( dwell for no time -- G64 should not smooth over this point )
G01 F200.00000
G01 X17.74998 Y23.48525
G01 X17.75719 Y23.41446
G01 X17.79811 Y23.29101
G01 X17.86560 Y23.18156
G01 X17.95653 Y23.09066
G01 X18.06596 Y23.02314
G01 X18.18938 Y22.98225
G01 X18.26019 Y22.97504
G01 X18.31246 Y22.97504
G01 X18.31246 Y23.07501
G01 X18.26339 Y23.07666
G01 X18.18115 Y23.09162
G01 X18.14139 Y23.10455
G01 X18.07500 Y23.13531
G01 X17.99888 Y23.19061
G01 X17.94912 Y23.24425
G01 X17.92453 Y23.27806
G01 X17.88889 Y23.34199
G01 X17.85981 Y23.43145
G01 X17.84998 Y23.52502
G01 X17.84998 Y23.70000
G01 X17.74998 Y23.70000
G01 X17.74998 Y23.48525
G04 P0 ( dwell for no time -- G64 should not smooth over this point )
G00 Z5.00000 ( retract )

G00 X2.04999 Y13.85171 ( rapid move to begin. )
G01 F100.00000
( Mill infeed pass 1/1 )
G01 Z-0.20000
G04 P0 ( dwell for no time -- G64 should not smooth over this point )
G01 F200.00000
G01 X2.04999 Y13.85171
G01 X2.07292 Y13.62278
G01 X2.14407 Y13.40388
G01 X2.25916 Y13.20452
G01 X2.41318 Y13.03345
G01 X2.59944 Y12.89815
G01 X2.80970 Y12.80452
G01 X3.03487 Y12.75664
G01 X3.26507 Y12.75664
G01 X3.49024 Y12.80452
G01 X3.70053 Y12.89815
G01 X3.88676 Y13.03345
G01 X4.04079 Y13.20452
G01 X4.15588 Y13.40388
G01 X4.22702 Y13.62278
G01 X4.25107 Y13.85171
G01 X4.22702 Y14.08067
G01 X4.15588 Y14.29959
G01 X4.04079 Y14.49896
G01 X3.88676 Y14.67002
G01 X3.70053 Y14.80530
G01 X3.49024 Y14.89895
G01 X3.26507 Y14.94681
G01 X3.03487 Y14.94681
G01 X2.80970 Y14.89895
G01 X2.59944 Y14.80530
G01 X2.41318 Y14.67002
G01 X2.25916 Y14.49896
G01 X2.14407 Y14.29959
G01 X2.07292 Y14.08067
G01 X2.04999 Y13.85171
G01 X1.94054 Y13.85174
G01 X1.95705 Y13.65268
G01 X2.00607 Y13.45903
G01 X2.08631 Y13.27610
G01 X2.19555 Y13.10891
G01 X2.33086 Y12.96192
G01 X2.48847 Y12.83924
G01 X2.66413 Y12.74417
G01 X2.85306 Y12.67932
G01 X3.05011 Y12.64643
G01 X3.24986 Y12.64643
G01 X3.44689 Y12.67932
G01 X3.63581 Y12.74417
G01 X3.81148 Y12.83924
G01 X3.96908 Y12.96192
G01 X4.10439 Y13.10889
G01 X4.21364 Y13.27610
G01 X4.29387 Y13.45903
G01 X4.34290 Y13.65268
G01 X4.35941 Y13.85174
G01 X4.34290 Y14.05080
G01 X4.29387 Y14.24442
G01 X4.21364 Y14.42735
G01 X4.10436 Y14.59459
G01 X3.96908 Y14.74155
G01 X3.81148 Y14.86423
G01 X3.63579 Y14.95930
G01 X3.44689 Y15.02415
G01 X3.24986 Y15.05702
G01 X3.05011 Y15.05702
G01 X2.85306 Y15.02415
G01 X2.66413 Y14.95930
G01 X2.48847 Y14.86423
G01 X2.33086 Y14.74155
G01 X2.19558 Y14.59459
G01 X2.08631 Y14.42735
G01 X2.00607 Y14.24442
G01 X1.95705 Y14.05080
G01 X1.94054 Y13.85174
G04 P0 ( dwell for no time -- G64 should not smooth over this point )
G00 Z5.00000 ( retract )

G00 X19.94053 Y3.45943 ( rapid move to begin. )
G01 F100.00000
( Mill infeed pass 1/1 )
G01 Z-0.20000
G04 P0 ( dwell for no time -- G64 should not smooth over this point )
G01 F200.00000
G01 X19.94053 Y3.45943
G01 X19.95704 Y3.65849
G01 X20.00606 Y3.85214
G01 X20.08630 Y4.03504
G01 X20.19557 Y4.20228
G01 X20.33085 Y4.34924
G01 X20.48848 Y4.47192
G01 X20.66415 Y4.56700
G01 X20.85307 Y4.63184
G01 X21.05010 Y4.66471
G01 X21.24985 Y4.66471
G01 X21.44687 Y4.63184
G01 X21.63580 Y4.56700
G01 X21.81147 Y4.47192
G01 X21.96907 Y4.34924
G01 X22.10438 Y4.20228
G01 X22.21365 Y4.03504
G01 X22.29389 Y3.85214
G01 X22.34291 Y3.65849
G01 X22.35942 Y3.45943
G01 X22.34291 Y3.26037
G01 X22.29389 Y3.06672
G01 X22.21365 Y2.88381
G01 X22.10438 Y2.71658
G01 X21.96910 Y2.56962
G01 X21.81147 Y2.44693
G01 X21.63580 Y2.35186
G01 X21.44687 Y2.28702
G01 X21.24985 Y2.25415
G01 X21.05010 Y2.25415
G01 X20.85307 Y2.28702
G01 X20.66415 Y2.35186
G01 X20.48848 Y2.44693
G01 X20.33085 Y2.56962
G01 X20.19557 Y2.71658
G01 X20.08630 Y2.88381
G01 X20.00606 Y3.06672
G01 X19.95704 Y3.26037
G01 X19.94053 Y3.45943
G01 X20.04998 Y3.45940
G01 X20.07294 Y3.68836
G01 X20.14408 Y3.90728
G01 X20.25915 Y4.10665
G01 X20.41317 Y4.27772
G01 X20.59943 Y4.41300
G01 X20.80972 Y4.50665
G01 X21.03489 Y4.55450
G01 X21.26506 Y4.55450
G01 X21.49023 Y4.50665
G01 X21.70052 Y4.41300
G01 X21.88678 Y4.27772
G01 X22.04080 Y4.10665
G01 X22.15589 Y3.90728
G01 X22.22701 Y3.68836
G01 X22.25109 Y3.45940
G01 X22.22701 Y3.23047
G01 X22.15589 Y3.01158
G01 X22.04080 Y2.81221
G01 X21.88678 Y2.64114
G01 X21.70052 Y2.50584
G01 X21.49023 Y2.41221
G01 X21.26506 Y2.36436
G01 X21.03489 Y2.36436
G01 X20.80972 Y2.41221
G01 X20.59943 Y2.50584
G01 X20.41317 Y2.64114
G01 X20.25915 Y2.81221
G01 X20.14408 Y3.01158
G01 X20.07294 Y3.23047
G01 X20.04998 Y3.45940

G04 P0 ( dwell for no time -- G64 should not smooth over this point )
G00 Z10.000000 ( retract )

M5 ( Spindle off. )
G04 P1.000000
M9 ( Coolant off. )
M2 ( Program end. )

