( pcb2gcode 2.5.0 )
( Software-independent Gcode )

G94 ( Millimeters per minute feed rate. )
G21 ( Units == Millimeters. )

G90 ( Absolute coordinates. )
G00 S10000 ( RPM spindle speed. )
G64 P0.01016 ( set maximum deviation from commanded toolpath )
G01 F200.00000 ( Feedrate. )


G00 Z10.00000 (Retract to tool change height)
T0
M5      (Spindle stop.)
G04 P1.00000 (Wait for spindle to stop)
(MSG, Change tool bit to mill diameter 0.60000mm)
M6      (Tool change.)
M0      (Temporary machine stop.)
M3 ( Spindle on clockwise. )
G04 P1.00000 (Wait for spindle to get up to speed)
G04 P0 ( dwell for no time -- G64 should not smooth over this point )
G00 Z5.00000 ( retract )

G00 X1.74089 Y13.55174 ( rapid move to begin. )
G01 F100.00000
( Mill infeed pass 1/1 )
G01 Z-0.10000
G04 P0 ( dwell for no time -- G64 should not smooth over this point )
G01 F200.00000
G01 X1.74089 Y13.55174
G01 X1.75601 Y13.36919
G01 X1.80099 Y13.19162
G01 X1.87457 Y13.02385
G01 X1.97475 Y12.87054
G01 X2.09883 Y12.73576
G01 X2.24336 Y12.62324
G01 X2.40447 Y12.53607
G01 X2.57770 Y12.47658
G01 X2.75842 Y12.44643
G01 X2.94155 Y12.44643
G01 X3.12222 Y12.47658
G01 X3.29548 Y12.53607
G01 X3.45659 Y12.62324
G01 X3.60111 Y12.73576
G01 X3.72519 Y12.87051
G01 X3.82540 Y13.02387
G01 X3.89895 Y13.19159
G01 X3.94394 Y13.36916
G01 X3.95905 Y13.55174
G01 X3.94394 Y13.73429
G01 X3.89895 Y13.91183
G01 X3.82540 Y14.07958
G01 X3.72519 Y14.23297
G01 X3.60111 Y14.36774
G01 X3.45659 Y14.48023
G01 X3.29548 Y14.56741
G01 X3.12225 Y14.62689
G01 X2.94160 Y14.65702
G01 X2.75837 Y14.65702
G01 X2.57767 Y14.62687
G01 X2.40444 Y14.56741
G01 X2.24338 Y14.48023
G01 X2.09883 Y14.36771
G01 X1.97475 Y14.23294
G01 X1.87457 Y14.07960
G01 X1.80099 Y13.91183
G01 X1.75601 Y13.73429
G01 X1.74089 Y13.55174
G01 X1.74999 Y13.55171
G01 X1.77239 Y13.78077
G01 X1.84356 Y13.99982
G01 X1.95872 Y14.19929
G01 X2.11283 Y14.37043
G01 X2.29916 Y14.50579
G01 X2.50952 Y14.59946
G01 X2.73482 Y14.64734
G01 X2.96512 Y14.64734
G01 X3.19042 Y14.59946
G01 X3.40081 Y14.50579
G01 X3.58712 Y14.37043
G01 X3.74122 Y14.19929
G01 X3.85638 Y13.99982
G01 X3.92755 Y13.78077
G01 X3.95163 Y13.55171
G01 X3.92755 Y13.32268
G01 X3.85638 Y13.10366
G01 X3.74122 Y12.90419
G01 X3.58712 Y12.73304
G01 X3.40081 Y12.59766
G01 X3.19042 Y12.50401
G01 X2.96512 Y12.45611
G01 X2.73482 Y12.45611
G01 X2.50952 Y12.50401
G01 X2.29916 Y12.59766
G01 X2.11283 Y12.73304
G01 X1.95872 Y12.90419
G01 X1.84356 Y13.10366
G01 X1.77239 Y13.32268
G01 X1.74999 Y13.55171
G04 P0 ( dwell for no time -- G64 should not smooth over this point )
G00 Z5.00000 ( retract )

G00 X19.74088 Y3.15943 ( rapid move to begin. )
G01 F100.00000
( Mill infeed pass 1/1 )
G01 Z-0.10000
G04 P0 ( dwell for no time -- G64 should not smooth over this point )
G01 F200.00000
G01 X19.74088 Y3.15943
G01 X19.75600 Y2.97685
G01 X19.80098 Y2.79928
G01 X19.87454 Y2.63159
G01 X19.97474 Y2.47823
G01 X20.09879 Y2.34345
G01 X20.24337 Y2.23093
G01 X20.40446 Y2.14376
G01 X20.57769 Y2.08430
G01 X20.75841 Y2.05415
G01 X20.94154 Y2.05415
G01 X21.12226 Y2.08430
G01 X21.29549 Y2.14376
G01 X21.45658 Y2.23093
G01 X21.60113 Y2.34343
G01 X21.72521 Y2.47823
G01 X21.82541 Y2.63159
G01 X21.89897 Y2.79931
G01 X21.94395 Y2.97688
G01 X21.95907 Y3.15943
G01 X21.94395 Y3.34198
G01 X21.89897 Y3.51955
G01 X21.82541 Y3.68727
G01 X21.72518 Y3.84066
G01 X21.60113 Y3.97540
G01 X21.45660 Y4.08793
G01 X21.29549 Y4.17510
G01 X21.12226 Y4.23456
G01 X20.94154 Y4.26471
G01 X20.75841 Y4.26471
G01 X20.57769 Y4.23456
G01 X20.40446 Y4.17510
G01 X20.24337 Y4.08793
G01 X20.09879 Y3.97540
G01 X19.97474 Y3.84063
G01 X19.87454 Y3.68727
G01 X19.80098 Y3.51958
G01 X19.75600 Y3.34200
G01 X19.74088 Y3.15943
G01 X19.74998 Y3.15940
G01 X19.77240 Y3.38846
G01 X19.84358 Y3.60751
G01 X19.95871 Y3.80698
G01 X20.11282 Y3.97812
G01 X20.29915 Y4.11348
G01 X20.50954 Y4.20715
G01 X20.73484 Y4.25503
G01 X20.96511 Y4.25503
G01 X21.19041 Y4.20715
G01 X21.40080 Y4.11348
G01 X21.58713 Y3.97812
G01 X21.74123 Y3.80698
G01 X21.85640 Y3.60751
G01 X21.92754 Y3.38846
G01 X21.95165 Y3.15940
G01 X21.92754 Y2.93037
G01 X21.85640 Y2.71135
G01 X21.74123 Y2.51188
G01 X21.58713 Y2.34074
G01 X21.40080 Y2.20535
G01 X21.19041 Y2.11170
G01 X20.96511 Y2.06383
G01 X20.73484 Y2.06383
G01 X20.50954 Y2.11170
G01 X20.29915 Y2.20535
G01 X20.11282 Y2.34074
G01 X19.95871 Y2.51188
G01 X19.84358 Y2.71135
G01 X19.77240 Y2.93037
G01 X19.74998 Y3.15940
G04 P0 ( dwell for no time -- G64 should not smooth over this point )
G00 Z5.00000 ( retract )

G00 X37.74090 Y13.55174 ( rapid move to begin. )
G01 F100.00000
( Mill infeed pass 1/1 )
G01 Z-0.10000
G04 P0 ( dwell for no time -- G64 should not smooth over this point )
G01 F200.00000
G01 X37.74090 Y13.55174
G01 X37.75601 Y13.36919
G01 X37.80099 Y13.19162
G01 X37.87455 Y13.02387
G01 X37.97473 Y12.87056
G01 X38.09883 Y12.73576
G01 X38.24336 Y12.62324
G01 X38.40447 Y12.53607
G01 X38.57773 Y12.47658
G01 X38.75840 Y12.44643
G01 X38.94153 Y12.44643
G01 X39.12220 Y12.47658
G01 X39.29550 Y12.53607
G01 X39.45659 Y12.62324
G01 X39.60114 Y12.73576
G01 X39.72520 Y12.87051
G01 X39.82540 Y13.02387
G01 X39.89896 Y13.19162
G01 X39.94394 Y13.36919
G01 X39.95905 Y13.55174
G01 X39.94394 Y13.73429
G01 X39.89896 Y13.91183
G01 X39.82540 Y14.07958
G01 X39.72520 Y14.23294
G01 X39.60112 Y14.36771
G01 X39.45659 Y14.48023
G01 X39.29548 Y14.56741
G01 X39.12228 Y14.62687
G01 X38.94158 Y14.65702
G01 X38.75835 Y14.65702
G01 X38.57770 Y14.62689
G01 X38.40445 Y14.56741
G01 X38.24336 Y14.48023
G01 X38.09883 Y14.36771
G01 X37.97476 Y14.23294
G01 X37.87455 Y14.07958
G01 X37.80099 Y13.91183
G01 X37.75601 Y13.73426
G01 X37.74090 Y13.55174
G01 X37.74999 Y13.55171
G01 X37.77239 Y13.78077
G01 X37.84356 Y13.99982
G01 X37.95873 Y14.19929
G01 X38.11283 Y14.37043
G01 X38.29914 Y14.50579
G01 X38.50953 Y14.59946
G01 X38.73483 Y14.64734
G01 X38.96513 Y14.64734
G01 X39.19043 Y14.59946
G01 X39.40079 Y14.50579
G01 X39.58712 Y14.37043
G01 X39.74122 Y14.19929
G01 X39.85639 Y13.99982
G01 X39.92756 Y13.78077
G01 X39.95164 Y13.55171
G01 X39.92756 Y13.32268
G01 X39.85639 Y13.10366
G01 X39.74122 Y12.90419
G01 X39.58712 Y12.73304
G01 X39.40079 Y12.59766
G01 X39.19043 Y12.50401
G01 X38.96513 Y12.45611
G01 X38.73483 Y12.45611
G01 X38.50953 Y12.50401
G01 X38.29914 Y12.59766
G01 X38.11283 Y12.73304
G01 X37.95873 Y12.90419
G01 X37.84356 Y13.10366
G01 X37.77239 Y13.32268
G01 X37.74999 Y13.55171
G04 P0 ( dwell for no time -- G64 should not smooth over this point )
G00 Z5.00000 ( retract )

G00 X40.84996 Y20.51370 ( rapid move to begin. )
G01 F100.00000
( Mill infeed pass 1/1 )
G01 Z-0.10000
G04 P0 ( dwell for no time -- G64 should not smooth over this point )
G01 F200.00000
G01 X40.84996 Y20.51370
G01 X41.26601 Y20.42317
G01 X41.33304 Y20.40349
G01 X41.86258 Y20.19145
G01 X42.34244 Y19.88302
G01 X42.75521 Y19.48934
G01 X42.80096 Y19.43656
G01 X43.09527 Y19.03339
G01 X43.31866 Y18.58698
G01 X43.46494 Y18.10972
G01 X43.50987 Y17.85003
G01 X43.20639 Y17.85003
G01 X43.17180 Y18.04596
G01 X43.04015 Y18.47550
G01 X42.83911 Y18.87725
G01 X42.57421 Y19.24012
G01 X42.52847 Y19.29292
G01 X42.15697 Y19.64723
G01 X41.72509 Y19.92483
G01 X41.24851 Y20.11566
G01 X41.18148 Y20.13534
G01 X40.84996 Y20.20743
G01 X40.84996 Y19.90120
G01 X41.09695 Y19.84748
G01 X41.16398 Y19.82780
G01 X41.58760 Y19.65818
G01 X41.97150 Y19.41142
G01 X42.30172 Y19.09651
G01 X42.34747 Y19.04370
G01 X42.58293 Y18.72115
G01 X42.76164 Y18.36402
G01 X42.87866 Y17.98221
G01 X42.90291 Y17.85003
G01 X42.59946 Y17.85003
G01 X42.58552 Y17.91848
G01 X42.48310 Y18.25257
G01 X42.32674 Y18.56501
G01 X42.12072 Y18.84728
G01 X42.07498 Y18.90009
G01 X41.78603 Y19.17563
G01 X41.45014 Y19.39153
G01 X41.07945 Y19.53997
G01 X41.01242 Y19.55965
G01 X40.84998 Y19.59498
G01 X40.84998 Y19.28876
G01 X40.92789 Y19.27179
G01 X40.99492 Y19.25211
G01 X41.31265 Y19.12490
G01 X41.60055 Y18.93984
G01 X41.84820 Y18.70365
G01 X41.89395 Y18.65081
G01 X42.07056 Y18.40893
G01 X42.20459 Y18.14109
G01 X42.29339 Y17.85003
G01 X41.98112 Y17.85003
G01 X41.92606 Y18.02961
G01 X41.81437 Y18.25280
G01 X41.66720 Y18.45439
G01 X41.62146 Y18.50723
G01 X41.41508 Y18.70403
G01 X41.17516 Y18.85828
G01 X40.91039 Y18.96430
G01 X40.84998 Y18.98200
G01 X40.84996 Y18.66674
G01 X41.03767 Y18.59163
G01 X41.22961 Y18.46824
G01 X41.39471 Y18.31076
G01 X41.44046 Y18.25795
G01 X41.55819 Y18.09669
G01 X41.64754 Y17.91815
G01 X41.66842 Y17.85003
G01 X41.34732 Y17.85003
G01 X41.30200 Y17.94058
G01 X41.21371 Y18.06153
G01 X41.16797 Y18.11434
G01 X41.04414 Y18.23245
G01 X40.90018 Y18.32501
G01 X40.84998 Y18.34507
G01 X40.84996 Y18.00220
G01 X40.94122 Y17.91790
G01 X40.99797 Y17.85003
G01 X40.84998 Y17.85003
G01 X40.84996 Y21.11400
G01 X40.84996 Y20.81400
G01 X40.89040 Y20.81116
G01 X41.35054 Y20.71103
G01 X41.41757 Y20.69135
G01 X42.00007 Y20.45810
G01 X42.52791 Y20.11883
G01 X42.98196 Y19.68576
G01 X43.02770 Y19.63298
G01 X43.35145 Y19.18947
G01 X43.59720 Y18.69844
G01 X43.75811 Y18.17347
G01 X43.81335 Y17.85003
G01 X44.11683 Y17.85003
G01 X44.05125 Y18.23722
G01 X43.87571 Y18.80992
G01 X43.60764 Y19.34558
G01 X43.25445 Y19.82940
G01 X43.20871 Y19.88220
G01 X42.71338 Y20.35462
G01 X42.13756 Y20.72475
G01 X41.50210 Y20.97921
G01 X41.43507 Y20.99889
G01 X40.93309 Y21.10809
G01 X40.84996 Y21.11400
G01 X40.84996 Y22.31400
G01 X40.84998 Y22.01405
G01 X41.06119 Y21.99891
G01 X41.68867 Y21.86239
G01 X41.75570 Y21.84270
G01 X42.55001 Y21.52470
G01 X43.26979 Y21.06201
G01 X43.88897 Y20.47149
G01 X43.93471 Y20.41868
G01 X44.37619 Y19.81393
G01 X44.51495 Y19.53664
G01 X44.51495 Y20.13090
G01 X44.16146 Y20.61512
G01 X44.11571 Y20.66793
G01 X43.45526 Y21.29780
G01 X42.68750 Y21.79132
G01 X41.84023 Y22.13059
G01 X41.77320 Y22.15027
G01 X41.10391 Y22.29587
G01 X40.84996 Y22.31400
G01 X40.84996 Y23.51402
G01 X40.84998 Y22.91403
G01 X41.18930 Y22.88974
G01 X41.94226 Y22.72594
G01 X42.00929 Y22.70625
G01 X42.96248 Y22.32459
G01 X43.82620 Y21.76940
G01 X44.51495 Y21.11253
G01 X44.51495 Y20.63791
G01 X44.38820 Y20.81154
G01 X44.34246 Y20.86435
G01 X43.64073 Y21.53361
G01 X42.82499 Y22.05797
G01 X41.92476 Y22.41840
G01 X41.85773 Y22.43808
G01 X41.14661 Y22.59282
G01 X40.84998 Y22.61403
G01 X40.84996 Y23.21400
G01 X41.23200 Y23.18669
G01 X42.02679 Y23.01377
G01 X42.09382 Y22.99409
G01 X43.09997 Y22.59122
G01 X44.01168 Y22.00521
G01 X44.51498 Y21.52520
G01 X44.51498 Y18.76466
G01 X44.43276 Y19.03285
G01 X44.12001 Y19.65782
G01 X43.70797 Y20.22226
G01 X43.66222 Y20.27507
G01 X43.08432 Y20.82622
G01 X42.41254 Y21.25802
G01 X41.67117 Y21.55490
G01 X41.60414 Y21.57458
G01 X41.01849 Y21.70196
G01 X40.84998 Y21.71403
G01 X40.84998 Y21.41403
G01 X40.97579 Y21.40504
G01 X41.51961 Y21.28670
G01 X41.58664 Y21.26701
G01 X42.27505 Y20.99137
G01 X42.89885 Y20.59041
G01 X43.43548 Y20.07862
G01 X43.48122 Y20.02582
G01 X43.86382 Y19.50169
G01 X44.15425 Y18.92137
G01 X44.34439 Y18.30098
G01 X44.42031 Y17.85003
G01 X44.51498 Y17.85003
G01 X44.51495 Y21.93790
G01 X44.19715 Y22.24100
G01 X43.23746 Y22.85787
G01 X42.17835 Y23.28194
G01 X42.11132 Y23.30163
G01 X41.27470 Y23.48365
G01 X40.84996 Y23.51402
G01 X40.84996 Y26.88664
G01 X40.84996 Y26.58316
G01 X41.23716 Y26.64874
G01 X41.81044 Y26.82451
G01 X42.34660 Y27.09299
G01 X42.83075 Y27.44673
G01 X42.88353 Y27.49250
G01 X43.35531 Y27.98760
G01 X43.72496 Y28.56301
G01 X43.97911 Y29.19791
G01 X43.99880 Y29.26494
G01 X44.10802 Y29.76692
G01 X44.11396 Y29.85003
G01 X43.81394 Y29.85000
G01 X43.81107 Y29.80962
G01 X43.71096 Y29.34947
G01 X43.69128 Y29.28244
G01 X43.45829 Y28.70045
G01 X43.11945 Y28.17299
G01 X42.68699 Y27.71915
G01 X42.63421 Y27.67338
G01 X42.19039 Y27.34912
G01 X41.69893 Y27.10299
G01 X41.17340 Y26.94188
G01 X40.84996 Y26.88664
G01 X40.84996 Y29.70202
G01 X40.91808 Y29.75900
G01 X41.00216 Y29.85000
G01 X40.91808 Y29.75900
G01 X40.84996 Y29.70202
G01 X40.84998 Y35.49104
G01 X20.85000 Y47.03803
G01 X0.84999 Y35.49104
G01 X0.84999 Y12.39703
G01 X0.85527 Y12.64488
G01 X0.85741 Y12.60932
G01 X0.87750 Y12.51742
G01 X0.89421 Y12.46784
G01 X0.91928 Y12.42189
G01 X0.95197 Y12.38103
G01 X1.00020 Y12.33045
G01 X1.03185 Y12.30168
G01 X1.06729 Y12.27770
G01 X20.63799 Y0.97856
G01 X20.70339 Y0.95054
G01 X20.81078 Y0.92372
G01 X20.86311 Y0.92248
G01 X20.91485 Y0.93035
G01 X20.98274 Y0.94684
G01 X21.02348 Y0.95987
G01 X21.06196 Y0.97856
G01 X40.63266 Y12.27770
G01 X40.66243 Y12.29733
G01 X40.73198 Y12.36068
G01 X40.76655 Y12.39995
G01 X40.79377 Y12.44460
G01 X40.81282 Y12.49335
G01 X40.83251 Y12.56040
G01 X40.84160 Y12.60221
G01 X40.84468 Y12.64488
G01 X40.84468 Y17.42072
G01 X40.84295 Y17.45280
G01 X40.82662 Y17.53598
G01 X40.81199 Y17.58373
G01 X40.78963 Y17.62836
G01 X40.71448 Y17.72148
G01 X40.67320 Y17.76085
G01 X40.62519 Y17.79168
G01 X40.57226 Y17.81292
G01 X40.46340 Y17.84167
G01 X40.42070 Y17.84474
G01 X34.44929 Y17.84474
G01 X34.44504 Y17.84794
G01 X34.44624 Y29.85376
G01 X34.45000 Y29.85000
G01 X34.45000 Y17.85003
G01 X34.44624 Y17.84627
G01 X34.45000 Y17.85003
G01 X44.51498 Y17.85003
G01 X44.51495 Y22.35058
G01 X44.38262 Y22.47679
G01 X43.37495 Y23.12452
G01 X42.26289 Y23.56978
G01 X42.19585 Y23.58946
G01 X41.31740 Y23.78060
G01 X40.84998 Y23.81402
G01 X40.84998 Y12.39703
G01 X20.85000 Y0.85001
G01 X0.84999 Y12.39703
G01 X0.85527 Y12.64488
G01 X0.85527 Y35.24319
G01 X0.85835 Y35.28591
G01 X0.86744 Y35.32774
G01 X0.88712 Y35.39477
G01 X0.90617 Y35.44346
G01 X0.93340 Y35.48814
G01 X0.96797 Y35.52739
G01 X1.03752 Y35.59073
G01 X1.06729 Y35.61037
G01 X20.63799 Y46.90953
G01 X20.67652 Y46.92825
G01 X20.71731 Y46.94128
G01 X20.78520 Y46.95774
G01 X20.83687 Y46.96559
G01 X20.88912 Y46.96435
G01 X20.94037 Y46.95406
G01 X21.03003 Y46.92551
G01 X21.06196 Y46.90953
G01 X40.63266 Y35.61037
G01 X40.66807 Y35.58642
G01 X40.69969 Y35.55766
G01 X40.74793 Y35.50712
G01 X40.78064 Y35.46625
G01 X40.80574 Y35.42027
G01 X40.83622 Y35.31385
G01 X40.84468 Y35.24319
G01 X40.84468 Y30.27931
G01 X40.84160 Y30.23662
G01 X40.83251 Y30.19478
G01 X40.81282 Y30.12775
G01 X40.79164 Y30.07484
G01 X40.76083 Y30.02691
G01 X40.72154 Y29.98564
G01 X40.62840 Y29.91040
G01 X40.58372 Y29.88803
G01 X40.48443 Y29.86217
G01 X40.42070 Y29.85531
G01 X34.44624 Y29.85376
G01 X34.45000 Y29.85000
G01 X44.51498 Y29.85000
G01 X44.51495 Y25.34501
G01 X43.75239 Y24.78783
G01 X42.81412 Y24.31798
G01 X41.81089 Y24.01039
G01 X41.75938 Y23.99919
G01 X41.09388 Y23.89139
G01 X40.84998 Y23.87834
G01 X40.84998 Y29.85000
G01 X40.84998 Y28.71889
G01 X41.02979 Y28.77401
G01 X41.25318 Y28.88590
G01 X41.45494 Y29.03329
G01 X41.50772 Y29.07906
G01 X41.70429 Y29.28534
G01 X41.85831 Y29.52509
G01 X41.96421 Y29.78963
G01 X41.98194 Y29.85003
G01 X42.28867 Y29.85003
G01 X42.27172 Y29.77213
G01 X42.25204 Y29.70510
G01 X42.12496 Y29.38765
G01 X41.94015 Y29.09994
G01 X41.70426 Y28.85239
G01 X41.65148 Y28.80662
G01 X41.40939 Y28.62976
G01 X41.14132 Y28.49552
G01 X40.84998 Y28.40660
G01 X40.84998 Y28.10053
G01 X40.91844 Y28.11447
G01 X41.25283 Y28.21701
G01 X41.56560 Y28.37363
G01 X41.84803 Y28.57998
G01 X41.90081 Y28.62575
G01 X42.17602 Y28.91457
G01 X42.39164 Y29.25021
G01 X42.53990 Y29.62057
G01 X42.55958 Y29.68760
G01 X42.59491 Y29.85000
G01 X42.90114 Y29.85003
G01 X42.84742 Y29.60306
G01 X42.82773 Y29.53603
G01 X42.65829 Y29.11277
G01 X42.41186 Y28.72918
G01 X42.09735 Y28.39910
G01 X42.04457 Y28.35333
G01 X41.72179 Y28.11749
G01 X41.36436 Y27.93850
G01 X40.98217 Y27.82133
G01 X40.84996 Y27.79707
G01 X40.84996 Y27.49359
G01 X41.04592 Y27.52819
G01 X41.47589 Y27.66002
G01 X41.87800 Y27.86136
G01 X42.24112 Y28.12669
G01 X42.29390 Y28.17246
G01 X42.64772 Y28.54378
G01 X42.92496 Y28.97533
G01 X43.11559 Y29.45150
G01 X43.13527 Y29.51853
G01 X43.20736 Y29.85000
G01 X43.51361 Y29.85003
G01 X43.42311 Y29.43400
G01 X43.40342 Y29.36697
G01 X43.19164 Y28.83789
G01 X42.88359 Y28.35839
G01 X42.49044 Y27.94582
G01 X42.43766 Y27.90005
G01 X42.03418 Y27.60525
G01 X41.58740 Y27.38150
G01 X41.10967 Y27.23505
G01 X40.84996 Y27.19012
G01 X40.84996 Y29.03156
G01 X40.91829 Y29.05252
G01 X41.09700 Y29.14200
G01 X41.25839 Y29.25994
G01 X41.31117 Y29.30571
G01 X41.46842 Y29.47073
G01 X41.59164 Y29.66253
G01 X41.66670 Y29.85000
G01 X41.34501 Y29.85000
G01 X41.32496 Y29.79997
G01 X41.23256 Y29.65613
G01 X41.11463 Y29.53235
G01 X41.06185 Y29.48658
G01 X40.94079 Y29.39814
G01 X40.84998 Y29.35267
G01 X40.91829 Y29.05252
G01 X42.81412 Y24.31798
G01 X42.70261 Y24.59650
G01 X41.74714 Y24.30356
G01 X41.69563 Y24.29236
G01 X41.06182 Y24.18969
G01 X40.84996 Y24.17834
G01 X40.84998 Y24.47834
G01 X41.02977 Y24.48796
G01 X41.63187 Y24.58550
G01 X41.68338 Y24.59670
G01 X42.59108 Y24.87498
G01 X43.44000 Y25.30008
G01 X44.20657 Y25.86020
G01 X44.25935 Y25.90597
G01 X44.51495 Y26.17422
G01 X44.51498 Y27.04003
G01 X44.51495 Y26.60713
G01 X44.06281 Y26.13261
G01 X44.01002 Y26.08684
G01 X43.28379 Y25.55621
G01 X42.47957 Y25.15349
G01 X41.61963 Y24.88984
G01 X41.56812 Y24.87864
G01 X40.99771 Y24.78623
G01 X40.84998 Y24.77833
G01 X40.84998 Y25.07833
G01 X40.96566 Y25.08453
G01 X41.50439 Y25.17178
G01 X41.55590 Y25.18298
G01 X42.36804 Y25.43200
G01 X43.12760 Y25.81234
G01 X43.81348 Y26.31349
G01 X43.86626 Y26.35926
G01 X44.51498 Y27.04003
G01 X44.51498 Y28.13515
G01 X44.06288 Y27.43144
G01 X43.47317 Y26.81257
G01 X43.42039 Y26.76680
G01 X42.81518 Y26.32461
G01 X42.14500 Y25.98900
G01 X41.42839 Y25.76929
G01 X41.37688 Y25.75809
G01 X40.90155 Y25.68110
G01 X40.84998 Y25.67833
G01 X40.84998 Y25.97833
G01 X41.31315 Y26.05123
G01 X41.36467 Y26.06243
G01 X42.03347 Y26.26751
G01 X42.65900 Y26.58072
G01 X43.22384 Y26.99344
G01 X43.27662 Y27.03921
G01 X43.82704 Y27.61684
G01 X44.25828 Y28.28813
G01 X44.51498 Y28.92935
G01 X44.51498 Y27.58260
G01 X44.29875 Y27.24605
G01 X43.66972 Y26.58590
G01 X43.61693 Y26.54013
G01 X42.97139 Y26.06848
G01 X42.25651 Y25.71049
G01 X41.49215 Y25.47615
G01 X41.44064 Y25.46495
G01 X40.93360 Y25.38280
G01 X40.84996 Y25.37833
G01 X40.84998 Y26.27968
G01 X41.30091 Y26.35560
G01 X41.92197 Y26.54600
G01 X42.50279 Y26.83685
G01 X43.02730 Y27.22009
G01 X43.08008 Y27.26586
G01 X43.59118 Y27.80223
G01 X43.99161 Y28.42557
G01 X44.26695 Y29.11338
G01 X44.28663 Y29.18041
G01 X44.40497 Y29.72422
G01 X44.41394 Y29.85000
G01 X44.51498 Y29.85000
G01 X44.51498 Y25.74130
G01 X44.45590 Y25.67932
G01 X44.40311 Y25.63355
G01 X43.59618 Y25.04397
G01 X42.70261 Y24.59650
G04 P0 ( dwell for no time -- G64 should not smooth over this point )
G00 Z5.00000 ( retract )

G00 X37.74999 Y34.33633 ( rapid move to begin. )
G01 F100.00000
( Mill infeed pass 1/1 )
G01 Z-0.10000
G04 P0 ( dwell for no time -- G64 should not smooth over this point )
G01 F200.00000
G01 X37.74999 Y34.33633
G01 X37.77239 Y34.10730
G01 X37.84356 Y33.88825
G01 X37.95873 Y33.68881
G01 X38.11283 Y33.51766
G01 X38.29914 Y33.38228
G01 X38.50953 Y33.28863
G01 X38.73483 Y33.24073
G01 X38.96513 Y33.24073
G01 X39.19043 Y33.28863
G01 X39.40079 Y33.38228
G01 X39.58712 Y33.51766
G01 X39.74122 Y33.68881
G01 X39.85639 Y33.88825
G01 X39.92756 Y34.10730
G01 X39.95164 Y34.33633
G01 X39.92756 Y34.56539
G01 X39.85639 Y34.78444
G01 X39.74122 Y34.98388
G01 X39.58712 Y35.15502
G01 X39.40079 Y35.29040
G01 X39.19043 Y35.38405
G01 X38.96513 Y35.43196
G01 X38.73483 Y35.43196
G01 X38.50953 Y35.38405
G01 X38.29914 Y35.29040
G01 X38.11283 Y35.15502
G01 X37.95873 Y34.98388
G01 X37.84356 Y34.78444
G01 X37.77239 Y34.56539
G01 X37.74999 Y34.33633
G01 X37.74090 Y34.33633
G01 X37.75601 Y34.51888
G01 X37.80099 Y34.69645
G01 X37.87455 Y34.86419
G01 X37.97476 Y35.01756
G01 X38.09883 Y35.15233
G01 X38.24336 Y35.26483
G01 X38.40447 Y35.35202
G01 X38.57770 Y35.41151
G01 X38.75840 Y35.44164
G01 X38.94156 Y35.44164
G01 X39.12225 Y35.41151
G01 X39.29545 Y35.35202
G01 X39.45659 Y35.26483
G01 X39.60114 Y35.15233
G01 X39.72517 Y35.01758
G01 X39.82540 Y34.86419
G01 X39.89896 Y34.69645
G01 X39.94394 Y34.51890
G01 X39.95905 Y34.33633
G01 X39.94394 Y34.15378
G01 X39.89896 Y33.97623
G01 X39.82540 Y33.80849
G01 X39.72520 Y33.65513
G01 X39.60114 Y33.52035
G01 X39.45659 Y33.40786
G01 X39.29548 Y33.32066
G01 X39.12223 Y33.26117
G01 X38.94153 Y33.23105
G01 X38.75840 Y33.23105
G01 X38.57770 Y33.26117
G01 X38.40447 Y33.32066
G01 X38.24336 Y33.40786
G01 X38.09881 Y33.52035
G01 X37.97476 Y33.65513
G01 X37.87455 Y33.80849
G01 X37.80099 Y33.97623
G01 X37.75601 Y34.15380
G01 X37.74090 Y34.33633
G04 P0 ( dwell for no time -- G64 should not smooth over this point )
G00 Z5.00000 ( retract )

G00 X26.87351 Y25.72502 ( rapid move to begin. )
G01 F100.00000
( Mill infeed pass 1/1 )
G01 Z-0.10000
G04 P0 ( dwell for no time -- G64 should not smooth over this point )
G01 F200.00000
G01 X26.87351 Y25.72502
G01 X26.87917 Y25.66502
G01 X26.88824 Y25.62375
G01 X26.93424 Y25.53195
G01 X27.00729 Y25.45984
G01 X27.09848 Y25.41262
G01 X27.17432 Y25.39926
G01 X27.99987 Y25.39858
G01 X28.03012 Y25.39967
G01 X28.10147 Y25.41262
G01 X28.19263 Y25.45984
G01 X28.22428 Y25.48796
G01 X28.26571 Y25.53195
G01 X28.31166 Y25.62360
G01 X28.33833 Y25.78583
G01 X28.36266 Y25.85634
G01 X28.41417 Y25.87556
G01 X28.45773 Y25.88603
G01 X28.51046 Y25.89169
G01 X30.17243 Y25.89258
G01 X30.26431 Y25.88095
G01 X30.30228 Y25.87132
G01 X30.32997 Y25.81643
G01 X30.34538 Y25.79545
G01 X30.37045 Y25.77871
G01 X30.39999 Y25.77356
G01 X32.90748 Y25.77376
G01 X32.92950 Y25.77871
G01 X32.95455 Y25.79545
G01 X32.97129 Y25.82050
G01 X32.97624 Y25.84252
G01 X32.97624 Y26.85753
G01 X32.97129 Y26.87955
G01 X32.95455 Y26.90462
G01 X32.92950 Y26.92133
G01 X32.89999 Y26.92649
G01 X30.39999 Y26.92649
G01 X30.37045 Y26.92133
G01 X30.34538 Y26.90459
G01 X30.32623 Y26.87841
G01 X30.30060 Y26.83040
G01 X30.23873 Y26.81348
G01 X30.18816 Y26.80828
G01 X28.50490 Y26.80906
G01 X28.43502 Y26.81910
G01 X28.36266 Y26.84371
G01 X28.34343 Y26.89522
G01 X28.33314 Y26.93716
G01 X28.32065 Y27.03500
G01 X28.31166 Y27.07645
G01 X28.26571 Y27.16809
G01 X28.19263 Y27.24020
G01 X28.10147 Y27.28742
G01 X28.03012 Y27.30038
G01 X27.99987 Y27.30147
G01 X27.17435 Y27.30081
G01 X27.10650 Y27.28912
G01 X27.04379 Y27.26157
G01 X27.00729 Y27.24020
G01 X26.93424 Y27.16809
G01 X26.89827 Y27.10055
G01 X26.88824 Y27.07630
G01 X26.87917 Y27.03502
G01 X26.87351 Y26.97500
G01 X26.87351 Y25.72502
G04 P0 ( dwell for no time -- G64 should not smooth over this point )
G00 Z5.00000 ( retract )

G00 X26.87351 Y23.22502 ( rapid move to begin. )
G01 F100.00000
( Mill infeed pass 1/1 )
G01 Z-0.10000
G04 P0 ( dwell for no time -- G64 should not smooth over this point )
G01 F200.00000
G01 X26.87351 Y23.22502
G01 X26.87917 Y23.16503
G01 X26.88824 Y23.12375
G01 X26.93424 Y23.03196
G01 X27.00729 Y22.95985
G01 X27.09848 Y22.91263
G01 X27.17435 Y22.89927
G01 X28.02560 Y22.89927
G01 X28.10147 Y22.91263
G01 X28.19263 Y22.95985
G01 X28.22425 Y22.98794
G01 X28.26571 Y23.03196
G01 X28.31171 Y23.12375
G01 X28.34419 Y23.27501
G01 X28.35964 Y23.31936
G01 X28.44363 Y23.34387
G01 X28.47800 Y23.34994
G01 X28.52192 Y23.35256
G01 X30.17243 Y23.35256
G01 X30.26431 Y23.34095
G01 X30.30228 Y23.33132
G01 X30.32997 Y23.27643
G01 X30.34538 Y23.25545
G01 X30.37045 Y23.23871
G01 X30.39247 Y23.23376
G01 X32.90748 Y23.23376
G01 X32.92950 Y23.23871
G01 X32.95455 Y23.25545
G01 X32.97129 Y23.28050
G01 X32.97624 Y23.30252
G01 X32.97624 Y24.31753
G01 X32.97129 Y24.33955
G01 X32.95455 Y24.36462
G01 X32.92950 Y24.38133
G01 X32.90751 Y24.38629
G01 X30.39999 Y24.38646
G01 X30.37045 Y24.38133
G01 X30.34538 Y24.36459
G01 X30.32623 Y24.33841
G01 X30.30060 Y24.29040
G01 X30.23873 Y24.27348
G01 X30.18816 Y24.26828
G01 X28.50490 Y24.26906
G01 X28.43502 Y24.27910
G01 X28.36266 Y24.30371
G01 X28.34343 Y24.35522
G01 X28.33297 Y24.39878
G01 X28.31783 Y24.55085
G01 X28.31171 Y24.57630
G01 X28.29474 Y24.61509
G01 X28.26571 Y24.66810
G01 X28.21257 Y24.72319
G01 X28.17028 Y24.75390
G01 X28.10147 Y24.78743
G01 X28.03012 Y24.80038
G01 X27.99987 Y24.80147
G01 X27.15791 Y24.79865
G01 X27.09848 Y24.78743
G01 X27.02964 Y24.75390
G01 X26.98738 Y24.72319
G01 X26.93015 Y24.66101
G01 X26.88824 Y24.57630
G01 X26.87917 Y24.53503
G01 X26.87351 Y24.47503
G01 X26.87351 Y23.22502
G04 P0 ( dwell for no time -- G64 should not smooth over this point )
G00 Z5.00000 ( retract )

G00 X20.64853 Y23.22502 ( rapid move to begin. )
G01 F100.00000
( Mill infeed pass 1/1 )
G01 Z-0.10000
G04 P0 ( dwell for no time -- G64 should not smooth over this point )
G01 F200.00000
G01 X20.64853 Y23.22502
G01 X20.65419 Y23.16503
G01 X20.66323 Y23.12373
G01 X20.70923 Y23.03196
G01 X20.78231 Y22.95985
G01 X20.87347 Y22.91263
G01 X20.94482 Y22.89967
G01 X20.97499 Y22.89856
G01 X21.92559 Y22.89919
G01 X22.00148 Y22.91263
G01 X22.07027 Y22.94613
G01 X22.11256 Y22.97684
G01 X22.16572 Y23.03196
G01 X22.21167 Y23.12360
G01 X22.23834 Y23.28583
G01 X22.25426 Y23.33800
G01 X22.26265 Y23.35637
G01 X22.31416 Y23.37557
G01 X22.35772 Y23.38603
G01 X22.42686 Y23.39256
G01 X23.59505 Y23.39099
G01 X23.66493 Y23.38095
G01 X23.73729 Y23.35634
G01 X23.75652 Y23.30483
G01 X23.76681 Y23.26289
G01 X23.77928 Y23.16505
G01 X23.78830 Y23.12360
G01 X23.83425 Y23.03196
G01 X23.90730 Y22.95985
G01 X23.99846 Y22.91263
G01 X24.07435 Y22.89924
G01 X24.92561 Y22.89924
G01 X25.00148 Y22.91263
G01 X25.09264 Y22.95985
G01 X25.16571 Y23.03196
G01 X25.21171 Y23.12375
G01 X25.22530 Y23.19942
G01 X25.22642 Y24.47503
G01 X25.22078 Y24.53503
G01 X25.21171 Y24.57630
G01 X25.16571 Y24.66810
G01 X25.12424 Y24.71212
G01 X25.09264 Y24.74021
G01 X25.07031 Y24.75390
G01 X24.99345 Y24.78913
G01 X24.90397 Y24.80142
G01 X24.07433 Y24.80086
G01 X23.99848 Y24.78743
G01 X23.92967 Y24.75393
G01 X23.88738 Y24.72319
G01 X23.83425 Y24.66810
G01 X23.78830 Y24.57646
G01 X23.76163 Y24.41423
G01 X23.74568 Y24.36205
G01 X23.73729 Y24.34372
G01 X23.68578 Y24.32449
G01 X23.64222 Y24.31402
G01 X23.57308 Y24.30747
G01 X22.42686 Y24.30747
G01 X22.33501 Y24.31910
G01 X22.26267 Y24.34372
G01 X22.24344 Y24.39518
G01 X22.23316 Y24.43714
G01 X22.22066 Y24.53500
G01 X22.21167 Y24.57646
G01 X22.16572 Y24.66810
G01 X22.09264 Y24.74021
G01 X22.00148 Y24.78743
G01 X21.92564 Y24.80079
G01 X20.94934 Y24.80079
G01 X20.87347 Y24.78743
G01 X20.78231 Y24.74021
G01 X20.70923 Y24.66810
G01 X20.66323 Y24.57633
G01 X20.65419 Y24.53503
G01 X20.64853 Y24.47503
G01 X20.64853 Y23.22502
G04 P0 ( dwell for no time -- G64 should not smooth over this point )
G00 Z5.00000 ( retract )

G00 X20.64853 Y25.72502 ( rapid move to begin. )
G01 F100.00000
( Mill infeed pass 1/1 )
G01 Z-0.10000
G04 P0 ( dwell for no time -- G64 should not smooth over this point )
G01 F200.00000
G01 X20.64853 Y25.72502
G01 X20.65419 Y25.66502
G01 X20.66323 Y25.62372
G01 X20.70923 Y25.53195
G01 X20.78231 Y25.45984
G01 X20.87347 Y25.41262
G01 X20.94482 Y25.39967
G01 X20.97098 Y25.39863
G01 X21.92561 Y25.39919
G01 X22.00148 Y25.41262
G01 X22.07027 Y25.44613
G01 X22.11256 Y25.47683
G01 X22.16572 Y25.53195
G01 X22.21167 Y25.62360
G01 X22.23834 Y25.78583
G01 X22.25426 Y25.83800
G01 X22.26265 Y25.85636
G01 X22.31416 Y25.87556
G01 X22.35772 Y25.88603
G01 X22.42686 Y25.89258
G01 X23.57308 Y25.89258
G01 X23.66493 Y25.88095
G01 X23.73729 Y25.85634
G01 X23.75650 Y25.80488
G01 X23.76681 Y25.76289
G01 X23.77928 Y25.66505
G01 X23.78830 Y25.62360
G01 X23.83425 Y25.53195
G01 X23.90730 Y25.45984
G01 X23.99846 Y25.41262
G01 X24.07433 Y25.39926
G01 X24.92563 Y25.39926
G01 X25.00148 Y25.41262
G01 X25.09264 Y25.45984
G01 X25.16571 Y25.53195
G01 X25.21171 Y25.62375
G01 X25.22530 Y25.69941
G01 X25.22642 Y26.97500
G01 X25.22078 Y27.03502
G01 X25.21171 Y27.07630
G01 X25.16571 Y27.16809
G01 X25.12424 Y27.21214
G01 X25.09264 Y27.24020
G01 X25.07031 Y27.25389
G01 X24.99345 Y27.28912
G01 X24.93013 Y27.30038
G01 X24.89995 Y27.30149
G01 X24.07435 Y27.30086
G01 X23.99848 Y27.28742
G01 X23.92967 Y27.25392
G01 X23.88738 Y27.22319
G01 X23.83425 Y27.16809
G01 X23.78830 Y27.07645
G01 X23.76163 Y26.91422
G01 X23.74568 Y26.86205
G01 X23.73729 Y26.84371
G01 X23.68578 Y26.82448
G01 X23.64222 Y26.81402
G01 X23.57308 Y26.80746
G01 X22.42686 Y26.80746
G01 X22.33501 Y26.81910
G01 X22.26267 Y26.84371
G01 X22.24344 Y26.89522
G01 X22.23316 Y26.93716
G01 X22.22066 Y27.03500
G01 X22.21167 Y27.07645
G01 X22.16572 Y27.16809
G01 X22.09264 Y27.24020
G01 X22.00148 Y27.28742
G01 X21.92561 Y27.30081
G01 X20.94936 Y27.30081
G01 X20.87347 Y27.28742
G01 X20.78231 Y27.24020
G01 X20.70923 Y27.16809
G01 X20.66323 Y27.07632
G01 X20.65419 Y27.03502
G01 X20.64853 Y26.97500
G01 X20.64853 Y25.72502
G04 P0 ( dwell for no time -- G64 should not smooth over this point )
G00 Z5.00000 ( retract )

G00 X19.01246 Y25.01722 ( rapid move to begin. )
G01 F100.00000
( Mill infeed pass 1/1 )
G01 Z-0.10000
G04 P0 ( dwell for no time -- G64 should not smooth over this point )
G01 F200.00000
G01 X19.01246 Y25.01722
G01 X19.09494 Y24.99810
G01 X19.12851 Y24.98494
G01 X19.11696 Y25.03805
G01 X19.11559 Y25.09505
G01 X19.12056 Y25.16474
G01 X19.12862 Y25.21511
G01 X19.09494 Y25.20193
G01 X19.01246 Y25.18280
G01 X19.01246 Y25.01722
G04 P0 ( dwell for no time -- G64 should not smooth over this point )
G00 Z5.00000 ( retract )

G00 X17.79634 Y24.98489 ( rapid move to begin. )
G01 F100.00000
( Mill infeed pass 1/1 )
G01 Z-0.10000
G04 P0 ( dwell for no time -- G64 should not smooth over this point )
G01 F200.00000
G01 X17.79634 Y24.98489
G01 X17.83004 Y24.99810
G01 X17.91249 Y25.01722
G01 X17.91249 Y25.18280
G01 X17.83004 Y25.20193
G01 X17.79646 Y25.21509
G01 X17.80799 Y25.16200
G01 X17.80937 Y25.10500
G01 X17.80439 Y25.03531
G01 X17.79634 Y24.98489
G04 P0 ( dwell for no time -- G64 should not smooth over this point )
G00 Z5.00000 ( retract )

G00 X1.74999 Y34.33633 ( rapid move to begin. )
G01 F100.00000
( Mill infeed pass 1/1 )
G01 Z-0.10000
G04 P0 ( dwell for no time -- G64 should not smooth over this point )
G01 F200.00000
G01 X1.74999 Y34.33633
G01 X1.77239 Y34.10730
G01 X1.84356 Y33.88825
G01 X1.95872 Y33.68881
G01 X2.11283 Y33.51766
G01 X2.29916 Y33.38228
G01 X2.50952 Y33.28863
G01 X2.73482 Y33.24073
G01 X2.96512 Y33.24073
G01 X3.19042 Y33.28863
G01 X3.40081 Y33.38228
G01 X3.58712 Y33.51766
G01 X3.74122 Y33.68881
G01 X3.85638 Y33.88825
G01 X3.92755 Y34.10730
G01 X3.95163 Y34.33633
G01 X3.92755 Y34.56539
G01 X3.85638 Y34.78444
G01 X3.74122 Y34.98388
G01 X3.58712 Y35.15502
G01 X3.40081 Y35.29040
G01 X3.19042 Y35.38405
G01 X2.96512 Y35.43196
G01 X2.73482 Y35.43196
G01 X2.50952 Y35.38405
G01 X2.29916 Y35.29040
G01 X2.11283 Y35.15502
G01 X1.95872 Y34.98388
G01 X1.84356 Y34.78444
G01 X1.77239 Y34.56539
G01 X1.74999 Y34.33633
G01 X1.74089 Y34.33633
G01 X1.75601 Y34.51890
G01 X1.80099 Y34.69645
G01 X1.87457 Y34.86422
G01 X1.97475 Y35.01756
G01 X2.09881 Y35.15233
G01 X2.24336 Y35.26483
G01 X2.40447 Y35.35202
G01 X2.57770 Y35.41151
G01 X2.75839 Y35.44164
G01 X2.94158 Y35.44164
G01 X3.12225 Y35.41151
G01 X3.29545 Y35.35205
G01 X3.45659 Y35.26483
G01 X3.60116 Y35.15230
G01 X3.72517 Y35.01758
G01 X3.82540 Y34.86419
G01 X3.89895 Y34.69645
G01 X3.94394 Y34.51890
G01 X3.95905 Y34.33633
G01 X3.94394 Y34.15378
G01 X3.89895 Y33.97623
G01 X3.82540 Y33.80849
G01 X3.72519 Y33.65513
G01 X3.60114 Y33.52035
G01 X3.45659 Y33.40786
G01 X3.29548 Y33.32066
G01 X3.12225 Y33.26117
G01 X2.94158 Y33.23105
G01 X2.75839 Y33.23105
G01 X2.57770 Y33.26117
G01 X2.40447 Y33.32066
G01 X2.24336 Y33.40786
G01 X2.09881 Y33.52035
G01 X1.97475 Y33.65513
G01 X1.87457 Y33.80847
G01 X1.80099 Y33.97623
G01 X1.75601 Y34.15378
G01 X1.74089 Y34.33633
G04 P0 ( dwell for no time -- G64 should not smooth over this point )
G00 Z5.00000 ( retract )

G00 X19.74088 Y44.72864 ( rapid move to begin. )
G01 F100.00000
( Mill infeed pass 1/1 )
G01 Z-0.10000
G04 P0 ( dwell for no time -- G64 should not smooth over this point )
G01 F200.00000
G01 X19.74088 Y44.72864
G01 X19.75600 Y44.54609
G01 X19.80098 Y44.36852
G01 X19.87456 Y44.20075
G01 X19.97474 Y44.04743
G01 X20.09879 Y43.91266
G01 X20.24337 Y43.80017
G01 X20.40448 Y43.71297
G01 X20.57769 Y43.65351
G01 X20.75841 Y43.62336
G01 X20.94154 Y43.62336
G01 X21.12226 Y43.65351
G01 X21.29549 Y43.71297
G01 X21.45658 Y43.80014
G01 X21.60113 Y43.91264
G01 X21.72521 Y44.04743
G01 X21.82538 Y44.20077
G01 X21.89897 Y44.36852
G01 X21.94395 Y44.54609
G01 X21.95907 Y44.72864
G01 X21.94395 Y44.91121
G01 X21.89897 Y45.08876
G01 X21.82538 Y45.25653
G01 X21.72414 Y45.41103
G01 X21.60113 Y45.54461
G01 X21.45658 Y45.65713
G01 X21.29549 Y45.74431
G01 X21.12224 Y45.80379
G01 X20.94157 Y45.83394
G01 X20.75838 Y45.83394
G01 X20.57771 Y45.80379
G01 X20.40446 Y45.74431
G01 X20.24335 Y45.65713
G01 X20.09879 Y45.54461
G01 X19.97474 Y45.40987
G01 X19.87456 Y45.25655
G01 X19.80098 Y45.08876
G01 X19.75600 Y44.91121
G01 X19.74088 Y44.72864
G01 X19.74998 Y44.72864
G01 X19.77240 Y44.95769
G01 X19.84358 Y45.17672
G01 X19.95871 Y45.37619
G01 X20.11282 Y45.54733
G01 X20.29915 Y45.68271
G01 X20.50954 Y45.77636
G01 X20.73484 Y45.82427
G01 X20.96511 Y45.82427
G01 X21.19041 Y45.77636
G01 X21.40080 Y45.68271
G01 X21.58713 Y45.54733
G01 X21.74123 Y45.37619
G01 X21.85640 Y45.17672
G01 X21.92754 Y44.95769
G01 X21.95165 Y44.72864
G01 X21.92754 Y44.49961
G01 X21.85640 Y44.28056
G01 X21.74123 Y44.08112
G01 X21.58713 Y43.90994
G01 X21.40080 Y43.77459
G01 X21.19041 Y43.68091
G01 X20.96511 Y43.63303
G01 X20.73484 Y43.63303
G01 X20.50954 Y43.68091
G01 X20.29915 Y43.77459
G01 X20.11282 Y43.90994
G01 X19.95871 Y44.08112
G01 X19.84358 Y44.28056
G01 X19.77240 Y44.49961
G01 X19.74998 Y44.72864

G04 P0 ( dwell for no time -- G64 should not smooth over this point )
G00 Z10.000000 ( retract )

M5 ( Spindle off. )
G04 P1.000000
M9 ( Coolant off. )
M2 ( Program end. )

