( pcb2gcode 2.5.0 )
( Software-independent Gcode )

G94 ( Millimeters per minute feed rate. )
G21 ( Units == Millimeters. )

G90 ( Absolute coordinates. )
G00 S10000 ( RPM spindle speed. )
G64 P0.01016 ( set maximum deviation from commanded toolpath )
G01 F200.00000 ( Feedrate. )


G00 Z10.00000 (Retract to tool change height)
T0
M5      (Spindle stop.)
G04 P1.00000 (Wait for spindle to stop)
(MSG, Change tool bit to cutter diameter 1.10000mm)
M6      (Tool change.)
M0      (Temporary machine stop.)
M3 ( Spindle on clockwise. )
G04 P1.00000 (Wait for spindle to get up to speed)
G04 P0 ( dwell for no time -- G64 should not smooth over this point )
G00 Z5.00000 ( retract )

G00 X38.60300 Y34.63633 ( rapid move to begin. )
G01 Z-0.50000 F100.00000 ( plunge. )
G04 P0 ( dwell for no time -- G64 should not smooth over this point )
G01 F200.00000
G01 X38.61496 Y34.52261
G01 X38.65029 Y34.41388
G01 X38.70747 Y34.31487
G01 X38.78400 Y34.22985
G01 X38.87648 Y34.16264
G01 X38.98095 Y34.11616
G01 X39.01646 Y34.10861
G01 X39.09281 Y34.09236
G01 X39.20714 Y34.09236
G01 X39.31900 Y34.11614
G01 X39.39031 Y34.14789
G01 X39.42345 Y34.16264
G01 X39.51598 Y34.22988
G01 X39.59248 Y34.31487
G01 X39.64966 Y34.41388
G01 X39.68499 Y34.52261
G01 X39.69695 Y34.63633
G01 X39.68499 Y34.75007
G01 X39.64966 Y34.85881
G01 X39.59248 Y34.95782
G01 X39.51598 Y35.04281
G01 X39.42345 Y35.11004
G01 X39.31900 Y35.15655
G01 X39.28348 Y35.16410
G01 X39.20714 Y35.18032
G01 X39.09281 Y35.18032
G01 X38.98095 Y35.15652
G01 X38.90965 Y35.12480
G01 X38.87648 Y35.11004
G01 X38.78400 Y35.04283
G01 X38.70747 Y34.95782
G01 X38.65029 Y34.85881
G01 X38.61496 Y34.75007
G01 X38.60300 Y34.63633
G01 Z-1.00000 F100.00000 ( plunge. )
G04 P0 ( dwell for no time -- G64 should not smooth over this point )
G01 F200.00000
G00 Z-0.60000
G01 X38.61496 Y34.52261
G01 X38.65029 Y34.41388
G01 X38.70747 Y34.31487
G01 X38.78400 Y34.22985
G01 X38.87648 Y34.16264
G01 X38.98095 Y34.11616
G01 X39.01646 Y34.10861
G01 X39.09281 Y34.09236
G01 X39.20714 Y34.09236
G01 X39.31900 Y34.11614
G01 X39.39031 Y34.14789
G01 X39.42345 Y34.16264
G01 X39.51598 Y34.22988
G01 X39.59248 Y34.31487
G01 X39.64966 Y34.41388
G01 X39.68499 Y34.52261
G01 X39.69695 Y34.63633
G01 X39.68499 Y34.75007
G01 X39.64966 Y34.85881
G01 X39.59248 Y34.95782
G01 X39.51598 Y35.04281
G01 X39.42345 Y35.11004
G01 X39.31900 Y35.15655
G01 X39.28348 Y35.16410
G01 X39.20714 Y35.18032
G01 X39.09281 Y35.18032
G01 X38.98095 Y35.15652
G01 X38.90965 Y35.12480
G01 Z-1.00000 F100.00000
G01 F200.00000
G01 X38.87648 Y35.11004
G00 Z-0.60000
G01 X38.78400 Y35.04283
G01 X38.70747 Y34.95782
G01 X38.65029 Y34.85881
G01 X38.61496 Y34.75007
G01 X38.60300 Y34.63633
G01 Z-1.50000 F100.00000 ( plunge. )
G04 P0 ( dwell for no time -- G64 should not smooth over this point )
G01 F200.00000
G00 Z-0.60000
G01 X38.61496 Y34.52261
G01 X38.65029 Y34.41388
G01 X38.70747 Y34.31487
G01 X38.78400 Y34.22985
G01 X38.87648 Y34.16264
G01 X38.98095 Y34.11616
G01 X39.01646 Y34.10861
G01 X39.09281 Y34.09236
G01 X39.20714 Y34.09236
G01 X39.31900 Y34.11614
G01 X39.39031 Y34.14789
G01 X39.42345 Y34.16264
G01 X39.51598 Y34.22988
G01 X39.59248 Y34.31487
G01 X39.64966 Y34.41388
G01 X39.68499 Y34.52261
G01 X39.69695 Y34.63633
G01 X39.68499 Y34.75007
G01 X39.64966 Y34.85881
G01 X39.59248 Y34.95782
G01 X39.51598 Y35.04281
G01 X39.42345 Y35.11004
G01 X39.31900 Y35.15655
G01 X39.28348 Y35.16410
G01 X39.20714 Y35.18032
G01 X39.09281 Y35.18032
G01 X38.98095 Y35.15652
G01 X38.90965 Y35.12480
G01 Z-1.50000 F100.00000
G01 F200.00000
G01 X38.87648 Y35.11004
G00 Z-0.60000
G01 X38.78400 Y35.04283
G01 X38.70747 Y34.95782
G01 X38.65029 Y34.85881
G01 X38.61496 Y34.75007
G01 X38.60300 Y34.63633
G01 Z-2.00000 F100.00000 ( plunge. )
G04 P0 ( dwell for no time -- G64 should not smooth over this point )
G01 F200.00000
G00 Z-0.60000
G01 X38.61496 Y34.52261
G01 X38.65029 Y34.41388
G01 X38.70747 Y34.31487
G01 X38.78400 Y34.22985
G01 X38.87648 Y34.16264
G01 X38.98095 Y34.11616
G01 X39.01646 Y34.10861
G01 X39.09281 Y34.09236
G01 X39.20714 Y34.09236
G01 X39.31900 Y34.11614
G01 X39.39031 Y34.14789
G01 X39.42345 Y34.16264
G01 X39.51598 Y34.22988
G01 X39.59248 Y34.31487
G01 X39.64966 Y34.41388
G01 X39.68499 Y34.52261
G01 X39.69695 Y34.63633
G01 X39.68499 Y34.75007
G01 X39.64966 Y34.85881
G01 X39.59248 Y34.95782
G01 X39.51598 Y35.04281
G01 X39.42345 Y35.11004
G01 X39.31900 Y35.15655
G01 X39.28348 Y35.16410
G01 X39.20714 Y35.18032
G01 X39.09281 Y35.18032
G01 X38.98095 Y35.15652
G01 X38.90965 Y35.12480
G01 Z-2.00000 F100.00000
G01 F200.00000
G01 X38.87648 Y35.11004
G00 Z-0.60000
G01 X38.78400 Y35.04283
G01 X38.70747 Y34.95782
G01 X38.65029 Y34.85881
G01 X38.61496 Y34.75007
G01 X38.60300 Y34.63633
G04 P0 ( dwell for no time -- G64 should not smooth over this point )
G00 Z5.00000 ( retract )

G00 X2.60300 Y34.63633 ( rapid move to begin. )
G01 Z-0.50000 F100.00000 ( plunge. )
G04 P0 ( dwell for no time -- G64 should not smooth over this point )
G01 F200.00000
G01 X2.61496 Y34.52261
G01 X2.65029 Y34.41388
G01 X2.70747 Y34.31487
G01 X2.78397 Y34.22988
G01 X2.87650 Y34.16264
G01 X2.98095 Y34.11614
G01 X3.01645 Y34.10859
G01 X3.09281 Y34.09236
G01 X3.20713 Y34.09236
G01 X3.31900 Y34.11616
G01 X3.39031 Y34.14789
G01 X3.42347 Y34.16264
G01 X3.51595 Y34.22985
G01 X3.59248 Y34.31487
G01 X3.64965 Y34.41388
G01 X3.68498 Y34.52261
G01 X3.69695 Y34.63633
G01 X3.68498 Y34.75007
G01 X3.64965 Y34.85881
G01 X3.59248 Y34.95782
G01 X3.51595 Y35.04283
G01 X3.42347 Y35.11004
G01 X3.31900 Y35.15652
G01 X3.28347 Y35.16408
G01 X3.20713 Y35.18032
G01 X3.09281 Y35.18032
G01 X2.98095 Y35.15655
G01 X2.90965 Y35.12480
G01 X2.87650 Y35.11004
G01 X2.78397 Y35.04281
G01 X2.70747 Y34.95782
G01 X2.65029 Y34.85881
G01 X2.61496 Y34.75007
G01 X2.60300 Y34.63633
G01 Z-1.00000 F100.00000 ( plunge. )
G04 P0 ( dwell for no time -- G64 should not smooth over this point )
G01 F200.00000
G00 Z-0.60000
G01 X2.61496 Y34.52261
G01 X2.65029 Y34.41388
G01 X2.70747 Y34.31487
G01 X2.78397 Y34.22988
G01 X2.87650 Y34.16264
G01 X2.98095 Y34.11614
G01 X3.01645 Y34.10859
G01 X3.09281 Y34.09236
G01 X3.20713 Y34.09236
G01 X3.31900 Y34.11616
G01 X3.39031 Y34.14789
G01 X3.42347 Y34.16264
G01 X3.51595 Y34.22985
G01 X3.59248 Y34.31487
G01 X3.64965 Y34.41388
G01 X3.68498 Y34.52261
G01 X3.69695 Y34.63633
G01 X3.68498 Y34.75007
G01 X3.64965 Y34.85881
G01 X3.59248 Y34.95782
G01 X3.51595 Y35.04283
G01 X3.42347 Y35.11004
G01 X3.31900 Y35.15652
G01 X3.28347 Y35.16408
G01 X3.20713 Y35.18032
G01 X3.09281 Y35.18032
G01 X2.98095 Y35.15655
G01 X2.90965 Y35.12480
G01 Z-1.00000 F100.00000
G01 F200.00000
G01 X2.87650 Y35.11004
G00 Z-0.60000
G01 X2.78397 Y35.04281
G01 X2.70747 Y34.95782
G01 X2.65029 Y34.85881
G01 X2.61496 Y34.75007
G01 X2.60300 Y34.63633
G01 Z-1.50000 F100.00000 ( plunge. )
G04 P0 ( dwell for no time -- G64 should not smooth over this point )
G01 F200.00000
G00 Z-0.60000
G01 X2.61496 Y34.52261
G01 X2.65029 Y34.41388
G01 X2.70747 Y34.31487
G01 X2.78397 Y34.22988
G01 X2.87650 Y34.16264
G01 X2.98095 Y34.11614
G01 X3.01645 Y34.10859
G01 X3.09281 Y34.09236
G01 X3.20713 Y34.09236
G01 X3.31900 Y34.11616
G01 X3.39031 Y34.14789
G01 X3.42347 Y34.16264
G01 X3.51595 Y34.22985
G01 X3.59248 Y34.31487
G01 X3.64965 Y34.41388
G01 X3.68498 Y34.52261
G01 X3.69695 Y34.63633
G01 X3.68498 Y34.75007
G01 X3.64965 Y34.85881
G01 X3.59248 Y34.95782
G01 X3.51595 Y35.04283
G01 X3.42347 Y35.11004
G01 X3.31900 Y35.15652
G01 X3.28347 Y35.16408
G01 X3.20713 Y35.18032
G01 X3.09281 Y35.18032
G01 X2.98095 Y35.15655
G01 X2.90965 Y35.12480
G01 Z-1.50000 F100.00000
G01 F200.00000
G01 X2.87650 Y35.11004
G00 Z-0.60000
G01 X2.78397 Y35.04281
G01 X2.70747 Y34.95782
G01 X2.65029 Y34.85881
G01 X2.61496 Y34.75007
G01 X2.60300 Y34.63633
G01 Z-2.00000 F100.00000 ( plunge. )
G04 P0 ( dwell for no time -- G64 should not smooth over this point )
G01 F200.00000
G00 Z-0.60000
G01 X2.61496 Y34.52261
G01 X2.65029 Y34.41388
G01 X2.70747 Y34.31487
G01 X2.78397 Y34.22988
G01 X2.87650 Y34.16264
G01 X2.98095 Y34.11614
G01 X3.01645 Y34.10859
G01 X3.09281 Y34.09236
G01 X3.20713 Y34.09236
G01 X3.31900 Y34.11616
G01 X3.39031 Y34.14789
G01 X3.42347 Y34.16264
G01 X3.51595 Y34.22985
G01 X3.59248 Y34.31487
G01 X3.64965 Y34.41388
G01 X3.68498 Y34.52261
G01 X3.69695 Y34.63633
G01 X3.68498 Y34.75007
G01 X3.64965 Y34.85881
G01 X3.59248 Y34.95782
G01 X3.51595 Y35.04283
G01 X3.42347 Y35.11004
G01 X3.31900 Y35.15652
G01 X3.28347 Y35.16408
G01 X3.20713 Y35.18032
G01 X3.09281 Y35.18032
G01 X2.98095 Y35.15655
G01 X2.90965 Y35.12480
G01 Z-2.00000 F100.00000
G01 F200.00000
G01 X2.87650 Y35.11004
G00 Z-0.60000
G01 X2.78397 Y35.04281
G01 X2.70747 Y34.95782
G01 X2.65029 Y34.85881
G01 X2.61496 Y34.75007
G01 X2.60300 Y34.63633
G04 P0 ( dwell for no time -- G64 should not smooth over this point )
G00 Z5.00000 ( retract )

G00 X20.60299 Y3.45940 ( rapid move to begin. )
G01 Z-0.50000 F100.00000 ( plunge. )
G04 P0 ( dwell for no time -- G64 should not smooth over this point )
G01 F200.00000
G01 X20.61495 Y3.34574
G01 X20.65031 Y3.23695
G01 X20.70748 Y3.13792
G01 X20.78396 Y3.05295
G01 X20.87649 Y2.98574
G01 X20.98094 Y2.93924
G01 X21.01646 Y2.93169
G01 X21.09280 Y2.91546
G01 X21.20715 Y2.91546
G01 X21.31901 Y2.93924
G01 X21.39029 Y2.97098
G01 X21.42346 Y2.98574
G01 X21.51599 Y3.05295
G01 X21.59249 Y3.13792
G01 X21.64967 Y3.23695
G01 X21.68500 Y3.34569
G01 X21.69696 Y3.45940
G01 X21.68500 Y3.57314
G01 X21.64967 Y3.68193
G01 X21.59249 Y3.78094
G01 X21.51599 Y3.86588
G01 X21.42346 Y3.93311
G01 X21.31899 Y3.97962
G01 X21.28349 Y3.98717
G01 X21.20715 Y4.00340
G01 X21.09280 Y4.00340
G01 X20.98096 Y3.97962
G01 X20.90967 Y3.94789
G01 X20.87649 Y3.93311
G01 X20.78396 Y3.86588
G01 X20.70748 Y3.78094
G01 X20.65031 Y3.68193
G01 X20.61495 Y3.57312
G01 X20.60299 Y3.45940
G01 Z-1.00000 F100.00000 ( plunge. )
G04 P0 ( dwell for no time -- G64 should not smooth over this point )
G01 F200.00000
G00 Z-0.60000
G01 X20.61495 Y3.34574
G01 X20.65031 Y3.23695
G01 X20.70748 Y3.13792
G01 X20.78396 Y3.05295
G01 X20.87649 Y2.98574
G01 X20.98094 Y2.93924
G01 X21.01646 Y2.93169
G01 X21.09280 Y2.91546
G01 X21.20715 Y2.91546
G01 X21.31901 Y2.93924
G01 X21.39029 Y2.97098
G01 X21.42346 Y2.98574
G01 X21.51599 Y3.05295
G01 X21.59249 Y3.13792
G01 X21.64967 Y3.23695
G01 X21.68500 Y3.34569
G01 X21.69696 Y3.45940
G01 X21.68500 Y3.57314
G01 X21.64967 Y3.68193
G01 X21.59249 Y3.78094
G01 X21.51599 Y3.86588
G01 X21.42346 Y3.93311
G01 X21.31899 Y3.97962
G01 X21.28349 Y3.98717
G01 X21.20715 Y4.00340
G01 X21.09280 Y4.00340
G01 X20.98096 Y3.97962
G01 X20.90967 Y3.94789
G01 Z-1.00000 F100.00000
G01 F200.00000
G01 X20.87649 Y3.93311
G00 Z-0.60000
G01 X20.78396 Y3.86588
G01 X20.70748 Y3.78094
G01 X20.65031 Y3.68193
G01 X20.61495 Y3.57312
G01 X20.60299 Y3.45940
G01 Z-1.50000 F100.00000 ( plunge. )
G04 P0 ( dwell for no time -- G64 should not smooth over this point )
G01 F200.00000
G00 Z-0.60000
G01 X20.61495 Y3.34574
G01 X20.65031 Y3.23695
G01 X20.70748 Y3.13792
G01 X20.78396 Y3.05295
G01 X20.87649 Y2.98574
G01 X20.98094 Y2.93924
G01 X21.01646 Y2.93169
G01 X21.09280 Y2.91546
G01 X21.20715 Y2.91546
G01 X21.31901 Y2.93924
G01 X21.39029 Y2.97098
G01 X21.42346 Y2.98574
G01 X21.51599 Y3.05295
G01 X21.59249 Y3.13792
G01 X21.64967 Y3.23695
G01 X21.68500 Y3.34569
G01 X21.69696 Y3.45940
G01 X21.68500 Y3.57314
G01 X21.64967 Y3.68193
G01 X21.59249 Y3.78094
G01 X21.51599 Y3.86588
G01 X21.42346 Y3.93311
G01 X21.31899 Y3.97962
G01 X21.28349 Y3.98717
G01 X21.20715 Y4.00340
G01 X21.09280 Y4.00340
G01 X20.98096 Y3.97962
G01 X20.90967 Y3.94789
G01 Z-1.50000 F100.00000
G01 F200.00000
G01 X20.87649 Y3.93311
G00 Z-0.60000
G01 X20.78396 Y3.86588
G01 X20.70748 Y3.78094
G01 X20.65031 Y3.68193
G01 X20.61495 Y3.57312
G01 X20.60299 Y3.45940
G01 Z-2.00000 F100.00000 ( plunge. )
G04 P0 ( dwell for no time -- G64 should not smooth over this point )
G01 F200.00000
G00 Z-0.60000
G01 X20.61495 Y3.34574
G01 X20.65031 Y3.23695
G01 X20.70748 Y3.13792
G01 X20.78396 Y3.05295
G01 X20.87649 Y2.98574
G01 X20.98094 Y2.93924
G01 X21.01646 Y2.93169
G01 X21.09280 Y2.91546
G01 X21.20715 Y2.91546
G01 X21.31901 Y2.93924
G01 X21.39029 Y2.97098
G01 X21.42346 Y2.98574
G01 X21.51599 Y3.05295
G01 X21.59249 Y3.13792
G01 X21.64967 Y3.23695
G01 X21.68500 Y3.34569
G01 X21.69696 Y3.45940
G01 X21.68500 Y3.57314
G01 X21.64967 Y3.68193
G01 X21.59249 Y3.78094
G01 X21.51599 Y3.86588
G01 X21.42346 Y3.93311
G01 X21.31899 Y3.97962
G01 X21.28349 Y3.98717
G01 X21.20715 Y4.00340
G01 X21.09280 Y4.00340
G01 X20.98096 Y3.97962
G01 X20.90967 Y3.94789
G01 Z-2.00000 F100.00000
G01 F200.00000
G01 X20.87649 Y3.93311
G00 Z-0.60000
G01 X20.78396 Y3.86588
G01 X20.70748 Y3.78094
G01 X20.65031 Y3.68193
G01 X20.61495 Y3.57312
G01 X20.60299 Y3.45940
G04 P0 ( dwell for no time -- G64 should not smooth over this point )
G00 Z5.00000 ( retract )

G00 X2.60300 Y13.85171 ( rapid move to begin. )
G01 Z-0.50000 F100.00000 ( plunge. )
G04 P0 ( dwell for no time -- G64 should not smooth over this point )
G01 F200.00000
G01 X2.61496 Y13.73800
G01 X2.65029 Y13.62928
G01 X2.70747 Y13.53022
G01 X2.78397 Y13.44526
G01 X2.87650 Y13.37803
G01 X2.98095 Y13.33152
G01 X3.01645 Y13.32397
G01 X3.09281 Y13.30775
G01 X3.20713 Y13.30775
G01 X3.31900 Y13.33155
G01 X3.39031 Y13.36327
G01 X3.42347 Y13.37803
G01 X3.51595 Y13.44524
G01 X3.59248 Y13.53022
G01 X3.64965 Y13.62928
G01 X3.68498 Y13.73800
G01 X3.69695 Y13.85171
G01 X3.68498 Y13.96545
G01 X3.64965 Y14.07422
G01 X3.59248 Y14.17325
G01 X3.51597 Y14.25821
G01 X3.42347 Y14.32542
G01 X3.31900 Y14.37193
G01 X3.28347 Y14.37948
G01 X3.20716 Y14.39570
G01 X3.09278 Y14.39570
G01 X2.98095 Y14.37193
G01 X2.90967 Y14.34019
G01 X2.87650 Y14.32542
G01 X2.78397 Y14.25819
G01 X2.70747 Y14.17325
G01 X2.65029 Y14.07422
G01 X2.61496 Y13.96545
G01 X2.60300 Y13.85171
G01 Z-1.00000 F100.00000 ( plunge. )
G04 P0 ( dwell for no time -- G64 should not smooth over this point )
G01 F200.00000
G00 Z-0.60000
G01 X2.61496 Y13.73800
G01 X2.65029 Y13.62928
G01 X2.70747 Y13.53022
G01 X2.78397 Y13.44526
G01 X2.87650 Y13.37803
G01 X2.98095 Y13.33152
G01 X3.01645 Y13.32397
G01 X3.09281 Y13.30775
G01 X3.20713 Y13.30775
G01 X3.31900 Y13.33155
G01 X3.39031 Y13.36327
G01 X3.42347 Y13.37803
G01 X3.51595 Y13.44524
G01 X3.59248 Y13.53022
G01 X3.64965 Y13.62928
G01 X3.68498 Y13.73800
G01 X3.69695 Y13.85171
G01 X3.68498 Y13.96545
G01 X3.64965 Y14.07422
G01 X3.59248 Y14.17325
G01 X3.51597 Y14.25821
G01 X3.42347 Y14.32542
G01 X3.31900 Y14.37193
G01 X3.28347 Y14.37948
G01 X3.20716 Y14.39570
G01 X3.09278 Y14.39570
G01 X2.98095 Y14.37193
G01 X2.90967 Y14.34019
G01 Z-1.00000 F100.00000
G01 F200.00000
G01 X2.87650 Y14.32542
G00 Z-0.60000
G01 X2.78397 Y14.25819
G01 X2.70747 Y14.17325
G01 X2.65029 Y14.07422
G01 X2.61496 Y13.96545
G01 X2.60300 Y13.85171
G01 Z-1.50000 F100.00000 ( plunge. )
G04 P0 ( dwell for no time -- G64 should not smooth over this point )
G01 F200.00000
G00 Z-0.60000
G01 X2.61496 Y13.73800
G01 X2.65029 Y13.62928
G01 X2.70747 Y13.53022
G01 X2.78397 Y13.44526
G01 X2.87650 Y13.37803
G01 X2.98095 Y13.33152
G01 X3.01645 Y13.32397
G01 X3.09281 Y13.30775
G01 X3.20713 Y13.30775
G01 X3.31900 Y13.33155
G01 X3.39031 Y13.36327
G01 X3.42347 Y13.37803
G01 X3.51595 Y13.44524
G01 X3.59248 Y13.53022
G01 X3.64965 Y13.62928
G01 X3.68498 Y13.73800
G01 X3.69695 Y13.85171
G01 X3.68498 Y13.96545
G01 X3.64965 Y14.07422
G01 X3.59248 Y14.17325
G01 X3.51597 Y14.25821
G01 X3.42347 Y14.32542
G01 X3.31900 Y14.37193
G01 X3.28347 Y14.37948
G01 X3.20716 Y14.39570
G01 X3.09278 Y14.39570
G01 X2.98095 Y14.37193
G01 X2.90967 Y14.34019
G01 Z-1.50000 F100.00000
G01 F200.00000
G01 X2.87650 Y14.32542
G00 Z-0.60000
G01 X2.78397 Y14.25819
G01 X2.70747 Y14.17325
G01 X2.65029 Y14.07422
G01 X2.61496 Y13.96545
G01 X2.60300 Y13.85171
G01 Z-2.00000 F100.00000 ( plunge. )
G04 P0 ( dwell for no time -- G64 should not smooth over this point )
G01 F200.00000
G00 Z-0.60000
G01 X2.61496 Y13.73800
G01 X2.65029 Y13.62928
G01 X2.70747 Y13.53022
G01 X2.78397 Y13.44526
G01 X2.87650 Y13.37803
G01 X2.98095 Y13.33152
G01 X3.01645 Y13.32397
G01 X3.09281 Y13.30775
G01 X3.20713 Y13.30775
G01 X3.31900 Y13.33155
G01 X3.39031 Y13.36327
G01 X3.42347 Y13.37803
G01 X3.51595 Y13.44524
G01 X3.59248 Y13.53022
G01 X3.64965 Y13.62928
G01 X3.68498 Y13.73800
G01 X3.69695 Y13.85171
G01 X3.68498 Y13.96545
G01 X3.64965 Y14.07422
G01 X3.59248 Y14.17325
G01 X3.51597 Y14.25821
G01 X3.42347 Y14.32542
G01 X3.31900 Y14.37193
G01 X3.28347 Y14.37948
G01 X3.20716 Y14.39570
G01 X3.09278 Y14.39570
G01 X2.98095 Y14.37193
G01 X2.90967 Y14.34019
G01 Z-2.00000 F100.00000
G01 F200.00000
G01 X2.87650 Y14.32542
G00 Z-0.60000
G01 X2.78397 Y14.25819
G01 X2.70747 Y14.17325
G01 X2.65029 Y14.07422
G01 X2.61496 Y13.96545
G01 X2.60300 Y13.85171
G04 P0 ( dwell for no time -- G64 should not smooth over this point )
G00 Z5.00000 ( retract )

G00 X38.60300 Y13.85171 ( rapid move to begin. )
G01 Z-0.50000 F100.00000 ( plunge. )
G04 P0 ( dwell for no time -- G64 should not smooth over this point )
G01 F200.00000
G01 X38.61496 Y13.73800
G01 X38.65029 Y13.62928
G01 X38.70747 Y13.53022
G01 X38.78400 Y13.44524
G01 X38.87648 Y13.37803
G01 X38.98095 Y13.33155
G01 X39.01646 Y13.32399
G01 X39.09281 Y13.30775
G01 X39.20714 Y13.30775
G01 X39.31900 Y13.33152
G01 X39.39031 Y13.36327
G01 X39.42345 Y13.37803
G01 X39.51598 Y13.44526
G01 X39.59248 Y13.53022
G01 X39.64966 Y13.62928
G01 X39.68499 Y13.73800
G01 X39.69695 Y13.85171
G01 X39.68499 Y13.96545
G01 X39.64966 Y14.07422
G01 X39.59248 Y14.17325
G01 X39.51598 Y14.25819
G01 X39.42345 Y14.32542
G01 X39.31900 Y14.37193
G01 X39.28347 Y14.37948
G01 X39.20716 Y14.39570
G01 X39.09279 Y14.39570
G01 X38.98095 Y14.37193
G01 X38.90966 Y14.34019
G01 X38.87648 Y14.32542
G01 X38.78397 Y14.25821
G01 X38.70747 Y14.17325
G01 X38.65029 Y14.07422
G01 X38.61496 Y13.96545
G01 X38.60300 Y13.85171
G01 Z-1.00000 F100.00000 ( plunge. )
G04 P0 ( dwell for no time -- G64 should not smooth over this point )
G01 F200.00000
G00 Z-0.60000
G01 X38.61496 Y13.73800
G01 X38.65029 Y13.62928
G01 X38.70747 Y13.53022
G01 X38.78400 Y13.44524
G01 X38.87648 Y13.37803
G01 X38.98095 Y13.33155
G01 X39.01646 Y13.32399
G01 X39.09281 Y13.30775
G01 X39.20714 Y13.30775
G01 X39.31900 Y13.33152
G01 X39.39031 Y13.36327
G01 X39.42345 Y13.37803
G01 X39.51598 Y13.44526
G01 X39.59248 Y13.53022
G01 X39.64966 Y13.62928
G01 X39.68499 Y13.73800
G01 X39.69695 Y13.85171
G01 X39.68499 Y13.96545
G01 X39.64966 Y14.07422
G01 X39.59248 Y14.17325
G01 X39.51598 Y14.25819
G01 X39.42345 Y14.32542
G01 X39.31900 Y14.37193
G01 X39.28347 Y14.37948
G01 X39.20716 Y14.39570
G01 X39.09279 Y14.39570
G01 X38.98095 Y14.37193
G01 X38.90966 Y14.34019
G01 Z-1.00000 F100.00000
G01 F200.00000
G01 X38.87648 Y14.32542
G00 Z-0.60000
G01 X38.78397 Y14.25821
G01 X38.70747 Y14.17325
G01 X38.65029 Y14.07422
G01 X38.61496 Y13.96545
G01 X38.60300 Y13.85171
G01 Z-1.50000 F100.00000 ( plunge. )
G04 P0 ( dwell for no time -- G64 should not smooth over this point )
G01 F200.00000
G00 Z-0.60000
G01 X38.61496 Y13.73800
G01 X38.65029 Y13.62928
G01 X38.70747 Y13.53022
G01 X38.78400 Y13.44524
G01 X38.87648 Y13.37803
G01 X38.98095 Y13.33155
G01 X39.01646 Y13.32399
G01 X39.09281 Y13.30775
G01 X39.20714 Y13.30775
G01 X39.31900 Y13.33152
G01 X39.39031 Y13.36327
G01 X39.42345 Y13.37803
G01 X39.51598 Y13.44526
G01 X39.59248 Y13.53022
G01 X39.64966 Y13.62928
G01 X39.68499 Y13.73800
G01 X39.69695 Y13.85171
G01 X39.68499 Y13.96545
G01 X39.64966 Y14.07422
G01 X39.59248 Y14.17325
G01 X39.51598 Y14.25819
G01 X39.42345 Y14.32542
G01 X39.31900 Y14.37193
G01 X39.28347 Y14.37948
G01 X39.20716 Y14.39570
G01 X39.09279 Y14.39570
G01 X38.98095 Y14.37193
G01 X38.90966 Y14.34019
G01 Z-1.50000 F100.00000
G01 F200.00000
G01 X38.87648 Y14.32542
G00 Z-0.60000
G01 X38.78397 Y14.25821
G01 X38.70747 Y14.17325
G01 X38.65029 Y14.07422
G01 X38.61496 Y13.96545
G01 X38.60300 Y13.85171
G01 Z-2.00000 F100.00000 ( plunge. )
G04 P0 ( dwell for no time -- G64 should not smooth over this point )
G01 F200.00000
G00 Z-0.60000
G01 X38.61496 Y13.73800
G01 X38.65029 Y13.62928
G01 X38.70747 Y13.53022
G01 X38.78400 Y13.44524
G01 X38.87648 Y13.37803
G01 X38.98095 Y13.33155
G01 X39.01646 Y13.32399
G01 X39.09281 Y13.30775
G01 X39.20714 Y13.30775
G01 X39.31900 Y13.33152
G01 X39.39031 Y13.36327
G01 X39.42345 Y13.37803
G01 X39.51598 Y13.44526
G01 X39.59248 Y13.53022
G01 X39.64966 Y13.62928
G01 X39.68499 Y13.73800
G01 X39.69695 Y13.85171
G01 X39.68499 Y13.96545
G01 X39.64966 Y14.07422
G01 X39.59248 Y14.17325
G01 X39.51598 Y14.25819
G01 X39.42345 Y14.32542
G01 X39.31900 Y14.37193
G01 X39.28347 Y14.37948
G01 X39.20716 Y14.39570
G01 X39.09279 Y14.39570
G01 X38.98095 Y14.37193
G01 X38.90966 Y14.34019
G01 Z-2.00000 F100.00000
G01 F200.00000
G01 X38.87648 Y14.32542
G00 Z-0.60000
G01 X38.78397 Y14.25821
G01 X38.70747 Y14.17325
G01 X38.65029 Y14.07422
G01 X38.61496 Y13.96545
G01 X38.60300 Y13.85171
G04 P0 ( dwell for no time -- G64 should not smooth over this point )
G00 Z5.00000 ( retract )

G00 X20.60299 Y45.02864 ( rapid move to begin. )
G01 Z-0.50000 F100.00000 ( plunge. )
G04 P0 ( dwell for no time -- G64 should not smooth over this point )
G01 F200.00000
G01 X20.61495 Y44.91495
G01 X20.65031 Y44.80616
G01 X20.70748 Y44.70712
G01 X20.78396 Y44.62216
G01 X20.87649 Y44.55495
G01 X20.98096 Y44.50845
G01 X21.01648 Y44.50090
G01 X21.09280 Y44.48467
G01 X21.20715 Y44.48467
G01 X21.31899 Y44.50845
G01 X21.39028 Y44.54018
G01 X21.42346 Y44.55495
G01 X21.51599 Y44.62216
G01 X21.59249 Y44.70715
G01 X21.64967 Y44.80616
G01 X21.68500 Y44.91492
G01 X21.69696 Y45.02864
G01 X21.68500 Y45.14238
G01 X21.64967 Y45.25112
G01 X21.59249 Y45.35015
G01 X21.51599 Y45.43511
G01 X21.42346 Y45.50232
G01 X21.31899 Y45.54883
G01 X21.28349 Y45.55638
G01 X21.20712 Y45.57263
G01 X21.09282 Y45.57263
G01 X20.98096 Y45.54883
G01 X20.90966 Y45.51709
G01 X20.87649 Y45.50232
G01 X20.78396 Y45.43511
G01 X20.70748 Y45.35015
G01 X20.65031 Y45.25112
G01 X20.61495 Y45.14233
G01 X20.60299 Y45.02864
G01 Z-1.00000 F100.00000 ( plunge. )
G04 P0 ( dwell for no time -- G64 should not smooth over this point )
G01 F200.00000
G00 Z-0.60000
G01 X20.61495 Y44.91495
G01 X20.65031 Y44.80616
G01 X20.70748 Y44.70712
G01 X20.78396 Y44.62216
G01 X20.87649 Y44.55495
G01 X20.98096 Y44.50845
G01 X21.01648 Y44.50090
G01 X21.09280 Y44.48467
G01 X21.20715 Y44.48467
G01 X21.31899 Y44.50845
G01 X21.39028 Y44.54018
G01 X21.42346 Y44.55495
G01 X21.51599 Y44.62216
G01 X21.59249 Y44.70715
G01 X21.64967 Y44.80616
G01 X21.68500 Y44.91492
G01 X21.69696 Y45.02864
G01 X21.68500 Y45.14238
G01 X21.64967 Y45.25112
G01 X21.59249 Y45.35015
G01 X21.51599 Y45.43511
G01 X21.42346 Y45.50232
G01 X21.31899 Y45.54883
G01 X21.28349 Y45.55638
G01 X21.20712 Y45.57263
G01 X21.09282 Y45.57263
G01 X20.98096 Y45.54883
G01 X20.90966 Y45.51709
G01 Z-1.00000 F100.00000
G01 F200.00000
G01 X20.87649 Y45.50232
G00 Z-0.60000
G01 X20.78396 Y45.43511
G01 X20.70748 Y45.35015
G01 X20.65031 Y45.25112
G01 X20.61495 Y45.14233
G01 X20.60299 Y45.02864
G01 Z-1.50000 F100.00000 ( plunge. )
G04 P0 ( dwell for no time -- G64 should not smooth over this point )
G01 F200.00000
G00 Z-0.60000
G01 X20.61495 Y44.91495
G01 X20.65031 Y44.80616
G01 X20.70748 Y44.70712
G01 X20.78396 Y44.62216
G01 X20.87649 Y44.55495
G01 X20.98096 Y44.50845
G01 X21.01648 Y44.50090
G01 X21.09280 Y44.48467
G01 X21.20715 Y44.48467
G01 X21.31899 Y44.50845
G01 X21.39028 Y44.54018
G01 X21.42346 Y44.55495
G01 X21.51599 Y44.62216
G01 X21.59249 Y44.70715
G01 X21.64967 Y44.80616
G01 X21.68500 Y44.91492
G01 X21.69696 Y45.02864
G01 X21.68500 Y45.14238
G01 X21.64967 Y45.25112
G01 X21.59249 Y45.35015
G01 X21.51599 Y45.43511
G01 X21.42346 Y45.50232
G01 X21.31899 Y45.54883
G01 X21.28349 Y45.55638
G01 X21.20712 Y45.57263
G01 X21.09282 Y45.57263
G01 X20.98096 Y45.54883
G01 X20.90966 Y45.51709
G01 Z-1.50000 F100.00000
G01 F200.00000
G01 X20.87649 Y45.50232
G00 Z-0.60000
G01 X20.78396 Y45.43511
G01 X20.70748 Y45.35015
G01 X20.65031 Y45.25112
G01 X20.61495 Y45.14233
G01 X20.60299 Y45.02864
G01 Z-2.00000 F100.00000 ( plunge. )
G04 P0 ( dwell for no time -- G64 should not smooth over this point )
G01 F200.00000
G00 Z-0.60000
G01 X20.61495 Y44.91495
G01 X20.65031 Y44.80616
G01 X20.70748 Y44.70712
G01 X20.78396 Y44.62216
G01 X20.87649 Y44.55495
G01 X20.98096 Y44.50845
G01 X21.01648 Y44.50090
G01 X21.09280 Y44.48467
G01 X21.20715 Y44.48467
G01 X21.31899 Y44.50845
G01 X21.39028 Y44.54018
G01 X21.42346 Y44.55495
G01 X21.51599 Y44.62216
G01 X21.59249 Y44.70715
G01 X21.64967 Y44.80616
G01 X21.68500 Y44.91492
G01 X21.69696 Y45.02864
G01 X21.68500 Y45.14238
G01 X21.64967 Y45.25112
G01 X21.59249 Y45.35015
G01 X21.51599 Y45.43511
G01 X21.42346 Y45.50232
G01 X21.31899 Y45.54883
G01 X21.28349 Y45.55638
G01 X21.20712 Y45.57263
G01 X21.09282 Y45.57263
G01 X20.98096 Y45.54883
G01 X20.90966 Y45.51709
G01 Z-2.00000 F100.00000
G01 F200.00000
G01 X20.87649 Y45.50232
G00 Z-0.60000
G01 X20.78396 Y45.43511
G01 X20.70748 Y45.35015
G01 X20.65031 Y45.25112
G01 X20.61495 Y45.14233
G01 X20.60299 Y45.02864
G04 P0 ( dwell for no time -- G64 should not smooth over this point )
G00 Z5.00000 ( retract )

G00 X41.69997 Y17.60004 ( rapid move to begin. )
G01 Z-0.50000 F100.00000 ( plunge. )
G04 P0 ( dwell for no time -- G64 should not smooth over this point )
G01 F200.00000
G01 X42.20747 Y17.60004
G01 X44.30747 Y17.60002
G01 X44.81498 Y17.60002
G01 X44.92227 Y17.61058
G01 X45.02544 Y17.64187
G01 X45.12054 Y17.69270
G01 X45.20388 Y17.76110
G01 X45.27228 Y17.84444
G01 X45.32310 Y17.93956
G01 X45.35440 Y18.04271
G01 X45.36496 Y18.15003
G01 X45.36496 Y30.15000
G01 X45.35440 Y30.25732
G01 X45.32310 Y30.36049
G01 X45.27228 Y30.45559
G01 X45.20388 Y30.53893
G01 X45.12054 Y30.60733
G01 X45.02544 Y30.65816
G01 X44.92227 Y30.68945
G01 X44.81498 Y30.70001
G01 X44.30747 Y30.70001
G01 X42.20747 Y30.70001
G01 X41.69997 Y30.70001
G00 Z5.00000 ( retract )
G00 X41.69997 Y17.60004 ( rapid move to begin. )
G01 Z-1.00000 F100.00000 ( plunge. )
G04 P0 ( dwell for no time -- G64 should not smooth over this point )
G01 F200.00000
G01 X42.20747 Y17.60004
G00 Z-0.60000
G01 X44.30747 Y17.60002
G01 Z-1.00000 F100.00000
G01 F200.00000
G01 X44.81498 Y17.60002
G01 X44.92227 Y17.61058
G01 X45.02544 Y17.64187
G01 X45.12054 Y17.69270
G01 X45.20388 Y17.76110
G01 X45.27228 Y17.84444
G01 X45.32310 Y17.93956
G01 X45.35440 Y18.04271
G01 X45.36496 Y18.15003
G01 X45.36496 Y30.15000
G01 X45.35440 Y30.25732
G01 X45.32310 Y30.36049
G01 X45.27228 Y30.45559
G01 X45.20388 Y30.53893
G01 X45.12054 Y30.60733
G01 X45.02544 Y30.65816
G01 X44.92227 Y30.68945
G01 X44.81498 Y30.70001
G01 X44.30747 Y30.70001
G00 Z-0.60000
G01 X42.20747 Y30.70001
G01 Z-1.00000 F100.00000
G01 F200.00000
G01 X41.69997 Y30.70001
G00 Z5.00000 ( retract )
G00 X41.69997 Y17.60004 ( rapid move to begin. )
G01 Z-1.50000 F100.00000 ( plunge. )
G04 P0 ( dwell for no time -- G64 should not smooth over this point )
G01 F200.00000
G01 X42.20747 Y17.60004
G00 Z-0.60000
G01 X44.30747 Y17.60002
G01 Z-1.50000 F100.00000
G01 F200.00000
G01 X44.81498 Y17.60002
G01 X44.92227 Y17.61058
G01 X45.02544 Y17.64187
G01 X45.12054 Y17.69270
G01 X45.20388 Y17.76110
G01 X45.27228 Y17.84444
G01 X45.32310 Y17.93956
G01 X45.35440 Y18.04271
G01 X45.36496 Y18.15003
G01 X45.36496 Y30.15000
G01 X45.35440 Y30.25732
G01 X45.32310 Y30.36049
G01 X45.27228 Y30.45559
G01 X45.20388 Y30.53893
G01 X45.12054 Y30.60733
G01 X45.02544 Y30.65816
G01 X44.92227 Y30.68945
G01 X44.81498 Y30.70001
G01 X44.30747 Y30.70001
G00 Z-0.60000
G01 X42.20747 Y30.70001
G01 Z-1.50000 F100.00000
G01 F200.00000
G01 X41.69997 Y30.70001
G00 Z5.00000 ( retract )
G00 X41.69997 Y17.60004 ( rapid move to begin. )
G01 Z-2.00000 F100.00000 ( plunge. )
G04 P0 ( dwell for no time -- G64 should not smooth over this point )
G01 F200.00000
G01 X42.20747 Y17.60004
G00 Z-0.60000
G01 X44.30747 Y17.60002
G01 Z-2.00000 F100.00000
G01 F200.00000
G01 X44.81498 Y17.60002
G01 X44.92227 Y17.61058
G01 X45.02544 Y17.64187
G01 X45.12054 Y17.69270
G01 X45.20388 Y17.76110
G01 X45.27228 Y17.84444
G01 X45.32310 Y17.93956
G01 X45.35440 Y18.04271
G01 X45.36496 Y18.15003
G01 X45.36496 Y30.15000
G01 X45.35440 Y30.25732
G01 X45.32310 Y30.36049
G01 X45.27228 Y30.45559
G01 X45.20388 Y30.53893
G01 X45.12054 Y30.60733
G01 X45.02544 Y30.65816
G01 X44.92227 Y30.68945
G01 X44.81498 Y30.70001
G01 X44.30747 Y30.70001
G00 Z-0.60000
G01 X42.20747 Y30.70001
G01 Z-2.00000 F100.00000
G01 F200.00000
G01 X41.69997 Y30.70001
G04 P0 ( dwell for no time -- G64 should not smooth over this point )
G00 Z5.00000 ( retract )

G00 X40.59997 Y18.70006 ( rapid move to begin. )
G01 Z-0.50000 F100.00000 ( plunge. )
G04 P0 ( dwell for no time -- G64 should not smooth over this point )
G01 F200.00000
G01 X35.29998 Y18.70001
G01 X35.29998 Y29.60002
G01 X40.59997 Y29.60002
G01 X41.69997 Y30.70001
G01 X41.69997 Y35.79104
G01 X41.69161 Y35.88657
G01 X41.66680 Y35.97915
G01 X41.62629 Y36.06604
G01 X41.57129 Y36.14458
G01 X41.50350 Y36.21237
G01 X41.42497 Y36.26736
G01 X21.42498 Y47.81436
G01 X21.33809 Y47.85487
G01 X21.24550 Y47.87969
G01 X21.15000 Y47.88804
G01 X21.05447 Y47.87969
G01 X20.96189 Y47.85487
G01 X20.87499 Y47.81436
G01 X0.87498 Y36.26736
G01 X0.79645 Y36.21237
G01 X0.72865 Y36.14458
G01 X0.67366 Y36.06604
G01 X0.63315 Y35.97915
G01 X0.60833 Y35.88657
G01 X0.59998 Y35.79104
G01 X0.59998 Y25.29403
G01 X0.59998 Y23.19403
G01 X0.59998 Y12.69703
G01 X0.60833 Y12.60152
G01 X0.63315 Y12.50894
G01 X0.67366 Y12.42205
G01 X0.72865 Y12.34351
G01 X0.79645 Y12.27572
G01 X0.87498 Y12.22073
G01 X20.87499 Y0.67371
G01 X20.96189 Y0.63320
G01 X21.05447 Y0.60838
G01 X21.15000 Y0.60002
G01 X21.24550 Y0.60838
G01 X21.33809 Y0.63320
G01 X21.42498 Y0.67371
G01 X41.42497 Y12.22073
G01 X41.50350 Y12.27572
G01 X41.57129 Y12.34351
G01 X41.62629 Y12.42205
G01 X41.66680 Y12.50894
G01 X41.69161 Y12.60152
G01 X41.69997 Y12.69703
G01 X41.69997 Y14.09853
G01 X41.69997 Y16.19853
G01 X41.69997 Y17.60004
G01 X40.59997 Y18.70006
G01 X40.59997 Y29.60002
G00 Z5.00000 ( retract )
G00 X40.59997 Y18.70006 ( rapid move to begin. )
G01 Z-1.00000 F100.00000 ( plunge. )
G04 P0 ( dwell for no time -- G64 should not smooth over this point )
G01 F200.00000
G01 X35.29998 Y18.70001
G01 X35.29998 Y29.60002
G01 X40.59997 Y29.60002
G01 X41.69997 Y30.70001
G01 X41.69997 Y35.79104
G01 X41.69161 Y35.88657
G01 X41.66680 Y35.97915
G01 X41.62629 Y36.06604
G01 X41.57129 Y36.14458
G01 X41.50350 Y36.21237
G01 X41.42497 Y36.26736
G01 X21.42498 Y47.81436
G01 X21.33809 Y47.85487
G01 X21.24550 Y47.87969
G01 X21.15000 Y47.88804
G01 X21.05447 Y47.87969
G01 X20.96189 Y47.85487
G01 X20.87499 Y47.81436
G01 X0.87498 Y36.26736
G01 X0.79645 Y36.21237
G01 X0.72865 Y36.14458
G01 X0.67366 Y36.06604
G01 X0.63315 Y35.97915
G01 X0.60833 Y35.88657
G01 X0.59998 Y35.79104
G01 X0.59998 Y25.29403
G00 Z-0.60000
G01 X0.59998 Y23.19403
G01 Z-1.00000 F100.00000
G01 F200.00000
G01 X0.59998 Y12.69703
G01 X0.60833 Y12.60152
G01 X0.63315 Y12.50894
G01 X0.67366 Y12.42205
G01 X0.72865 Y12.34351
G01 X0.79645 Y12.27572
G01 X0.87498 Y12.22073
G01 X20.87499 Y0.67371
G01 X20.96189 Y0.63320
G01 X21.05447 Y0.60838
G01 X21.15000 Y0.60002
G01 X21.24550 Y0.60838
G01 X21.33809 Y0.63320
G01 X21.42498 Y0.67371
G01 X41.42497 Y12.22073
G01 X41.50350 Y12.27572
G01 X41.57129 Y12.34351
G01 X41.62629 Y12.42205
G01 X41.66680 Y12.50894
G01 X41.69161 Y12.60152
G01 X41.69997 Y12.69703
G01 X41.69997 Y14.09853
G00 Z-0.60000
G01 X41.69997 Y16.19853
G01 Z-1.00000 F100.00000
G01 F200.00000
G01 X41.69997 Y17.60004
G01 X40.59997 Y18.70006
G01 X40.59997 Y29.60002
G00 Z5.00000 ( retract )
G00 X40.59997 Y18.70006 ( rapid move to begin. )
G01 Z-1.50000 F100.00000 ( plunge. )
G04 P0 ( dwell for no time -- G64 should not smooth over this point )
G01 F200.00000
G01 X35.29998 Y18.70001
G01 X35.29998 Y29.60002
G01 X40.59997 Y29.60002
G01 X41.69997 Y30.70001
G01 X41.69997 Y35.79104
G01 X41.69161 Y35.88657
G01 X41.66680 Y35.97915
G01 X41.62629 Y36.06604
G01 X41.57129 Y36.14458
G01 X41.50350 Y36.21237
G01 X41.42497 Y36.26736
G01 X21.42498 Y47.81436
G01 X21.33809 Y47.85487
G01 X21.24550 Y47.87969
G01 X21.15000 Y47.88804
G01 X21.05447 Y47.87969
G01 X20.96189 Y47.85487
G01 X20.87499 Y47.81436
G01 X0.87498 Y36.26736
G01 X0.79645 Y36.21237
G01 X0.72865 Y36.14458
G01 X0.67366 Y36.06604
G01 X0.63315 Y35.97915
G01 X0.60833 Y35.88657
G01 X0.59998 Y35.79104
G01 X0.59998 Y25.29403
G00 Z-0.60000
G01 X0.59998 Y23.19403
G01 Z-1.50000 F100.00000
G01 F200.00000
G01 X0.59998 Y12.69703
G01 X0.60833 Y12.60152
G01 X0.63315 Y12.50894
G01 X0.67366 Y12.42205
G01 X0.72865 Y12.34351
G01 X0.79645 Y12.27572
G01 X0.87498 Y12.22073
G01 X20.87499 Y0.67371
G01 X20.96189 Y0.63320
G01 X21.05447 Y0.60838
G01 X21.15000 Y0.60002
G01 X21.24550 Y0.60838
G01 X21.33809 Y0.63320
G01 X21.42498 Y0.67371
G01 X41.42497 Y12.22073
G01 X41.50350 Y12.27572
G01 X41.57129 Y12.34351
G01 X41.62629 Y12.42205
G01 X41.66680 Y12.50894
G01 X41.69161 Y12.60152
G01 X41.69997 Y12.69703
G01 X41.69997 Y14.09853
G00 Z-0.60000
G01 X41.69997 Y16.19853
G01 Z-1.50000 F100.00000
G01 F200.00000
G01 X41.69997 Y17.60004
G01 X40.59997 Y18.70006
G01 X40.59997 Y29.60002
G00 Z5.00000 ( retract )
G00 X40.59997 Y18.70006 ( rapid move to begin. )
G01 Z-2.00000 F100.00000 ( plunge. )
G04 P0 ( dwell for no time -- G64 should not smooth over this point )
G01 F200.00000
G01 X35.29998 Y18.70001
G01 X35.29998 Y29.60002
G01 X40.59997 Y29.60002
G01 X41.69997 Y30.70001
G01 X41.69997 Y35.79104
G01 X41.69161 Y35.88657
G01 X41.66680 Y35.97915
G01 X41.62629 Y36.06604
G01 X41.57129 Y36.14458
G01 X41.50350 Y36.21237
G01 X41.42497 Y36.26736
G01 X21.42498 Y47.81436
G01 X21.33809 Y47.85487
G01 X21.24550 Y47.87969
G01 X21.15000 Y47.88804
G01 X21.05447 Y47.87969
G01 X20.96189 Y47.85487
G01 X20.87499 Y47.81436
G01 X0.87498 Y36.26736
G01 X0.79645 Y36.21237
G01 X0.72865 Y36.14458
G01 X0.67366 Y36.06604
G01 X0.63315 Y35.97915
G01 X0.60833 Y35.88657
G01 X0.59998 Y35.79104
G01 X0.59998 Y25.29403
G00 Z-0.60000
G01 X0.59998 Y23.19403
G01 Z-2.00000 F100.00000
G01 F200.00000
G01 X0.59998 Y12.69703
G01 X0.60833 Y12.60152
G01 X0.63315 Y12.50894
G01 X0.67366 Y12.42205
G01 X0.72865 Y12.34351
G01 X0.79645 Y12.27572
G01 X0.87498 Y12.22073
G01 X20.87499 Y0.67371
G01 X20.96189 Y0.63320
G01 X21.05447 Y0.60838
G01 X21.15000 Y0.60002
G01 X21.24550 Y0.60838
G01 X21.33809 Y0.63320
G01 X21.42498 Y0.67371
G01 X41.42497 Y12.22073
G01 X41.50350 Y12.27572
G01 X41.57129 Y12.34351
G01 X41.62629 Y12.42205
G01 X41.66680 Y12.50894
G01 X41.69161 Y12.60152
G01 X41.69997 Y12.69703
G01 X41.69997 Y14.09853
G00 Z-0.60000
G01 X41.69997 Y16.19853
G01 Z-2.00000 F100.00000
G01 F200.00000
G01 X41.69997 Y17.60004
G01 X40.59997 Y18.70006
G01 X40.59997 Y29.60002

G04 P0 ( dwell for no time -- G64 should not smooth over this point )
G00 Z10.000000 ( retract )

M5 ( Spindle off. )
G04 P1.000000
M9 ( Coolant off. )
M2 ( Program end. )

