( pcb2gcode 2.5.0 )
( Software-independent Gcode )

G94 ( Millimeters per minute feed rate. )
G21 ( Units == Millimeters. )

G90 ( Absolute coordinates. )
G00 S10000 ( RPM spindle speed. )
G64 P0.01016 ( set maximum deviation from commanded toolpath )
G01 F200.00000 ( Feedrate. )


G00 Z10.00000 (Retract to tool change height)
T0
M5      (Spindle stop.)
G04 P1.00000 (Wait for spindle to stop)
(MSG, Change tool bit to cutter diameter 0.80000mm)
M6      (Tool change.)
M0      (Temporary machine stop.)
M3 ( Spindle on clockwise. )
G04 P1.00000 (Wait for spindle to get up to speed)
G04 P0 ( dwell for no time -- G64 should not smooth over this point )
G00 Z5.00000 ( retract )

G00 X20.15216 Y3.15943 ( rapid move to begin. )
G01 Z-0.50000 F100.00000 ( plunge. )
G04 P0 ( dwell for no time -- G64 should not smooth over this point )
G01 F200.00000
G01 X20.16743 Y3.01437
G01 X20.21254 Y2.87558
G01 X20.28546 Y2.74924
G01 X20.38305 Y2.64086
G01 X20.50108 Y2.55511
G01 X20.63433 Y2.49578
G01 X20.72986 Y2.47549
G01 X20.77703 Y2.46548
G01 X20.92292 Y2.46548
G01 X21.06562 Y2.49578
G01 X21.10966 Y2.51539
G01 X21.19887 Y2.55511
G01 X21.31690 Y2.64086
G01 X21.41451 Y2.74927
G01 X21.48746 Y2.87561
G01 X21.53252 Y3.01434
G01 X21.54779 Y3.15943
G01 X21.53252 Y3.30449
G01 X21.48744 Y3.44327
G01 X21.41451 Y3.56959
G01 X21.31693 Y3.67797
G01 X21.19889 Y3.76372
G01 X21.06559 Y3.82308
G01 X20.97009 Y3.84337
G01 X20.92292 Y3.85338
G01 X20.77703 Y3.85338
G01 X20.63435 Y3.82308
G01 X20.59031 Y3.80347
G01 X20.50105 Y3.76372
G01 X20.38305 Y3.67800
G01 X20.28546 Y3.56961
G01 X20.21254 Y3.44327
G01 X20.16743 Y3.30446
G01 X20.15216 Y3.15943
G01 Z-1.00000 F100.00000 ( plunge. )
G04 P0 ( dwell for no time -- G64 should not smooth over this point )
G01 F200.00000
G00 Z-0.60000
G01 X20.16743 Y3.01437
G01 X20.21254 Y2.87558
G01 X20.28546 Y2.74924
G01 X20.38305 Y2.64086
G01 X20.50108 Y2.55511
G01 X20.63433 Y2.49578
G01 X20.72986 Y2.47549
G01 Z-1.00000 F100.00000
G01 F200.00000
G01 X20.77703 Y2.46548
G01 X20.92292 Y2.46548
G01 X21.06562 Y2.49578
G01 X21.10966 Y2.51539
G00 Z-0.60000
G01 X21.19887 Y2.55511
G01 X21.31690 Y2.64086
G01 X21.41451 Y2.74927
G01 X21.48746 Y2.87561
G01 X21.53252 Y3.01434
G01 X21.54779 Y3.15943
G01 X21.53252 Y3.30449
G01 X21.48744 Y3.44327
G01 X21.41451 Y3.56959
G01 X21.31693 Y3.67797
G01 X21.19889 Y3.76372
G01 X21.06559 Y3.82308
G01 X20.97009 Y3.84337
G01 Z-1.00000 F100.00000
G01 F200.00000
G01 X20.92292 Y3.85338
G01 X20.77703 Y3.85338
G01 X20.63435 Y3.82308
G01 X20.59031 Y3.80347
G00 Z-0.60000
G01 X20.50105 Y3.76372
G01 X20.38305 Y3.67800
G01 X20.28546 Y3.56961
G01 X20.21254 Y3.44327
G01 X20.16743 Y3.30446
G01 X20.15216 Y3.15943
G01 Z-1.50000 F100.00000 ( plunge. )
G04 P0 ( dwell for no time -- G64 should not smooth over this point )
G01 F200.00000
G00 Z-0.60000
G01 X20.16743 Y3.01437
G01 X20.21254 Y2.87558
G01 X20.28546 Y2.74924
G01 X20.38305 Y2.64086
G01 X20.50108 Y2.55511
G01 X20.63433 Y2.49578
G01 X20.72986 Y2.47549
G01 Z-1.50000 F100.00000
G01 F200.00000
G01 X20.77703 Y2.46548
G01 X20.92292 Y2.46548
G01 X21.06562 Y2.49578
G01 X21.10966 Y2.51539
G00 Z-0.60000
G01 X21.19887 Y2.55511
G01 X21.31690 Y2.64086
G01 X21.41451 Y2.74927
G01 X21.48746 Y2.87561
G01 X21.53252 Y3.01434
G01 X21.54779 Y3.15943
G01 X21.53252 Y3.30449
G01 X21.48744 Y3.44327
G01 X21.41451 Y3.56959
G01 X21.31693 Y3.67797
G01 X21.19889 Y3.76372
G01 X21.06559 Y3.82308
G01 X20.97009 Y3.84337
G01 Z-1.50000 F100.00000
G01 F200.00000
G01 X20.92292 Y3.85338
G01 X20.77703 Y3.85338
G01 X20.63435 Y3.82308
G01 X20.59031 Y3.80347
G00 Z-0.60000
G01 X20.50105 Y3.76372
G01 X20.38305 Y3.67800
G01 X20.28546 Y3.56961
G01 X20.21254 Y3.44327
G01 X20.16743 Y3.30446
G01 X20.15216 Y3.15943
G01 Z-2.00000 F100.00000 ( plunge. )
G04 P0 ( dwell for no time -- G64 should not smooth over this point )
G01 F200.00000
G00 Z-0.60000
G01 X20.16743 Y3.01437
G01 X20.21254 Y2.87558
G01 X20.28546 Y2.74924
G01 X20.38305 Y2.64086
G01 X20.50108 Y2.55511
G01 X20.63433 Y2.49578
G01 X20.72986 Y2.47549
G01 Z-2.00000 F100.00000
G01 F200.00000
G01 X20.77703 Y2.46548
G01 X20.92292 Y2.46548
G01 X21.06562 Y2.49578
G01 X21.10966 Y2.51539
G00 Z-0.60000
G01 X21.19887 Y2.55511
G01 X21.31690 Y2.64086
G01 X21.41451 Y2.74927
G01 X21.48746 Y2.87561
G01 X21.53252 Y3.01434
G01 X21.54779 Y3.15943
G01 X21.53252 Y3.30449
G01 X21.48744 Y3.44327
G01 X21.41451 Y3.56959
G01 X21.31693 Y3.67797
G01 X21.19889 Y3.76372
G01 X21.06559 Y3.82308
G01 X20.97009 Y3.84337
G01 Z-2.00000 F100.00000
G01 F200.00000
G01 X20.92292 Y3.85338
G01 X20.77703 Y3.85338
G01 X20.63435 Y3.82308
G01 X20.59031 Y3.80347
G00 Z-0.60000
G01 X20.50105 Y3.76372
G01 X20.38305 Y3.67800
G01 X20.28546 Y3.56961
G01 X20.21254 Y3.44327
G01 X20.16743 Y3.30446
G01 X20.15216 Y3.15943
G04 P0 ( dwell for no time -- G64 should not smooth over this point )
G00 Z5.00000 ( retract )

G00 X2.15217 Y34.33633 ( rapid move to begin. )
G01 Z-0.50000 F100.00000 ( plunge. )
G04 P0 ( dwell for no time -- G64 should not smooth over this point )
G01 F200.00000
G01 X2.16741 Y34.19124
G01 X2.21250 Y34.05251
G01 X2.28544 Y33.92620
G01 X2.38306 Y33.81779
G01 X2.50109 Y33.73204
G01 X2.63434 Y33.67270
G01 X2.77706 Y33.64235
G01 X2.87471 Y33.64235
G01 X2.92288 Y33.64235
G01 X3.06561 Y33.67270
G01 X3.19888 Y33.73204
G01 X3.23788 Y33.76037
G01 X3.31689 Y33.81779
G01 X3.41450 Y33.92622
G01 X3.48745 Y34.05251
G01 X3.53253 Y34.19127
G01 X3.54777 Y34.33633
G01 X3.53253 Y34.48141
G01 X3.48745 Y34.62017
G01 X3.41450 Y34.74646
G01 X3.31689 Y34.85490
G01 X3.19888 Y34.94065
G01 X3.06561 Y34.99998
G01 X2.92288 Y35.03033
G01 X2.82525 Y35.03033
G01 X2.77706 Y35.03033
G01 X2.63434 Y34.99998
G01 X2.50109 Y34.94065
G01 X2.46206 Y34.91229
G01 X2.38306 Y34.85490
G01 X2.28544 Y34.74649
G01 X2.21250 Y34.62017
G01 X2.16741 Y34.48144
G01 X2.15217 Y34.33633
G01 Z-1.00000 F100.00000 ( plunge. )
G04 P0 ( dwell for no time -- G64 should not smooth over this point )
G01 F200.00000
G00 Z-0.60000
G01 X2.16741 Y34.19124
G01 X2.21250 Y34.05251
G01 X2.28544 Y33.92620
G01 X2.38306 Y33.81779
G01 X2.50109 Y33.73204
G01 X2.63434 Y33.67270
G01 X2.77706 Y33.64235
G01 X2.87471 Y33.64235
G01 Z-1.00000 F100.00000
G01 F200.00000
G01 X2.92288 Y33.64235
G01 X3.06561 Y33.67270
G01 X3.19888 Y33.73204
G01 X3.23788 Y33.76037
G00 Z-0.60000
G01 X3.31689 Y33.81779
G01 X3.41450 Y33.92622
G01 X3.48745 Y34.05251
G01 X3.53253 Y34.19127
G01 X3.54777 Y34.33633
G01 X3.53253 Y34.48141
G01 X3.48745 Y34.62017
G01 X3.41450 Y34.74646
G01 X3.31689 Y34.85490
G01 X3.19888 Y34.94065
G01 X3.06561 Y34.99998
G01 X2.92288 Y35.03033
G01 X2.82525 Y35.03033
G01 Z-1.00000 F100.00000
G01 F200.00000
G01 X2.77706 Y35.03033
G01 X2.63434 Y34.99998
G01 X2.50109 Y34.94065
G01 X2.46206 Y34.91229
G00 Z-0.60000
G01 X2.38306 Y34.85490
G01 X2.28544 Y34.74649
G01 X2.21250 Y34.62017
G01 X2.16741 Y34.48144
G01 X2.15217 Y34.33633
G01 Z-1.50000 F100.00000 ( plunge. )
G04 P0 ( dwell for no time -- G64 should not smooth over this point )
G01 F200.00000
G00 Z-0.60000
G01 X2.16741 Y34.19124
G01 X2.21250 Y34.05251
G01 X2.28544 Y33.92620
G01 X2.38306 Y33.81779
G01 X2.50109 Y33.73204
G01 X2.63434 Y33.67270
G01 X2.77706 Y33.64235
G01 X2.87471 Y33.64235
G01 Z-1.50000 F100.00000
G01 F200.00000
G01 X2.92288 Y33.64235
G01 X3.06561 Y33.67270
G01 X3.19888 Y33.73204
G01 X3.23788 Y33.76037
G00 Z-0.60000
G01 X3.31689 Y33.81779
G01 X3.41450 Y33.92622
G01 X3.48745 Y34.05251
G01 X3.53253 Y34.19127
G01 X3.54777 Y34.33633
G01 X3.53253 Y34.48141
G01 X3.48745 Y34.62017
G01 X3.41450 Y34.74646
G01 X3.31689 Y34.85490
G01 X3.19888 Y34.94065
G01 X3.06561 Y34.99998
G01 X2.92288 Y35.03033
G01 X2.82525 Y35.03033
G01 Z-1.50000 F100.00000
G01 F200.00000
G01 X2.77706 Y35.03033
G01 X2.63434 Y34.99998
G01 X2.50109 Y34.94065
G01 X2.46206 Y34.91229
G00 Z-0.60000
G01 X2.38306 Y34.85490
G01 X2.28544 Y34.74649
G01 X2.21250 Y34.62017
G01 X2.16741 Y34.48144
G01 X2.15217 Y34.33633
G01 Z-2.00000 F100.00000 ( plunge. )
G04 P0 ( dwell for no time -- G64 should not smooth over this point )
G01 F200.00000
G00 Z-0.60000
G01 X2.16741 Y34.19124
G01 X2.21250 Y34.05251
G01 X2.28544 Y33.92620
G01 X2.38306 Y33.81779
G01 X2.50109 Y33.73204
G01 X2.63434 Y33.67270
G01 X2.77706 Y33.64235
G01 X2.87471 Y33.64235
G01 Z-2.00000 F100.00000
G01 F200.00000
G01 X2.92288 Y33.64235
G01 X3.06561 Y33.67270
G01 X3.19888 Y33.73204
G01 X3.23788 Y33.76037
G00 Z-0.60000
G01 X3.31689 Y33.81779
G01 X3.41450 Y33.92622
G01 X3.48745 Y34.05251
G01 X3.53253 Y34.19127
G01 X3.54777 Y34.33633
G01 X3.53253 Y34.48141
G01 X3.48745 Y34.62017
G01 X3.41450 Y34.74646
G01 X3.31689 Y34.85490
G01 X3.19888 Y34.94065
G01 X3.06561 Y34.99998
G01 X2.92288 Y35.03033
G01 X2.82525 Y35.03033
G01 Z-2.00000 F100.00000
G01 F200.00000
G01 X2.77706 Y35.03033
G01 X2.63434 Y34.99998
G01 X2.50109 Y34.94065
G01 X2.46206 Y34.91229
G00 Z-0.60000
G01 X2.38306 Y34.85490
G01 X2.28544 Y34.74649
G01 X2.21250 Y34.62017
G01 X2.16741 Y34.48144
G01 X2.15217 Y34.33633
G04 P0 ( dwell for no time -- G64 should not smooth over this point )
G00 Z5.00000 ( retract )

G00 X38.15217 Y34.33633 ( rapid move to begin. )
G01 Z-0.50000 F100.00000 ( plunge. )
G04 P0 ( dwell for no time -- G64 should not smooth over this point )
G01 F200.00000
G01 X38.16741 Y34.19124
G01 X38.21250 Y34.05251
G01 X38.28545 Y33.92620
G01 X38.38306 Y33.81779
G01 X38.50107 Y33.73204
G01 X38.63434 Y33.67270
G01 X38.77707 Y33.64235
G01 X38.87471 Y33.64235
G01 X38.92289 Y33.64235
G01 X39.06561 Y33.67270
G01 X39.19886 Y33.73204
G01 X39.23787 Y33.76038
G01 X39.31689 Y33.81779
G01 X39.41450 Y33.92622
G01 X39.48745 Y34.05251
G01 X39.53254 Y34.19127
G01 X39.54778 Y34.33633
G01 X39.53254 Y34.48141
G01 X39.48745 Y34.62017
G01 X39.41450 Y34.74646
G01 X39.31689 Y34.85490
G01 X39.19886 Y34.94065
G01 X39.06561 Y34.99998
G01 X38.92289 Y35.03033
G01 X38.82525 Y35.03033
G01 X38.77707 Y35.03033
G01 X38.63434 Y34.99998
G01 X38.50107 Y34.94065
G01 X38.46206 Y34.91230
G01 X38.38306 Y34.85490
G01 X38.28545 Y34.74649
G01 X38.21250 Y34.62017
G01 X38.16741 Y34.48144
G01 X38.15217 Y34.33633
G01 Z-1.00000 F100.00000 ( plunge. )
G04 P0 ( dwell for no time -- G64 should not smooth over this point )
G01 F200.00000
G00 Z-0.60000
G01 X38.16741 Y34.19124
G01 X38.21250 Y34.05251
G01 X38.28545 Y33.92620
G01 X38.38306 Y33.81779
G01 X38.50107 Y33.73204
G01 X38.63434 Y33.67270
G01 X38.77707 Y33.64235
G01 X38.87471 Y33.64235
G01 Z-1.00000 F100.00000
G01 F200.00000
G01 X38.92289 Y33.64235
G01 X39.06561 Y33.67270
G01 X39.19886 Y33.73204
G01 X39.23787 Y33.76038
G00 Z-0.60000
G01 X39.31689 Y33.81779
G01 X39.41450 Y33.92622
G01 X39.48745 Y34.05251
G01 X39.53254 Y34.19127
G01 X39.54778 Y34.33633
G01 X39.53254 Y34.48141
G01 X39.48745 Y34.62017
G01 X39.41450 Y34.74646
G01 X39.31689 Y34.85490
G01 X39.19886 Y34.94065
G01 X39.06561 Y34.99998
G01 X38.92289 Y35.03033
G01 X38.82525 Y35.03033
G01 Z-1.00000 F100.00000
G01 F200.00000
G01 X38.77707 Y35.03033
G01 X38.63434 Y34.99998
G01 X38.50107 Y34.94065
G01 X38.46206 Y34.91230
G00 Z-0.60000
G01 X38.38306 Y34.85490
G01 X38.28545 Y34.74649
G01 X38.21250 Y34.62017
G01 X38.16741 Y34.48144
G01 X38.15217 Y34.33633
G01 Z-1.50000 F100.00000 ( plunge. )
G04 P0 ( dwell for no time -- G64 should not smooth over this point )
G01 F200.00000
G00 Z-0.60000
G01 X38.16741 Y34.19124
G01 X38.21250 Y34.05251
G01 X38.28545 Y33.92620
G01 X38.38306 Y33.81779
G01 X38.50107 Y33.73204
G01 X38.63434 Y33.67270
G01 X38.77707 Y33.64235
G01 X38.87471 Y33.64235
G01 Z-1.50000 F100.00000
G01 F200.00000
G01 X38.92289 Y33.64235
G01 X39.06561 Y33.67270
G01 X39.19886 Y33.73204
G01 X39.23787 Y33.76038
G00 Z-0.60000
G01 X39.31689 Y33.81779
G01 X39.41450 Y33.92622
G01 X39.48745 Y34.05251
G01 X39.53254 Y34.19127
G01 X39.54778 Y34.33633
G01 X39.53254 Y34.48141
G01 X39.48745 Y34.62017
G01 X39.41450 Y34.74646
G01 X39.31689 Y34.85490
G01 X39.19886 Y34.94065
G01 X39.06561 Y34.99998
G01 X38.92289 Y35.03033
G01 X38.82525 Y35.03033
G01 Z-1.50000 F100.00000
G01 F200.00000
G01 X38.77707 Y35.03033
G01 X38.63434 Y34.99998
G01 X38.50107 Y34.94065
G01 X38.46206 Y34.91230
G00 Z-0.60000
G01 X38.38306 Y34.85490
G01 X38.28545 Y34.74649
G01 X38.21250 Y34.62017
G01 X38.16741 Y34.48144
G01 X38.15217 Y34.33633
G01 Z-2.00000 F100.00000 ( plunge. )
G04 P0 ( dwell for no time -- G64 should not smooth over this point )
G01 F200.00000
G00 Z-0.60000
G01 X38.16741 Y34.19124
G01 X38.21250 Y34.05251
G01 X38.28545 Y33.92620
G01 X38.38306 Y33.81779
G01 X38.50107 Y33.73204
G01 X38.63434 Y33.67270
G01 X38.77707 Y33.64235
G01 X38.87471 Y33.64235
G01 Z-2.00000 F100.00000
G01 F200.00000
G01 X38.92289 Y33.64235
G01 X39.06561 Y33.67270
G01 X39.19886 Y33.73204
G01 X39.23787 Y33.76038
G00 Z-0.60000
G01 X39.31689 Y33.81779
G01 X39.41450 Y33.92622
G01 X39.48745 Y34.05251
G01 X39.53254 Y34.19127
G01 X39.54778 Y34.33633
G01 X39.53254 Y34.48141
G01 X39.48745 Y34.62017
G01 X39.41450 Y34.74646
G01 X39.31689 Y34.85490
G01 X39.19886 Y34.94065
G01 X39.06561 Y34.99998
G01 X38.92289 Y35.03033
G01 X38.82525 Y35.03033
G01 Z-2.00000 F100.00000
G01 F200.00000
G01 X38.77707 Y35.03033
G01 X38.63434 Y34.99998
G01 X38.50107 Y34.94065
G01 X38.46206 Y34.91230
G00 Z-0.60000
G01 X38.38306 Y34.85490
G01 X38.28545 Y34.74649
G01 X38.21250 Y34.62017
G01 X38.16741 Y34.48144
G01 X38.15217 Y34.33633
G04 P0 ( dwell for no time -- G64 should not smooth over this point )
G00 Z5.00000 ( retract )

G00 X20.15216 Y44.72864 ( rapid move to begin. )
G01 Z-0.50000 F100.00000 ( plunge. )
G04 P0 ( dwell for no time -- G64 should not smooth over this point )
G01 F200.00000
G01 X20.16743 Y44.58360
G01 X20.21254 Y44.44479
G01 X20.28546 Y44.31848
G01 X20.38305 Y44.21007
G01 X20.50108 Y44.12435
G01 X20.63435 Y44.06499
G01 X20.72986 Y44.04470
G01 X20.77703 Y44.03468
G01 X20.92292 Y44.03468
G01 X21.06559 Y44.06499
G01 X21.10965 Y44.08461
G01 X21.19887 Y44.12435
G01 X21.31690 Y44.21007
G01 X21.41451 Y44.31848
G01 X21.48744 Y44.44482
G01 X21.53252 Y44.58358
G01 X21.54779 Y44.72864
G01 X21.53252 Y44.87372
G01 X21.48746 Y45.01246
G01 X21.41451 Y45.13880
G01 X21.31690 Y45.24720
G01 X21.19889 Y45.33295
G01 X21.06559 Y45.39229
G01 X20.97009 Y45.41259
G01 X20.92290 Y45.42262
G01 X20.77708 Y45.42262
G01 X20.63435 Y45.39229
G01 X20.59031 Y45.37268
G01 X20.50105 Y45.33295
G01 X20.38305 Y45.24720
G01 X20.28543 Y45.13880
G01 X20.21254 Y45.01248
G01 X20.16743 Y44.87370
G01 X20.15216 Y44.72864
G01 Z-1.00000 F100.00000 ( plunge. )
G04 P0 ( dwell for no time -- G64 should not smooth over this point )
G01 F200.00000
G00 Z-0.60000
G01 X20.16743 Y44.58360
G01 X20.21254 Y44.44479
G01 X20.28546 Y44.31848
G01 X20.38305 Y44.21007
G01 X20.50108 Y44.12435
G01 X20.63435 Y44.06499
G01 X20.72986 Y44.04470
G01 Z-1.00000 F100.00000
G01 F200.00000
G01 X20.77703 Y44.03468
G01 X20.92292 Y44.03468
G01 X21.06559 Y44.06499
G01 X21.10965 Y44.08461
G00 Z-0.60000
G01 X21.19887 Y44.12435
G01 X21.31690 Y44.21007
G01 X21.41451 Y44.31848
G01 X21.48744 Y44.44482
G01 X21.53252 Y44.58358
G01 X21.54779 Y44.72864
G01 X21.53252 Y44.87372
G01 X21.48746 Y45.01246
G01 X21.41451 Y45.13880
G01 X21.31690 Y45.24720
G01 X21.19889 Y45.33295
G01 X21.06559 Y45.39229
G01 X20.97009 Y45.41259
G01 Z-1.00000 F100.00000
G01 F200.00000
G01 X20.92290 Y45.42262
G01 X20.77708 Y45.42262
G01 X20.63435 Y45.39229
G01 X20.59031 Y45.37268
G00 Z-0.60000
G01 X20.50105 Y45.33295
G01 X20.38305 Y45.24720
G01 X20.28543 Y45.13880
G01 X20.21254 Y45.01248
G01 X20.16743 Y44.87370
G01 X20.15216 Y44.72864
G01 Z-1.50000 F100.00000 ( plunge. )
G04 P0 ( dwell for no time -- G64 should not smooth over this point )
G01 F200.00000
G00 Z-0.60000
G01 X20.16743 Y44.58360
G01 X20.21254 Y44.44479
G01 X20.28546 Y44.31848
G01 X20.38305 Y44.21007
G01 X20.50108 Y44.12435
G01 X20.63435 Y44.06499
G01 X20.72986 Y44.04470
G01 Z-1.50000 F100.00000
G01 F200.00000
G01 X20.77703 Y44.03468
G01 X20.92292 Y44.03468
G01 X21.06559 Y44.06499
G01 X21.10965 Y44.08461
G00 Z-0.60000
G01 X21.19887 Y44.12435
G01 X21.31690 Y44.21007
G01 X21.41451 Y44.31848
G01 X21.48744 Y44.44482
G01 X21.53252 Y44.58358
G01 X21.54779 Y44.72864
G01 X21.53252 Y44.87372
G01 X21.48746 Y45.01246
G01 X21.41451 Y45.13880
G01 X21.31690 Y45.24720
G01 X21.19889 Y45.33295
G01 X21.06559 Y45.39229
G01 X20.97009 Y45.41259
G01 Z-1.50000 F100.00000
G01 F200.00000
G01 X20.92290 Y45.42262
G01 X20.77708 Y45.42262
G01 X20.63435 Y45.39229
G01 X20.59031 Y45.37268
G00 Z-0.60000
G01 X20.50105 Y45.33295
G01 X20.38305 Y45.24720
G01 X20.28543 Y45.13880
G01 X20.21254 Y45.01248
G01 X20.16743 Y44.87370
G01 X20.15216 Y44.72864
G01 Z-2.00000 F100.00000 ( plunge. )
G04 P0 ( dwell for no time -- G64 should not smooth over this point )
G01 F200.00000
G00 Z-0.60000
G01 X20.16743 Y44.58360
G01 X20.21254 Y44.44479
G01 X20.28546 Y44.31848
G01 X20.38305 Y44.21007
G01 X20.50108 Y44.12435
G01 X20.63435 Y44.06499
G01 X20.72986 Y44.04470
G01 Z-2.00000 F100.00000
G01 F200.00000
G01 X20.77703 Y44.03468
G01 X20.92292 Y44.03468
G01 X21.06559 Y44.06499
G01 X21.10965 Y44.08461
G00 Z-0.60000
G01 X21.19887 Y44.12435
G01 X21.31690 Y44.21007
G01 X21.41451 Y44.31848
G01 X21.48744 Y44.44482
G01 X21.53252 Y44.58358
G01 X21.54779 Y44.72864
G01 X21.53252 Y44.87372
G01 X21.48746 Y45.01246
G01 X21.41451 Y45.13880
G01 X21.31690 Y45.24720
G01 X21.19889 Y45.33295
G01 X21.06559 Y45.39229
G01 X20.97009 Y45.41259
G01 Z-2.00000 F100.00000
G01 F200.00000
G01 X20.92290 Y45.42262
G01 X20.77708 Y45.42262
G01 X20.63435 Y45.39229
G01 X20.59031 Y45.37268
G00 Z-0.60000
G01 X20.50105 Y45.33295
G01 X20.38305 Y45.24720
G01 X20.28543 Y45.13880
G01 X20.21254 Y45.01248
G01 X20.16743 Y44.87370
G01 X20.15216 Y44.72864
G04 P0 ( dwell for no time -- G64 should not smooth over this point )
G00 Z5.00000 ( retract )

G00 X38.15217 Y13.55171 ( rapid move to begin. )
G01 Z-0.50000 F100.00000 ( plunge. )
G04 P0 ( dwell for no time -- G64 should not smooth over this point )
G01 F200.00000
G01 X38.16741 Y13.40665
G01 X38.21250 Y13.26792
G01 X38.28545 Y13.14158
G01 X38.38306 Y13.03317
G01 X38.50107 Y12.94742
G01 X38.63434 Y12.88809
G01 X38.72988 Y12.86777
G01 X38.77707 Y12.85773
G01 X38.92289 Y12.85773
G01 X39.06561 Y12.88809
G01 X39.10964 Y12.90769
G01 X39.19886 Y12.94742
G01 X39.31689 Y13.03317
G01 X39.41450 Y13.14158
G01 X39.48745 Y13.26792
G01 X39.53254 Y13.40665
G01 X39.54778 Y13.55171
G01 X39.53254 Y13.69680
G01 X39.48743 Y13.83556
G01 X39.41450 Y13.96190
G01 X39.31689 Y14.07030
G01 X39.19886 Y14.15603
G01 X39.06561 Y14.21539
G01 X38.97009 Y14.23568
G01 X38.92294 Y14.24569
G01 X38.77701 Y14.24569
G01 X38.63434 Y14.21539
G01 X38.59028 Y14.19576
G01 X38.50107 Y14.15603
G01 X38.38306 Y14.07030
G01 X38.28545 Y13.96190
G01 X38.21250 Y13.83556
G01 X38.16741 Y13.69682
G01 X38.15217 Y13.55171
G01 Z-1.00000 F100.00000 ( plunge. )
G04 P0 ( dwell for no time -- G64 should not smooth over this point )
G01 F200.00000
G00 Z-0.60000
G01 X38.16741 Y13.40665
G01 X38.21250 Y13.26792
G01 X38.28545 Y13.14158
G01 X38.38306 Y13.03317
G01 X38.50107 Y12.94742
G01 X38.63434 Y12.88809
G01 X38.72988 Y12.86777
G01 Z-1.00000 F100.00000
G01 F200.00000
G01 X38.77707 Y12.85773
G01 X38.92289 Y12.85773
G01 X39.06561 Y12.88809
G01 X39.10964 Y12.90769
G00 Z-0.60000
G01 X39.19886 Y12.94742
G01 X39.31689 Y13.03317
G01 X39.41450 Y13.14158
G01 X39.48745 Y13.26792
G01 X39.53254 Y13.40665
G01 X39.54778 Y13.55171
G01 X39.53254 Y13.69680
G01 X39.48743 Y13.83556
G01 X39.41450 Y13.96190
G01 X39.31689 Y14.07030
G01 X39.19886 Y14.15603
G01 X39.06561 Y14.21539
G01 X38.97009 Y14.23568
G01 Z-1.00000 F100.00000
G01 F200.00000
G01 X38.92294 Y14.24569
G01 X38.77701 Y14.24569
G01 X38.63434 Y14.21539
G01 X38.59028 Y14.19576
G00 Z-0.60000
G01 X38.50107 Y14.15603
G01 X38.38306 Y14.07030
G01 X38.28545 Y13.96190
G01 X38.21250 Y13.83556
G01 X38.16741 Y13.69682
G01 X38.15217 Y13.55171
G01 Z-1.50000 F100.00000 ( plunge. )
G04 P0 ( dwell for no time -- G64 should not smooth over this point )
G01 F200.00000
G00 Z-0.60000
G01 X38.16741 Y13.40665
G01 X38.21250 Y13.26792
G01 X38.28545 Y13.14158
G01 X38.38306 Y13.03317
G01 X38.50107 Y12.94742
G01 X38.63434 Y12.88809
G01 X38.72988 Y12.86777
G01 Z-1.50000 F100.00000
G01 F200.00000
G01 X38.77707 Y12.85773
G01 X38.92289 Y12.85773
G01 X39.06561 Y12.88809
G01 X39.10964 Y12.90769
G00 Z-0.60000
G01 X39.19886 Y12.94742
G01 X39.31689 Y13.03317
G01 X39.41450 Y13.14158
G01 X39.48745 Y13.26792
G01 X39.53254 Y13.40665
G01 X39.54778 Y13.55171
G01 X39.53254 Y13.69680
G01 X39.48743 Y13.83556
G01 X39.41450 Y13.96190
G01 X39.31689 Y14.07030
G01 X39.19886 Y14.15603
G01 X39.06561 Y14.21539
G01 X38.97009 Y14.23568
G01 Z-1.50000 F100.00000
G01 F200.00000
G01 X38.92294 Y14.24569
G01 X38.77701 Y14.24569
G01 X38.63434 Y14.21539
G01 X38.59028 Y14.19576
G00 Z-0.60000
G01 X38.50107 Y14.15603
G01 X38.38306 Y14.07030
G01 X38.28545 Y13.96190
G01 X38.21250 Y13.83556
G01 X38.16741 Y13.69682
G01 X38.15217 Y13.55171
G01 Z-2.00000 F100.00000 ( plunge. )
G04 P0 ( dwell for no time -- G64 should not smooth over this point )
G01 F200.00000
G00 Z-0.60000
G01 X38.16741 Y13.40665
G01 X38.21250 Y13.26792
G01 X38.28545 Y13.14158
G01 X38.38306 Y13.03317
G01 X38.50107 Y12.94742
G01 X38.63434 Y12.88809
G01 X38.72988 Y12.86777
G01 Z-2.00000 F100.00000
G01 F200.00000
G01 X38.77707 Y12.85773
G01 X38.92289 Y12.85773
G01 X39.06561 Y12.88809
G01 X39.10964 Y12.90769
G00 Z-0.60000
G01 X39.19886 Y12.94742
G01 X39.31689 Y13.03317
G01 X39.41450 Y13.14158
G01 X39.48745 Y13.26792
G01 X39.53254 Y13.40665
G01 X39.54778 Y13.55171
G01 X39.53254 Y13.69680
G01 X39.48743 Y13.83556
G01 X39.41450 Y13.96190
G01 X39.31689 Y14.07030
G01 X39.19886 Y14.15603
G01 X39.06561 Y14.21539
G01 X38.97009 Y14.23568
G01 Z-2.00000 F100.00000
G01 F200.00000
G01 X38.92294 Y14.24569
G01 X38.77701 Y14.24569
G01 X38.63434 Y14.21539
G01 X38.59028 Y14.19576
G00 Z-0.60000
G01 X38.50107 Y14.15603
G01 X38.38306 Y14.07030
G01 X38.28545 Y13.96190
G01 X38.21250 Y13.83556
G01 X38.16741 Y13.69682
G01 X38.15217 Y13.55171
G04 P0 ( dwell for no time -- G64 should not smooth over this point )
G00 Z5.00000 ( retract )

G00 X2.15217 Y13.55171 ( rapid move to begin. )
G01 Z-0.50000 F100.00000 ( plunge. )
G04 P0 ( dwell for no time -- G64 should not smooth over this point )
G01 F200.00000
G01 X2.16741 Y13.40665
G01 X2.21250 Y13.26792
G01 X2.28544 Y13.14158
G01 X2.38306 Y13.03317
G01 X2.50109 Y12.94742
G01 X2.63431 Y12.88809
G01 X2.72987 Y12.86777
G01 X2.77706 Y12.85773
G01 X2.92288 Y12.85773
G01 X3.06561 Y12.88809
G01 X3.10964 Y12.90769
G01 X3.19888 Y12.94742
G01 X3.31689 Y13.03317
G01 X3.41450 Y13.14158
G01 X3.48745 Y13.26792
G01 X3.53253 Y13.40665
G01 X3.54777 Y13.55171
G01 X3.53253 Y13.69680
G01 X3.48742 Y13.83556
G01 X3.41450 Y13.96190
G01 X3.31689 Y14.07030
G01 X3.19888 Y14.15603
G01 X3.06561 Y14.21539
G01 X2.97009 Y14.23567
G01 X2.92293 Y14.24569
G01 X2.77701 Y14.24569
G01 X2.63434 Y14.21539
G01 X2.59028 Y14.19576
G01 X2.50109 Y14.15603
G01 X2.38303 Y14.07028
G01 X2.28544 Y13.96190
G01 X2.21250 Y13.83556
G01 X2.16741 Y13.69682
G01 X2.15217 Y13.55171
G01 Z-1.00000 F100.00000 ( plunge. )
G04 P0 ( dwell for no time -- G64 should not smooth over this point )
G01 F200.00000
G00 Z-0.60000
G01 X2.16741 Y13.40665
G01 X2.21250 Y13.26792
G01 X2.28544 Y13.14158
G01 X2.38306 Y13.03317
G01 X2.50109 Y12.94742
G01 X2.63431 Y12.88809
G01 X2.72987 Y12.86777
G01 Z-1.00000 F100.00000
G01 F200.00000
G01 X2.77706 Y12.85773
G01 X2.92288 Y12.85773
G01 X3.06561 Y12.88809
G01 X3.10964 Y12.90769
G00 Z-0.60000
G01 X3.19888 Y12.94742
G01 X3.31689 Y13.03317
G01 X3.41450 Y13.14158
G01 X3.48745 Y13.26792
G01 X3.53253 Y13.40665
G01 X3.54777 Y13.55171
G01 X3.53253 Y13.69680
G01 X3.48742 Y13.83556
G01 X3.41450 Y13.96190
G01 X3.31689 Y14.07030
G01 X3.19888 Y14.15603
G01 X3.06561 Y14.21539
G01 X2.97009 Y14.23567
G01 Z-1.00000 F100.00000
G01 F200.00000
G01 X2.92293 Y14.24569
G01 X2.77701 Y14.24569
G01 X2.63434 Y14.21539
G01 X2.59028 Y14.19576
G00 Z-0.60000
G01 X2.50109 Y14.15603
G01 X2.38303 Y14.07028
G01 X2.28544 Y13.96190
G01 X2.21250 Y13.83556
G01 X2.16741 Y13.69682
G01 X2.15217 Y13.55171
G01 Z-1.50000 F100.00000 ( plunge. )
G04 P0 ( dwell for no time -- G64 should not smooth over this point )
G01 F200.00000
G00 Z-0.60000
G01 X2.16741 Y13.40665
G01 X2.21250 Y13.26792
G01 X2.28544 Y13.14158
G01 X2.38306 Y13.03317
G01 X2.50109 Y12.94742
G01 X2.63431 Y12.88809
G01 X2.72987 Y12.86777
G01 Z-1.50000 F100.00000
G01 F200.00000
G01 X2.77706 Y12.85773
G01 X2.92288 Y12.85773
G01 X3.06561 Y12.88809
G01 X3.10964 Y12.90769
G00 Z-0.60000
G01 X3.19888 Y12.94742
G01 X3.31689 Y13.03317
G01 X3.41450 Y13.14158
G01 X3.48745 Y13.26792
G01 X3.53253 Y13.40665
G01 X3.54777 Y13.55171
G01 X3.53253 Y13.69680
G01 X3.48742 Y13.83556
G01 X3.41450 Y13.96190
G01 X3.31689 Y14.07030
G01 X3.19888 Y14.15603
G01 X3.06561 Y14.21539
G01 X2.97009 Y14.23567
G01 Z-1.50000 F100.00000
G01 F200.00000
G01 X2.92293 Y14.24569
G01 X2.77701 Y14.24569
G01 X2.63434 Y14.21539
G01 X2.59028 Y14.19576
G00 Z-0.60000
G01 X2.50109 Y14.15603
G01 X2.38303 Y14.07028
G01 X2.28544 Y13.96190
G01 X2.21250 Y13.83556
G01 X2.16741 Y13.69682
G01 X2.15217 Y13.55171
G01 Z-2.00000 F100.00000 ( plunge. )
G04 P0 ( dwell for no time -- G64 should not smooth over this point )
G01 F200.00000
G00 Z-0.60000
G01 X2.16741 Y13.40665
G01 X2.21250 Y13.26792
G01 X2.28544 Y13.14158
G01 X2.38306 Y13.03317
G01 X2.50109 Y12.94742
G01 X2.63431 Y12.88809
G01 X2.72987 Y12.86777
G01 Z-2.00000 F100.00000
G01 F200.00000
G01 X2.77706 Y12.85773
G01 X2.92288 Y12.85773
G01 X3.06561 Y12.88809
G01 X3.10964 Y12.90769
G00 Z-0.60000
G01 X3.19888 Y12.94742
G01 X3.31689 Y13.03317
G01 X3.41450 Y13.14158
G01 X3.48745 Y13.26792
G01 X3.53253 Y13.40665
G01 X3.54777 Y13.55171
G01 X3.53253 Y13.69680
G01 X3.48742 Y13.83556
G01 X3.41450 Y13.96190
G01 X3.31689 Y14.07030
G01 X3.19888 Y14.15603
G01 X3.06561 Y14.21539
G01 X2.97009 Y14.23567
G01 Z-2.00000 F100.00000
G01 F200.00000
G01 X2.92293 Y14.24569
G01 X2.77701 Y14.24569
G01 X2.63434 Y14.21539
G01 X2.59028 Y14.19576
G00 Z-0.60000
G01 X2.50109 Y14.15603
G01 X2.38303 Y14.07028
G01 X2.28544 Y13.96190
G01 X2.21250 Y13.83556
G01 X2.16741 Y13.69682
G01 X2.15217 Y13.55171
G04 P0 ( dwell for no time -- G64 should not smooth over this point )
G00 Z5.00000 ( retract )

G00 X41.24996 Y30.25003 ( rapid move to begin. )
G01 Z-0.50000 F100.00000 ( plunge. )
G04 P0 ( dwell for no time -- G64 should not smooth over this point )
G01 F200.00000
G01 X41.98247 Y30.25003
G01 X43.78247 Y30.25003
G01 X44.51498 Y30.25003
G01 X44.59300 Y30.24233
G01 X44.66804 Y30.21957
G01 X44.73720 Y30.18262
G01 X44.79781 Y30.13286
G01 X44.84756 Y30.07225
G01 X44.88452 Y30.00309
G01 X44.90728 Y29.92806
G01 X44.91498 Y29.85000
G01 X44.91498 Y17.85003
G01 X44.90728 Y17.77197
G01 X44.88452 Y17.69694
G01 X44.84756 Y17.62778
G01 X44.79781 Y17.56717
G01 X44.73720 Y17.51741
G01 X44.66804 Y17.48046
G01 X44.59300 Y17.45770
G01 X44.51498 Y17.45000
G01 X43.78248 Y17.45001
G01 X41.98248 Y17.45002
G01 X41.24998 Y17.45003
G00 Z5.00000 ( retract )
G00 X41.24996 Y30.25003 ( rapid move to begin. )
G01 Z-1.00000 F100.00000 ( plunge. )
G04 P0 ( dwell for no time -- G64 should not smooth over this point )
G01 F200.00000
G01 X41.98247 Y30.25003
G00 Z-0.60000
G01 X43.78247 Y30.25003
G01 Z-1.00000 F100.00000
G01 F200.00000
G01 X44.51498 Y30.25003
G01 X44.59300 Y30.24233
G01 X44.66804 Y30.21957
G01 X44.73720 Y30.18262
G01 X44.79781 Y30.13286
G01 X44.84756 Y30.07225
G01 X44.88452 Y30.00309
G01 X44.90728 Y29.92806
G01 X44.91498 Y29.85000
G01 X44.91498 Y17.85003
G01 X44.90728 Y17.77197
G01 X44.88452 Y17.69694
G01 X44.84756 Y17.62778
G01 X44.79781 Y17.56717
G01 X44.73720 Y17.51741
G01 X44.66804 Y17.48046
G01 X44.59300 Y17.45770
G01 X44.51498 Y17.45000
G01 X43.78248 Y17.45001
G00 Z-0.60000
G01 X41.98248 Y17.45002
G01 Z-1.00000 F100.00000
G01 F200.00000
G01 X41.24998 Y17.45003
G00 Z5.00000 ( retract )
G00 X41.24996 Y30.25003 ( rapid move to begin. )
G01 Z-1.50000 F100.00000 ( plunge. )
G04 P0 ( dwell for no time -- G64 should not smooth over this point )
G01 F200.00000
G01 X41.98247 Y30.25003
G00 Z-0.60000
G01 X43.78247 Y30.25003
G01 Z-1.50000 F100.00000
G01 F200.00000
G01 X44.51498 Y30.25003
G01 X44.59300 Y30.24233
G01 X44.66804 Y30.21957
G01 X44.73720 Y30.18262
G01 X44.79781 Y30.13286
G01 X44.84756 Y30.07225
G01 X44.88452 Y30.00309
G01 X44.90728 Y29.92806
G01 X44.91498 Y29.85000
G01 X44.91498 Y17.85003
G01 X44.90728 Y17.77197
G01 X44.88452 Y17.69694
G01 X44.84756 Y17.62778
G01 X44.79781 Y17.56717
G01 X44.73720 Y17.51741
G01 X44.66804 Y17.48046
G01 X44.59300 Y17.45770
G01 X44.51498 Y17.45000
G01 X43.78248 Y17.45001
G00 Z-0.60000
G01 X41.98248 Y17.45002
G01 Z-1.50000 F100.00000
G01 F200.00000
G01 X41.24998 Y17.45003
G00 Z5.00000 ( retract )
G00 X41.24996 Y30.25003 ( rapid move to begin. )
G01 Z-2.00000 F100.00000 ( plunge. )
G04 P0 ( dwell for no time -- G64 should not smooth over this point )
G01 F200.00000
G01 X41.98247 Y30.25003
G00 Z-0.60000
G01 X43.78247 Y30.25003
G01 Z-2.00000 F100.00000
G01 F200.00000
G01 X44.51498 Y30.25003
G01 X44.59300 Y30.24233
G01 X44.66804 Y30.21957
G01 X44.73720 Y30.18262
G01 X44.79781 Y30.13286
G01 X44.84756 Y30.07225
G01 X44.88452 Y30.00309
G01 X44.90728 Y29.92806
G01 X44.91498 Y29.85000
G01 X44.91498 Y17.85003
G01 X44.90728 Y17.77197
G01 X44.88452 Y17.69694
G01 X44.84756 Y17.62778
G01 X44.79781 Y17.56717
G01 X44.73720 Y17.51741
G01 X44.66804 Y17.48046
G01 X44.59300 Y17.45770
G01 X44.51498 Y17.45000
G01 X43.78248 Y17.45001
G00 Z-0.60000
G01 X41.98248 Y17.45002
G01 Z-2.00000 F100.00000
G01 F200.00000
G01 X41.24998 Y17.45003
G04 P0 ( dwell for no time -- G64 should not smooth over this point )
G00 Z5.00000 ( retract )

G00 X40.44996 Y18.25003 ( rapid move to begin. )
G01 Z-0.50000 F100.00000 ( plunge. )
G04 P0 ( dwell for no time -- G64 should not smooth over this point )
G01 F200.00000
G01 X34.85000 Y18.25003
G01 X34.85000 Y29.45000
G01 X40.44996 Y29.45000
G01 X41.24996 Y30.25003
G01 X41.24998 Y35.49104
G01 X41.24389 Y35.56051
G01 X41.22585 Y35.62787
G01 X41.19639 Y35.69106
G01 X41.15639 Y35.74816
G01 X41.10708 Y35.79746
G01 X41.04998 Y35.83747
G01 X21.05000 Y47.38446
G01 X20.98680 Y47.41393
G01 X20.91944 Y47.43196
G01 X20.85000 Y47.43806
G01 X20.78053 Y47.43196
G01 X20.71317 Y47.41393
G01 X20.64997 Y47.38446
G01 X0.64996 Y35.83747
G01 X0.59286 Y35.79746
G01 X0.54356 Y35.74816
G01 X0.50356 Y35.69106
G01 X0.47409 Y35.62787
G01 X0.45606 Y35.56051
G01 X0.44996 Y35.49104
G01 X0.44996 Y24.84403
G01 X0.44996 Y23.04403
G01 X0.44996 Y12.39703
G01 X0.45606 Y12.32758
G01 X0.47409 Y12.26022
G01 X0.50356 Y12.19703
G01 X0.54356 Y12.13993
G01 X0.59286 Y12.09063
G01 X0.64996 Y12.05062
G01 X20.64997 Y0.50361
G01 X20.71317 Y0.47414
G01 X20.78053 Y0.45611
G01 X20.85000 Y0.45001
G01 X20.91944 Y0.45611
G01 X20.98680 Y0.47414
G01 X21.05000 Y0.50361
G01 X41.04998 Y12.05062
G01 X41.10708 Y12.09063
G01 X41.15639 Y12.13993
G01 X41.19639 Y12.19703
G01 X41.22585 Y12.26022
G01 X41.24389 Y12.32758
G01 X41.24998 Y12.39703
G01 X41.24998 Y14.02353
G01 X41.24998 Y15.82353
G01 X41.24998 Y17.45003
G01 X40.44996 Y18.25003
G01 X40.44996 Y29.45000
G00 Z5.00000 ( retract )
G00 X40.44996 Y18.25003 ( rapid move to begin. )
G01 Z-1.00000 F100.00000 ( plunge. )
G04 P0 ( dwell for no time -- G64 should not smooth over this point )
G01 F200.00000
G01 X34.85000 Y18.25003
G01 X34.85000 Y29.45000
G01 X40.44996 Y29.45000
G01 X41.24996 Y30.25003
G01 X41.24998 Y35.49104
G01 X41.24389 Y35.56051
G01 X41.22585 Y35.62787
G01 X41.19639 Y35.69106
G01 X41.15639 Y35.74816
G01 X41.10708 Y35.79746
G01 X41.04998 Y35.83747
G01 X21.05000 Y47.38446
G01 X20.98680 Y47.41393
G01 X20.91944 Y47.43196
G01 X20.85000 Y47.43806
G01 X20.78053 Y47.43196
G01 X20.71317 Y47.41393
G01 X20.64997 Y47.38446
G01 X0.64996 Y35.83747
G01 X0.59286 Y35.79746
G01 X0.54356 Y35.74816
G01 X0.50356 Y35.69106
G01 X0.47409 Y35.62787
G01 X0.45606 Y35.56051
G01 X0.44996 Y35.49104
G01 X0.44996 Y24.84403
G00 Z-0.60000
G01 X0.44996 Y23.04403
G01 Z-1.00000 F100.00000
G01 F200.00000
G01 X0.44996 Y12.39703
G01 X0.45606 Y12.32758
G01 X0.47409 Y12.26022
G01 X0.50356 Y12.19703
G01 X0.54356 Y12.13993
G01 X0.59286 Y12.09063
G01 X0.64996 Y12.05062
G01 X20.64997 Y0.50361
G01 X20.71317 Y0.47414
G01 X20.78053 Y0.45611
G01 X20.85000 Y0.45001
G01 X20.91944 Y0.45611
G01 X20.98680 Y0.47414
G01 X21.05000 Y0.50361
G01 X41.04998 Y12.05062
G01 X41.10708 Y12.09063
G01 X41.15639 Y12.13993
G01 X41.19639 Y12.19703
G01 X41.22585 Y12.26022
G01 X41.24389 Y12.32758
G01 X41.24998 Y12.39703
G01 X41.24998 Y14.02353
G00 Z-0.60000
G01 X41.24998 Y15.82353
G01 Z-1.00000 F100.00000
G01 F200.00000
G01 X41.24998 Y17.45003
G01 X40.44996 Y18.25003
G01 X40.44996 Y29.45000
G00 Z5.00000 ( retract )
G00 X40.44996 Y18.25003 ( rapid move to begin. )
G01 Z-1.50000 F100.00000 ( plunge. )
G04 P0 ( dwell for no time -- G64 should not smooth over this point )
G01 F200.00000
G01 X34.85000 Y18.25003
G01 X34.85000 Y29.45000
G01 X40.44996 Y29.45000
G01 X41.24996 Y30.25003
G01 X41.24998 Y35.49104
G01 X41.24389 Y35.56051
G01 X41.22585 Y35.62787
G01 X41.19639 Y35.69106
G01 X41.15639 Y35.74816
G01 X41.10708 Y35.79746
G01 X41.04998 Y35.83747
G01 X21.05000 Y47.38446
G01 X20.98680 Y47.41393
G01 X20.91944 Y47.43196
G01 X20.85000 Y47.43806
G01 X20.78053 Y47.43196
G01 X20.71317 Y47.41393
G01 X20.64997 Y47.38446
G01 X0.64996 Y35.83747
G01 X0.59286 Y35.79746
G01 X0.54356 Y35.74816
G01 X0.50356 Y35.69106
G01 X0.47409 Y35.62787
G01 X0.45606 Y35.56051
G01 X0.44996 Y35.49104
G01 X0.44996 Y24.84403
G00 Z-0.60000
G01 X0.44996 Y23.04403
G01 Z-1.50000 F100.00000
G01 F200.00000
G01 X0.44996 Y12.39703
G01 X0.45606 Y12.32758
G01 X0.47409 Y12.26022
G01 X0.50356 Y12.19703
G01 X0.54356 Y12.13993
G01 X0.59286 Y12.09063
G01 X0.64996 Y12.05062
G01 X20.64997 Y0.50361
G01 X20.71317 Y0.47414
G01 X20.78053 Y0.45611
G01 X20.85000 Y0.45001
G01 X20.91944 Y0.45611
G01 X20.98680 Y0.47414
G01 X21.05000 Y0.50361
G01 X41.04998 Y12.05062
G01 X41.10708 Y12.09063
G01 X41.15639 Y12.13993
G01 X41.19639 Y12.19703
G01 X41.22585 Y12.26022
G01 X41.24389 Y12.32758
G01 X41.24998 Y12.39703
G01 X41.24998 Y14.02353
G00 Z-0.60000
G01 X41.24998 Y15.82353
G01 Z-1.50000 F100.00000
G01 F200.00000
G01 X41.24998 Y17.45003
G01 X40.44996 Y18.25003
G01 X40.44996 Y29.45000
G00 Z5.00000 ( retract )
G00 X40.44996 Y18.25003 ( rapid move to begin. )
G01 Z-2.00000 F100.00000 ( plunge. )
G04 P0 ( dwell for no time -- G64 should not smooth over this point )
G01 F200.00000
G01 X34.85000 Y18.25003
G01 X34.85000 Y29.45000
G01 X40.44996 Y29.45000
G01 X41.24996 Y30.25003
G01 X41.24998 Y35.49104
G01 X41.24389 Y35.56051
G01 X41.22585 Y35.62787
G01 X41.19639 Y35.69106
G01 X41.15639 Y35.74816
G01 X41.10708 Y35.79746
G01 X41.04998 Y35.83747
G01 X21.05000 Y47.38446
G01 X20.98680 Y47.41393
G01 X20.91944 Y47.43196
G01 X20.85000 Y47.43806
G01 X20.78053 Y47.43196
G01 X20.71317 Y47.41393
G01 X20.64997 Y47.38446
G01 X0.64996 Y35.83747
G01 X0.59286 Y35.79746
G01 X0.54356 Y35.74816
G01 X0.50356 Y35.69106
G01 X0.47409 Y35.62787
G01 X0.45606 Y35.56051
G01 X0.44996 Y35.49104
G01 X0.44996 Y24.84403
G00 Z-0.60000
G01 X0.44996 Y23.04403
G01 Z-2.00000 F100.00000
G01 F200.00000
G01 X0.44996 Y12.39703
G01 X0.45606 Y12.32758
G01 X0.47409 Y12.26022
G01 X0.50356 Y12.19703
G01 X0.54356 Y12.13993
G01 X0.59286 Y12.09063
G01 X0.64996 Y12.05062
G01 X20.64997 Y0.50361
G01 X20.71317 Y0.47414
G01 X20.78053 Y0.45611
G01 X20.85000 Y0.45001
G01 X20.91944 Y0.45611
G01 X20.98680 Y0.47414
G01 X21.05000 Y0.50361
G01 X41.04998 Y12.05062
G01 X41.10708 Y12.09063
G01 X41.15639 Y12.13993
G01 X41.19639 Y12.19703
G01 X41.22585 Y12.26022
G01 X41.24389 Y12.32758
G01 X41.24998 Y12.39703
G01 X41.24998 Y14.02353
G00 Z-0.60000
G01 X41.24998 Y15.82353
G01 Z-2.00000 F100.00000
G01 F200.00000
G01 X41.24998 Y17.45003
G01 X40.44996 Y18.25003
G01 X40.44996 Y29.45000

G04 P0 ( dwell for no time -- G64 should not smooth over this point )
G00 Z10.000000 ( retract )

M5 ( Spindle off. )
G04 P1.000000
M9 ( Coolant off. )
M2 ( Program end. )

